; generated by PrusaSlicer 2.5.2+win64 on 2023-05-24 at 01:49:02 UTC


;
;
; 

; external perimeters extrusion width = 0.45mm
; perimeters extrusion width = 0.45mm
; infill extrusion width = 0.45mm
; solid infill extrusion width = 0.45mm
; top infill extrusion width = 0.40mm
; first layer extrusion width = 0.42mm

M73 P0 R87
M73 Q0 S87
M201 X1000 Y1000 Z200 E5000 ; sets maximum accelerations, mm/sec^2
M203 X200 Y200 Z12 E120 ; sets maximum feedrates, mm / sec
M204 P1250 R1250 T1250 ; sets acceleration (P, T) and retract acceleration (R), mm/sec^2
M205 X8.00 Y8.00 Z0.40 E4.50 ; sets the jerk limits, mm/sec
M205 S0 T0 ; sets the minimum extruding and travel feed rate, mm/sec
M107
;TYPE:Custom
M862.3 P "MK3S" ; printer model check
M862.1 P0.4 ; nozzle diameter check
M115 U3.12.2 ; tell printer latest fw version
G90 ; use absolute coordinates
M83 ; extruder relative mode
M104 S230 ; set extruder temp
M140 S60 ; set bed temp
M190 S60 ; wait for bed temp
M109 S230 ; wait for extruder temp
G28 W ; home all without mesh bed level
G80 ; mesh bed leveling

G1 Z0.2 F720
G1 Y-3 F1000 ; go outside print area
G92 E0
G1 X60 E9 F1000 ; intro line
G1 X100 E12.5 F1000 ; intro line

G92 E0
M221 S95

; Don't change E values below. Excessive value can damage the printer.

G21 ; set units to millimeters
G90 ; use absolute coordinates
M83 ; use relative distances for extrusion
M900 K0.05 ; Filament gcode LA 1.5
M900 K30 ; Filament gcode LA 1.0
M107
;LAYER_CHANGE
;Z:0.2
;HEIGHT:0.2
;BEFORE_LAYER_CHANGE
G92 E0.0
;0.2


G1 E-.8 F2100
G1 Z.4 F720
;AFTER_LAYER_CHANGE
;0.2
G1 X83.252 Y69.344 F10800
G1 Z.2 F720
G1 E.8 F2100
M204 S800
;TYPE:Skirt/Brim
;WIDTH:0.42
G1 F1200
G1 X84.561 Y67.865 E.06192
G1 X87.031 Y65.342 E.11072
G1 X89.916 Y62.769 E.12121
G1 X92.7 Y60.603 E.11059
G1 X94.356 Y59.444 E.06338
G1 X97.339 Y57.574 E.1104
G1 X99.069 Y56.606 E.06215
G1 X102.26 Y55.026 E.11163
G1 X104.113 Y54.225 E.06331
G1 X107.426 Y52.985 E.11089
G1 X109.303 Y52.387 E.06176
G1 X112.757 Y51.478 E.112
G1 X114.69 Y51.072 E.06194
G1 X118.217 Y50.517 E.11192
G1 X120.183 Y50.307 E.06202
G1 X123.745 Y50.11 E.11183
G1 X125.638 Y50.1 E.05938
G1 X127.605 Y50.158 E.0617
G1 X131.168 Y50.442 E.11207
G1 X133.128 Y50.701 E.06197
G1 X136.637 Y51.343 E.11185
G1 X140.179 Y52.235 E.11453
G1 X141.995 Y52.793 E.05957
G1 X143.849 Y53.433 E.06147
G1 X147.132 Y54.752 E.11096
G1 X148.965 Y55.601 E.06333
G1 X152.12 Y57.261 E.11177
G1 X153.823 Y58.269 E.06206
G1 X156.761 Y60.214 E.11045
G1 X159.832 Y62.559 E.12117
G1 X162.492 Y64.89 E.11087
G1 X163.911 Y66.264 E.06197
G1 X166.34 Y68.869 E.11164
G1 X167.619 Y70.384 E.06217
G1 X169.774 Y73.223 E.11177
G1 X170.844 Y74.788 E.05943
G1 X172.751 Y77.9 E.11444
G1 X173.656 Y79.565 E.05943
G1 X174.54 Y81.329 E.06185
G1 X175.958 Y84.561 E.11067
G1 X177.27 Y88.2 E.12128
G1 X178.239 Y91.588 E.11051
G1 X178.697 Y93.553 E.06325
G1 X179.321 Y97.031 E.11078
G1 X179.572 Y98.985 E.06178
G1 X179.847 Y102.547 E.11201
G1 X179.9 Y104.56 E.06314
G1 X179.817 Y108.082 E.11048
G1 X179.669 Y110.061 E.06221
G1 X179.226 Y113.598 E.11177
G1 X178.881 Y115.548 E.06208
G1 X178.081 Y119.025 E.11188
G1 X177.542 Y120.927 E.06196
G1 X176.393 Y124.309 E.11201
G1 X175.668 Y126.142 E.0618
G1 X174.187 Y129.39 E.11193
G1 X173.316 Y131.072 E.05937
G1 X172.349 Y132.789 E.06178
G1 X170.443 Y135.81 E.11202
G1 X169.303 Y137.425 E.062
G1 X167.103 Y140.234 E.11185
G1 X165.806 Y141.73 E.06207
G1 X163.366 Y144.271 E.11047
G1 X161.892 Y145.657 E.06344
G1 X159.207 Y147.94 E.1105
G1 X156.1 Y150.241 E.12122
G1 X153.133 Y152.144 E.11054
G1 X151.419 Y153.124 E.06189
G1 X148.227 Y154.744 E.11223
G1 X146.39 Y155.562 E.06306
G1 X143.1 Y156.831 E.11056
G1 X141.222 Y157.448 E.06198
G1 X139.404 Y157.977 E.05938
G1 X135.845 Y158.819 E.11465
G1 X132.328 Y159.407 E.11181
G1 X130.365 Y159.637 E.06196
G1 X126.805 Y159.869 E.11186
G1 X124.824 Y159.9 E.06213
G1 X121.261 Y159.772 E.1118
G1 X119.413 Y159.613 E.05815
G1 X115.63 Y159.093 E.11972
G1 X113.775 Y158.739 E.05923
G1 X110.344 Y157.907 E.11069
G1 X106.749 Y156.838 E.11757
G1 X105.652 Y156.443 E.03658
G1 X102.255 Y154.966 E.11614
G1 X99.058 Y153.383 E.11185
G1 X97.298 Y152.398 E.06324
G1 X94.307 Y150.518 E.11076
G1 X92.653 Y149.359 E.06334
G1 X89.846 Y147.168 E.11163
G1 X88.348 Y145.874 E.06207
G1 X85.8 Y143.437 E.11056
G1 X83.19 Y140.58 E.12133
G1 X80.994 Y137.822 E.11053
G1 X79.816 Y136.184 E.06326
G1 X77.907 Y133.219 E.11055
G1 X76.922 Y131.504 E.06204
G1 X75.3 Y128.322 E.11198
G1 X74.478 Y126.481 E.06322
G1 X73.202 Y123.193 E.11059
G1 X72.583 Y121.321 E.06182
G1 X71.63 Y117.872 E.11218
G1 X71.203 Y115.951 E.06171
G1 X70.856 Y114.086 E.05948
G1 X70.37 Y110.464 E.11458
G1 X70.131 Y106.906 E.1118
G1 X70.1 Y104.925 E.06214
G1 X70.219 Y101.365 E.11167
G1 X70.385 Y99.394 E.06201
G1 X70.866 Y95.848 E.11221
G1 X71.229 Y93.916 E.06163
G1 X72.064 Y90.438 E.11215
G1 X72.62 Y88.551 E.06169
G1 X73.22 Y86.747 E.05959
G1 X74.515 Y83.426 E.11177
G1 X75.322 Y81.628 E.0618
G1 X76.945 Y78.446 E.112
G1 X77.934 Y76.735 E.06196
G1 X79.869 Y73.736 E.11192
G1 X81.026 Y72.127 E.06214
G1 X83.215 Y69.391 E.10985
M204 S1000
;WIPE_START
G1 F8640
G1 X84.561 Y67.865 E-.46982
G1 X85.44 Y66.967 E-.29018
;WIPE_END
G1 E-.04 F2100
G1 Z.6 F720
G1 X85.267 Y71.088 F10800
G1 Z.2 F720
G1 E.8 F2100
M204 S800
G1 F1200
G1 X86.498 Y69.693 E.05835
G1 X87.684 Y68.441 E.05406
G1 X88.9 Y67.24 E.05358
G1 X90.257 Y65.987 E.05792
G1 X91.565 Y64.861 E.05412
G1 X92.91 Y63.779 E.05412
G1 X94.312 Y62.723 E.05505
G1 X95.737 Y61.725 E.05454
G1 X97.215 Y60.763 E.05529
G1 X98.79 Y59.811 E.05771
G1 X100.293 Y58.972 E.05395
G1 X101.828 Y58.182 E.05414
G1 X103.481 Y57.397 E.0574
G1 X105.058 Y56.716 E.05385
G1 X106.651 Y56.088 E.05367
G1 X108.316 Y55.496 E.05543
G1 X109.983 Y54.964 E.05486
G1 X111.677 Y54.486 E.05518
G1 X113.432 Y54.056 E.05664
G1 X115.193 Y53.688 E.05641
G1 X116.928 Y53.387 E.05521
G1 X118.664 Y53.145 E.05496
G1 X120.419 Y52.96 E.05534
G1 X122.132 Y52.838 E.05384
G1 X123.843 Y52.772 E.05368
G1 X125.688 Y52.764 E.05785
G1 X127.397 Y52.814 E.05362
G1 X129.113 Y52.921 E.05391
G1 X130.899 Y53.092 E.05625
G1 X132.697 Y53.33 E.05687
G1 X134.404 Y53.614 E.05424
G1 X136.11 Y53.954 E.05455
G1 X137.804 Y54.353 E.05456
G1 X139.479 Y54.805 E.05442
G1 X141.167 Y55.325 E.05536
G1 X142.83 Y55.897 E.05515
G1 X144.465 Y56.52 E.05487
G1 X146.091 Y57.204 E.05531
G1 X147.769 Y57.981 E.05797
G1 X149.3 Y58.755 E.05379
G1 X150.811 Y59.58 E.05397
G1 X152.393 Y60.516 E.05765
G1 X153.834 Y61.438 E.05364
G1 X155.251 Y62.408 E.05382
G1 X156.674 Y63.456 E.05544
G1 X158.048 Y64.54 E.05487
G1 X159.392 Y65.676 E.05517
G1 X160.725 Y66.885 E.05643
G1 X162.018 Y68.138 E.05646
G1 X163.21 Y69.378 E.05393
G1 X164.359 Y70.65 E.05373
G1 X165.547 Y72.058 E.05776
G1 X166.612 Y73.417 E.05416
G1 X167.629 Y74.802 E.05385
G1 X168.651 Y76.3 E.05688
G1 X169.574 Y77.756 E.05405
G1 X170.453 Y79.247 E.05427
G1 X171.32 Y80.845 E.05701
G1 X172.118 Y82.437 E.05582
G1 X172.845 Y84.025 E.05478
G1 X173.516 Y85.628 E.05448
G1 X174.153 Y87.303 E.05618
G1 X174.709 Y88.933 E.054
G1 X175.211 Y90.586 E.05416
G1 X175.67 Y92.292 E.05541
G1 X176.068 Y93.994 E.05481
G1 X176.41 Y95.724 E.05527
G1 X176.693 Y97.465 E.05532
G1 X176.916 Y99.201 E.05487
G1 X177.083 Y100.959 E.05538
G1 X177.192 Y102.779 E.05716
G1 X177.236 Y104.505 E.05415
G1 X177.224 Y106.219 E.05372
G1 X177.153 Y108.018 E.05646
G1 X177.018 Y109.808 E.0563
G1 X176.831 Y111.516 E.05387
G1 X176.589 Y113.218 E.05389
G1 X176.268 Y115.03 E.05769
G1 X175.902 Y116.745 E.05499
G1 X175.479 Y118.443 E.05488
G1 X174.994 Y120.15 E.05564
G1 X174.453 Y121.831 E.05537
G1 X173.861 Y123.476 E.0548
G1 X173.209 Y125.119 E.05542
G1 X172.52 Y126.695 E.05392
G1 X171.784 Y128.24 E.05366
G1 X170.949 Y129.849 E.05685
G1 X170.07 Y131.41 E.05617
G1 X169.168 Y132.894 E.05445
G1 X168.214 Y134.351 E.05462
G1 X167.214 Y135.769 E.05438
G1 X166.166 Y137.157 E.05454
G1 X165.008 Y138.586 E.05768
G1 X163.852 Y139.92 E.05533
G1 X162.674 Y141.185 E.05419
G1 X161.458 Y142.412 E.05418
G1 X160.13 Y143.66 E.05712
G1 X158.845 Y144.788 E.05363
G1 X157.519 Y145.88 E.05386
G1 X156.087 Y146.98 E.05661
G1 X154.622 Y148.026 E.05644
G1 X153.185 Y148.98 E.05409
G1 X151.736 Y149.876 E.05341
G1 X150.135 Y150.791 E.05783
G1 X148.576 Y151.615 E.05528
G1 X146.999 Y152.378 E.05492
G1 X145.386 Y153.095 E.05536
G1 X143.791 Y153.739 E.05393
G1 X142.187 Y154.328 E.0536
G1 X140.445 Y154.9 E.05747
G1 X138.74 Y155.397 E.05567
G1 X137.046 Y155.828 E.05482
G1 X135.324 Y156.206 E.05527
G1 X133.638 Y156.516 E.05376
G1 X131.937 Y156.772 E.05392
G1 X130.105 Y156.986 E.05783
G1 X128.396 Y157.124 E.05375
G1 X126.681 Y157.209 E.05385
G1 X124.831 Y157.236 E.05801
G1 X123.103 Y157.201 E.05418
G1 X121.383 Y157.111 E.05401
G1 X119.59 Y156.954 E.05642
G1 X117.847 Y156.745 E.05506
G1 X116.127 Y156.476 E.05457
G1 X114.414 Y156.152 E.05466
G1 X112.696 Y155.766 E.05522
G1 X111.004 Y155.326 E.05481
G1 X109.111 Y154.75 E.06203
G1 X108.12 Y154.208 E.03544
G1 X107.454 Y153.628 E.02768
G1 X107.333 Y153.487 E.00582
G1 X106.495 Y153.554 E.02635
G1 X105.189 Y153.327 E.04155
G1 X103.36 Y152.543 E.06242
G1 X101.801 Y151.801 E.05413
G1 X100.272 Y151.012 E.05393
G1 X98.73 Y150.15 E.0554
G1 X97.224 Y149.24 E.05518
G1 X95.75 Y148.278 E.05518
G1 X94.266 Y147.239 E.05681
G1 X92.874 Y146.187 E.0547
G1 X91.521 Y145.097 E.05449
G1 X90.169 Y143.929 E.05602
G1 X88.897 Y142.751 E.05436
G1 X87.661 Y141.531 E.05446
G1 X86.433 Y140.23 E.05607
G1 X85.244 Y138.883 E.05633
G1 X84.155 Y137.561 E.05372
G1 X83.106 Y136.2 E.05389
G1 X82.03 Y134.703 E.05779
G1 X81.07 Y133.262 E.0543
G1 X80.162 Y131.8 E.05395
G1 X79.261 Y130.229 E.05678
G1 X78.455 Y128.711 E.05389
G1 X77.695 Y127.156 E.05427
G1 X76.948 Y125.485 E.05741
G1 X76.297 Y123.883 E.05419
G1 X75.696 Y122.255 E.05442
G1 X75.126 Y120.528 E.05704
G1 X74.632 Y118.851 E.0548
G1 X74.195 Y117.149 E.05509
G1 X73.815 Y115.428 E.05524
G1 X73.489 Y113.682 E.0557
G1 X73.229 Y111.953 E.05483
G1 X73.02 Y110.198 E.05541
G1 X72.88 Y108.485 E.05389
G1 X72.792 Y106.775 E.05368
G1 X72.764 Y104.928 E.05792
G1 X72.794 Y103.213 E.05377
G1 X72.879 Y101.503 E.0537
G1 X73.035 Y99.663 E.0579
G1 X73.244 Y97.913 E.05526
G1 X73.508 Y96.2 E.05433
G1 X73.832 Y94.483 E.0548
G1 X74.222 Y92.73 E.05629
G1 X74.659 Y91.048 E.05451
G1 X75.153 Y89.375 E.0547
G1 X75.719 Y87.669 E.05636
G1 X76.32 Y86.05 E.05415
G1 X76.967 Y84.467 E.05359
G1 X77.717 Y82.794 E.0575
G1 X78.475 Y81.246 E.05403
G1 X79.275 Y79.736 E.05356
G1 X80.163 Y78.197 E.05573
G1 X81.08 Y76.718 E.05457
G1 X82.066 Y75.242 E.05565
G1 X83.137 Y73.752 E.05753
G1 X84.195 Y72.384 E.05423
G1 X85.229 Y71.134 E.05084
M204 S1000
G1 X85.519 Y71.375 F10800
M204 S800
G1 F1200
G1 X86.774 Y69.95 E.05953
G1 X87.952 Y68.707 E.05366
G1 X89.162 Y67.511 E.05338
G1 X90.505 Y66.271 E.05731
G1 X91.809 Y65.149 E.05392
G1 X93.144 Y64.074 E.05373
G1 X94.536 Y63.026 E.05466
G1 X95.951 Y62.035 E.05414
G1 X97.418 Y61.081 E.05488
G1 X98.977 Y60.138 E.05711
G1 X100.474 Y59.303 E.05375
M73 P0 R86
G1 X101.998 Y58.518 E.05375
G1 X103.634 Y57.741 E.05679
G1 X105.199 Y57.066 E.05346
G1 X106.786 Y56.44 E.05348
G1 X108.44 Y55.852 E.05503
G1 X110.095 Y55.324 E.05447
G1 X111.776 Y54.85 E.05478
G1 X113.518 Y54.423 E.05624
G1 X115.261 Y54.059 E.0558
G1 X116.983 Y53.76 E.05482
G1 X118.707 Y53.52 E.05456
G1 X120.449 Y53.336 E.05494
G1 X122.15 Y53.215 E.05345
G1 X123.854 Y53.148 E.05348
G1 X125.68 Y53.141 E.05725
G1 X127.383 Y53.191 E.05342
G1 X129.087 Y53.297 E.05352
G1 X130.853 Y53.466 E.05564
G1 X132.639 Y53.702 E.05647
G1 X134.333 Y53.984 E.05385
G1 X136.026 Y54.322 E.05414
G1 X137.714 Y54.72 E.05436
G1 X139.378 Y55.168 E.05403
G1 X141.053 Y55.684 E.05495
G1 X142.705 Y56.252 E.05478
G1 X144.328 Y56.871 E.05447
G1 X145.942 Y57.55 E.0549
G1 X147.602 Y58.319 E.05735
G1 X149.127 Y59.09 E.05359
G1 X150.627 Y59.909 E.05359
G1 X152.193 Y60.836 E.05704
G1 X153.629 Y61.754 E.05344
G1 X155.035 Y62.717 E.05344
G1 X156.448 Y63.758 E.05503
G1 X157.812 Y64.834 E.05447
G1 X159.146 Y65.962 E.05478
G1 X160.465 Y67.158 E.05582
G1 X161.749 Y68.402 E.05605
G1 X162.932 Y69.633 E.05355
G1 X164.077 Y70.9 E.05354
G1 X165.252 Y72.293 E.05714
G1 X166.31 Y73.643 E.05378
G1 X167.323 Y75.022 E.05365
G1 X168.334 Y76.505 E.05627
G1 X169.25 Y77.95 E.05367
G1 X170.126 Y79.436 E.05407
G1 X170.984 Y81.017 E.05641
G1 X171.776 Y82.597 E.05541
G1 X172.499 Y84.174 E.05439
G1 X173.165 Y85.765 E.05409
G1 X173.797 Y87.428 E.05577
G1 X174.349 Y89.046 E.05361
G1 X174.85 Y90.692 E.05396
G1 X175.304 Y92.381 E.05483
G1 X175.7 Y94.077 E.05461
G1 X176.039 Y95.794 E.05486
G1 X176.32 Y97.523 E.05492
G1 X176.542 Y99.246 E.05447
G1 X176.707 Y100.991 E.05498
G1 X176.815 Y102.792 E.05655
G1 X176.859 Y104.506 E.05376
G1 X176.847 Y106.213 E.05352
G1 X176.776 Y108 E.05607
G1 X176.643 Y109.771 E.05568
G1 X176.457 Y111.466 E.05349
G1 X176.217 Y113.162 E.05369
G1 X175.899 Y114.954 E.05707
G1 X175.534 Y116.663 E.05479
G1 X175.114 Y118.349 E.05448
G1 X174.634 Y120.038 E.05504
G1 X174.097 Y121.707 E.05497
G1 X173.51 Y123.34 E.05442
G1 X172.862 Y124.971 E.05502
G1 X172.178 Y126.535 E.05353
G1 X171.445 Y128.075 E.05346
G1 X170.619 Y129.667 E.05624
G1 X169.746 Y131.217 E.05577
G1 X168.851 Y132.69 E.05406
G1 X167.904 Y134.137 E.05422
G1 X166.908 Y135.549 E.05418
G1 X165.867 Y136.927 E.05415
G1 X164.721 Y138.342 E.05708
G1 X163.574 Y139.666 E.05491
G1 X162.4 Y140.926 E.054
G1 X161.193 Y142.144 E.05379
G1 X159.879 Y143.378 E.05651
G1 X158.599 Y144.503 E.05344
G1 X157.282 Y145.587 E.05348
G1 X155.86 Y146.679 E.0562
G1 X154.411 Y147.713 E.05584
G1 X152.984 Y148.661 E.0537
G1 X151.541 Y149.554 E.05321
G1 X149.956 Y150.459 E.05723
G1 X148.409 Y151.277 E.05487
G1 X146.843 Y152.034 E.05453
G1 X145.242 Y152.746 E.05496
G1 X143.653 Y153.388 E.05373
G1 X142.06 Y153.973 E.05321
G1 X140.336 Y154.539 E.05687
G1 X138.644 Y155.032 E.05527
G1 X136.962 Y155.46 E.05444
G1 X135.253 Y155.836 E.05486
G1 X133.572 Y156.145 E.05356
G1 X131.884 Y156.399 E.05354
G1 X130.071 Y156.611 E.05723
G1 X128.375 Y156.748 E.05337
G1 X126.665 Y156.832 E.05366
G1 X124.835 Y156.859 E.05739
G1 X123.12 Y156.824 E.0538
G1 X121.406 Y156.734 E.05381
G1 X119.632 Y156.579 E.05583
G1 X117.902 Y156.372 E.05464
G1 X116.189 Y156.104 E.05437
G1 X114.488 Y155.782 E.05427
G1 X112.782 Y155.399 E.05482
G1 X111.103 Y154.962 E.0544
G1 X109.24 Y154.396 E.06103
G1 X108.321 Y153.888 E.03293
G1 X107.717 Y153.357 E.02522
G1 X107.501 Y153.093 E.01068
G1 X106.533 Y153.178 E.03045
G1 X105.317 Y152.972 E.03868
G1 X103.518 Y152.2 E.06136
G1 X101.966 Y151.462 E.05391
M73 P1 R86
M73 Q1 S87
G1 X100.448 Y150.679 E.05355
G1 X98.917 Y149.822 E.055
G1 X97.422 Y148.919 E.05478
G1 X95.959 Y147.964 E.05478
G1 X94.49 Y146.936 E.0562
G1 X93.103 Y145.888 E.0545
G1 X91.76 Y144.805 E.0541
G1 X90.423 Y143.65 E.05541
G1 X89.159 Y142.481 E.05397
G1 X87.928 Y141.265 E.05426
G1 X86.709 Y139.974 E.05566
G1 X85.533 Y138.641 E.05573
G1 X84.448 Y137.323 E.05352
G1 X83.407 Y135.972 E.0535
G1 X82.342 Y134.491 E.05718
G1 X81.385 Y133.055 E.0541
G1 X80.484 Y131.604 E.05356
G1 X79.593 Y130.05 E.05618
G1 X78.79 Y128.537 E.05369
G1 X78.035 Y126.993 E.05387
G1 X77.296 Y125.339 E.0568
G1 X76.65 Y123.75 E.0538
G1 X76.05 Y122.128 E.05422
G1 X75.487 Y120.418 E.05644
G1 X74.997 Y118.754 E.0544
G1 X74.563 Y117.065 E.05469
G1 X74.185 Y115.356 E.05486
G1 X73.861 Y113.623 E.05529
G1 X73.603 Y111.906 E.05445
G1 X73.396 Y110.164 E.055
G1 X73.256 Y108.463 E.05351
G1 X73.168 Y106.759 E.05348
G1 X73.141 Y104.932 E.0573
G1 X73.171 Y103.229 E.0534
G1 X73.256 Y101.525 E.05351
G1 X73.41 Y99.704 E.05729
G1 X73.617 Y97.967 E.05485
G1 X73.879 Y96.267 E.05394
G1 X74.202 Y94.555 E.0546
G1 X74.588 Y92.822 E.05568
G1 X75.022 Y91.152 E.05411
G1 X75.514 Y89.484 E.0545
G1 X76.074 Y87.797 E.05575
G1 X76.671 Y86.189 E.05376
G1 X77.315 Y84.613 E.0534
G1 X78.057 Y82.957 E.05691
G1 X78.809 Y81.42 E.05365
G1 X79.606 Y79.916 E.05336
G1 X80.488 Y78.388 E.05531
G1 X81.399 Y76.919 E.05419
G1 X82.377 Y75.454 E.05525
G1 X83.437 Y73.98 E.05691
G1 X84.488 Y72.622 E.05384
G1 X85.481 Y71.421 E.04887
M204 S1000
G1 X85.772 Y71.661 F10800
M204 S800
G1 F1200
G1 X87.05 Y70.207 E.06072
G1 X88.223 Y68.969 E.05347
G1 X89.425 Y67.781 E.05299
