; generated by PrusaSlicer 2.5.2+win64 on 2023-05-24 at 01:49:11 UTC


;
;
; 

; external perimeters extrusion width = 0.45mm
; perimeters extrusion width = 0.45mm
; infill extrusion width = 0.45mm
; solid infill extrusion width = 0.45mm
; top infill extrusion width = 0.40mm
; first layer extrusion width = 0.42mm

M73 P0 R105
M73 Q0 S106
M201 X1000 Y1000 Z200 E5000 ; sets maximum accelerations, mm/sec^2
M203 X200 Y200 Z12 E120 ; sets maximum feedrates, mm / sec
M204 P1250 R1250 T1250 ; sets acceleration (P, T) and retract acceleration (R), mm/sec^2
M205 X8.00 Y8.00 Z0.40 E4.50 ; sets the jerk limits, mm/sec
M205 S0 T0 ; sets the minimum extruding and travel feed rate, mm/sec
M107
;TYPE:Custom
M862.3 P "MK3S" ; printer model check
M862.1 P0.4 ; nozzle diameter check
M115 U3.12.2 ; tell printer latest fw version
G90 ; use absolute coordinates
M83 ; extruder relative mode
M104 S230 ; set extruder temp
M140 S60 ; set bed temp
M190 S60 ; wait for bed temp
M109 S230 ; wait for extruder temp
G28 W ; home all without mesh bed level
G80 ; mesh bed leveling

G1 Z0.2 F720
G1 Y-3 F1000 ; go outside print area
G92 E0
G1 X60 E9 F1000 ; intro line
G1 X100 E12.5 F1000 ; intro line

G92 E0
M221 S95

; Don't change E values below. Excessive value can damage the printer.

G21 ; set units to millimeters
G90 ; use absolute coordinates
M83 ; use relative distances for extrusion
M900 K0.05 ; Filament gcode LA 1.5
M900 K30 ; Filament gcode LA 1.0
M107
;LAYER_CHANGE
;Z:0.2
;HEIGHT:0.2
;BEFORE_LAYER_CHANGE
G92 E0.0
;0.2


G1 E-.8 F2100
G1 Z.4 F720
;AFTER_LAYER_CHANGE
;0.2
G1 X83.251 Y69.345 F10800
G1 Z.2 F720
G1 E.8 F2100
M204 S800
;TYPE:Skirt/Brim
;WIDTH:0.42
G1 F1200
G1 X84.56 Y67.866 E.06191
G1 X87.031 Y65.342 E.11076
G1 X88.51 Y63.979 E.06307
G1 X91.256 Y61.69 E.11209
G1 X92.839 Y60.502 E.06204
G1 X95.759 Y58.531 E.11045
G1 X99.104 Y56.588 E.12131
G1 X102.259 Y55.027 E.11036
G1 X104.112 Y54.226 E.06331
G1 X107.425 Y52.986 E.11089
G1 X109.302 Y52.388 E.06176
G1 X112.756 Y51.479 E.112
G1 X114.688 Y51.073 E.0619
G1 X118.213 Y50.516 E.1119
G1 X120.099 Y50.315 E.05945
G1 X123.744 Y50.111 E.11447
G1 X125.637 Y50.101 E.05937
G1 X127.604 Y50.159 E.0617
G1 X131.167 Y50.443 E.11207
G1 X133.126 Y50.702 E.06193
G1 X136.636 Y51.344 E.11188
G1 X140.177 Y52.235 E.11447
G1 X141.992 Y52.791 E.05955
G1 X143.856 Y53.437 E.06184
G1 X147.131 Y54.755 E.11068
G1 X148.958 Y55.6 E.06314
G1 X152.084 Y57.242 E.11071
G1 X155.382 Y59.268 E.12135
G1 X158.249 Y61.31 E.11034
G1 X159.804 Y62.536 E.0621
G1 X162.49 Y64.891 E.11201
G1 X163.907 Y66.262 E.06184
G1 X166.343 Y68.874 E.11197
G1 X167.616 Y70.385 E.06197
G1 X169.775 Y73.229 E.11194
G1 X170.886 Y74.854 E.06173
G1 X171.9 Y76.454 E.05938
G1 X173.657 Y79.566 E.11205
G1 X174.535 Y81.326 E.06167
G1 X175.957 Y84.563 E.11084
G1 X177.269 Y88.2 E.12125
G1 X178.238 Y91.589 E.11052
G1 X178.696 Y93.553 E.06323
G1 X179.321 Y97.026 E.11063
G1 X179.572 Y98.988 E.06204
G1 X179.846 Y102.547 E.11191
G1 X179.901 Y104.559 E.06313
G1 X179.815 Y108.091 E.11077
G1 X179.668 Y110.062 E.06197
G1 X179.222 Y113.605 E.11198
G1 X178.879 Y115.541 E.06163
G1 X178.079 Y119.028 E.11217
G1 X177.542 Y120.926 E.06185
G1 X176.392 Y124.313 E.11215
G1 X175.668 Y126.142 E.06168
G1 X174.184 Y129.395 E.1121
G1 X173.314 Y131.073 E.05928
G1 X171.476 Y134.225 E.1144
G1 X170.438 Y135.813 E.05948
G1 X169.307 Y137.42 E.06162
G1 X167.1 Y140.239 E.11227
G1 X165.809 Y141.723 E.06167
G1 X163.365 Y144.272 E.11071
G1 X161.895 Y145.655 E.06326
G1 X159.171 Y147.969 E.11209
G1 X157.61 Y149.164 E.06163
G1 X154.703 Y151.172 E.11078
G1 X152.983 Y152.233 E.06336
G1 X149.894 Y153.932 E.11052
G1 X146.389 Y155.563 E.12123
G1 X143.099 Y156.832 E.11056
G1 X141.221 Y157.449 E.06198
G1 X139.403 Y157.978 E.05938
G1 X135.845 Y158.819 E.11461
G1 X132.332 Y159.409 E.11171
G1 X130.36 Y159.638 E.06225
G1 X126.803 Y159.87 E.11175
G1 X124.833 Y159.899 E.06178
G1 X122.936 Y159.863 E.05946
G1 X119.418 Y159.617 E.11058
G1 X115.629 Y159.096 E.11992
G1 X113.772 Y158.74 E.05928
M73 Q0 S105
G1 X110.343 Y157.908 E.11065
G1 X106.749 Y156.839 E.11757
G1 X105.651 Y156.444 E.03658
G1 X102.256 Y154.968 E.11606
G1 X99.053 Y153.382 E.11207
G1 X97.302 Y152.4 E.06295
G1 X94.306 Y150.518 E.11094
G1 X92.657 Y149.362 E.06314
G1 X89.844 Y147.168 E.11186
G1 X88.351 Y145.876 E.06189
G1 X85.794 Y143.429 E.11097
G1 X84.418 Y141.974 E.0628
G1 X82.096 Y139.253 E.11215
G1 X80.891 Y137.689 E.0619
G1 X78.858 Y134.748 E.1121
G1 X77.819 Y133.072 E.06181
G1 X76.096 Y129.95 E.11183
G1 X75.228 Y128.171 E.06207
G1 X73.844 Y124.931 E.11046
G1 X72.567 Y121.28 E.12128
G1 X71.629 Y117.874 E.11075
G1 X71.192 Y115.908 E.06315
G1 X70.603 Y112.421 E.11088
G1 X70.369 Y110.463 E.06185
G1 X70.13 Y106.908 E.11172
G1 X70.099 Y104.926 E.06215
G1 X70.218 Y101.366 E.11168
G1 X70.376 Y99.477 E.05943
G1 X70.611 Y97.519 E.06182
G1 X71.211 Y93.997 E.11203
G1 X72.061 Y90.446 E.11449
G1 X72.596 Y88.627 E.05945
G1 X73.798 Y85.184 E.11435
G1 X74.515 Y83.423 E.0596
G1 X76.058 Y80.119 E.11435
G1 X76.946 Y78.445 E.05939
G1 X77.932 Y76.737 E.06185
G1 X79.865 Y73.737 E.11188
G1 X81.024 Y72.132 E.06207
G1 X83.214 Y69.392 E.10998
M204 S1000
;WIPE_START
G1 F8640
G1 X84.56 Y67.866 E-.4698
G1 X85.439 Y66.968 E-.2902
;WIPE_END
G1 E-.04 F2100
G1 Z.6 F720
G1 X85.267 Y71.088 F10800
G1 Z.2 F720
G1 E.8 F2100
M204 S800
G1 F1200
G1 X86.497 Y69.694 E.05831
G1 X87.679 Y68.447 E.05387
G1 X88.899 Y67.241 E.05379
G1 X90.192 Y66.047 E.05519
G1 X91.52 Y64.899 E.05502
G1 X92.903 Y63.784 E.05571
G1 X94.368 Y62.683 E.05747
G1 X95.782 Y61.696 E.05404
G1 X97.222 Y60.757 E.05391
G1 X98.727 Y59.848 E.05513
G1 X100.251 Y58.995 E.05475
G1 X101.843 Y58.175 E.05616
G1 X103.481 Y57.397 E.05684
G1 X105.057 Y56.717 E.05384
G1 X106.65 Y56.089 E.05367
G1 X108.311 Y55.498 E.05528
G1 X109.982 Y54.965 E.05501
G1 X111.691 Y54.484 E.05566
G1 X113.471 Y54.047 E.05746
G1 X115.151 Y53.697 E.05382
G1 X116.838 Y53.401 E.05369
G1 X118.622 Y53.149 E.0565
G1 X120.419 Y52.961 E.05665
G1 X122.129 Y52.839 E.05375
G1 X123.842 Y52.773 E.05375
G1 X125.687 Y52.765 E.05785
G1 X127.396 Y52.815 E.05362
G1 X129.112 Y52.922 E.05392
G1 X130.918 Y53.095 E.05686
G1 X132.639 Y53.322 E.05444
G1 X134.347 Y53.604 E.05427
G1 X136.126 Y53.959 E.05689
G1 X137.812 Y54.357 E.05431
G1 X139.477 Y54.805 E.05406
G1 X141.17 Y55.325 E.05554
G1 X142.835 Y55.9 E.05523
G1 X144.468 Y56.524 E.05482
G1 X146.09 Y57.207 E.05516
G1 X147.727 Y57.963 E.05654
G1 X149.333 Y58.774 E.05642
G1 X150.837 Y59.597 E.05375
G1 X152.316 Y60.47 E.05386
G1 X153.876 Y61.465 E.058
G1 X155.286 Y62.437 E.0537
G1 X156.665 Y63.452 E.05369
G1 X158.118 Y64.598 E.05802
G1 X159.459 Y65.737 E.05516
G1 X160.754 Y66.913 E.05486
G1 X162.022 Y68.143 E.05539
G1 X163.21 Y69.377 E.0537
G1 X164.361 Y70.654 E.05389
G1 X165.55 Y72.067 E.05792
G1 X166.636 Y73.45 E.05513
G1 X167.669 Y74.862 E.05486
G1 X168.662 Y76.319 E.05527
G1 X169.605 Y77.807 E.05524
G1 X170.48 Y79.297 E.05418
G1 X171.308 Y80.822 E.05439
G1 X172.087 Y82.381 E.05465
G1 X172.816 Y83.963 E.05463
G1 X173.517 Y85.635 E.05683
G1 X174.145 Y87.287 E.05541
G1 X174.709 Y88.94 E.05477
G1 X175.216 Y90.605 E.05457
G1 X175.672 Y92.306 E.05521
G1 X176.073 Y94.02 E.05519
G1 X176.414 Y95.753 E.0554
G1 X176.699 Y97.502 E.05556
G1 X176.919 Y99.235 E.05477
G1 X177.083 Y100.98 E.05494
G1 X177.189 Y102.741 E.05532
G1 X177.237 Y104.491 E.05491
G1 X177.225 Y106.241 E.05485
G1 X177.153 Y108.002 E.05528
G1 X177.022 Y109.758 E.0552
G1 X176.83 Y111.516 E.05545
G1 X176.579 Y113.261 E.05527
G1 X176.274 Y114.984 E.05486
G1 X175.91 Y116.707 E.05522
G1 X175.486 Y118.414 E.05514
G1 X175.007 Y120.106 E.05515
G1 X174.469 Y121.784 E.05524
G1 X173.866 Y123.462 E.05591
G1 X173.211 Y125.113 E.05567
G1 X172.522 Y126.692 E.05403
G1 X171.782 Y128.243 E.05388
G1 X170.945 Y129.854 E.05692
G1 X170.097 Y131.361 E.05423
G1 X169.202 Y132.839 E.05419
G1 X168.208 Y134.355 E.05682
G1 X167.214 Y135.77 E.05422
G1 X166.169 Y137.155 E.0544
G1 X165.06 Y138.526 E.05529
G1 X163.903 Y139.86 E.05537
G1 X162.716 Y141.141 E.05475
G1 X161.439 Y142.431 E.05691
G1 X160.18 Y143.615 E.05419
G1 X158.876 Y144.764 E.0545
G1 X157.517 Y145.882 E.05518
G1 X156.117 Y146.956 E.05532
G1 X154.696 Y147.975 E.05483
G1 X153.232 Y148.952 E.0552
G1 X151.658 Y149.923 E.05797
G1 X150.165 Y150.775 E.0539
G1 X148.653 Y151.575 E.05363
G1 X147.029 Y152.365 E.05665
G1 X145.385 Y153.095 E.0564
G1 X143.785 Y153.742 E.05412
G1 X142.186 Y154.329 E.05341
G1 X140.432 Y154.905 E.05788
G1 X138.739 Y155.398 E.05527
G1 X137.045 Y155.829 E.05483
G1 X135.317 Y156.209 E.05547
G1 X133.63 Y156.518 E.05376
G1 X131.938 Y156.775 E.05366
G1 X130.121 Y156.985 E.05737
G1 X128.396 Y157.125 E.05426
G1 X126.679 Y157.21 E.05392
G1 X124.837 Y157.235 E.05775
G1 X123.081 Y157.203 E.05508
G1 X121.357 Y157.11 E.05411
G1 X119.626 Y156.961 E.05447
G1 X117.884 Y156.749 E.05502
G1 X116.149 Y156.483 E.05503
G1 X114.41 Y156.152 E.0555
G1 X112.695 Y155.767 E.05513
G1 X111.003 Y155.327 E.05481
G1 X109.11 Y154.751 E.06203
G1 X108.119 Y154.209 E.03544
G1 X107.453 Y153.629 E.02768
G1 X107.332 Y153.488 E.00582
G1 X106.494 Y153.555 E.02635
G1 X105.188 Y153.328 E.04155
G1 X103.361 Y152.544 E.06236
G1 X101.809 Y151.808 E.05385
G1 X100.275 Y151.015 E.05415
G1 X98.731 Y150.151 E.05549
G1 X97.231 Y149.245 E.05494
G1 X95.755 Y148.284 E.05522
G1 X94.272 Y147.244 E.0568
G1 X92.887 Y146.2 E.05437
G1 X91.534 Y145.109 E.0545
G1 X90.206 Y143.962 E.05501
G1 X88.926 Y142.782 E.05459
G1 X87.673 Y141.542 E.05528
G1 X86.462 Y140.262 E.05523
G1 X85.297 Y138.947 E.05509
G1 X84.166 Y137.577 E.05572
G1 X83.056 Y136.138 E.05698
G1 X82.046 Y134.728 E.05437
G1 X81.091 Y133.296 E.05398
G1 X80.127 Y131.742 E.05734
G1 X79.269 Y130.247 E.05403
G1 X78.46 Y128.723 E.0541
G1 X77.667 Y127.098 E.0567
G1 X76.959 Y125.513 E.05443
G1 X76.303 Y123.908 E.05436
G1 X75.677 Y122.208 E.05681
G1 X75.133 Y120.562 E.05433
G1 X74.644 Y118.9 E.05434
G1 X74.198 Y117.165 E.05617
G1 X73.809 Y115.414 E.05624
G1 X73.488 Y113.682 E.05524
G1 X73.228 Y111.954 E.0548
G1 X73.019 Y110.195 E.05552
G1 X72.879 Y108.486 E.05378
G1 X72.791 Y106.774 E.05372
G1 X72.763 Y104.929 E.05787
G1 X72.793 Y103.214 E.05377
G1 X72.878 Y101.504 E.0537
G1 X73.031 Y99.697 E.05684
G1 X73.237 Y97.97 E.05455
G1 X73.497 Y96.265 E.05407
G1 X73.832 Y94.477 E.05705
G1 X74.209 Y92.792 E.05414
G1 X74.639 Y91.116 E.05424
G1 X75.145 Y89.401 E.05607
G1 X75.695 Y87.743 E.05476
G1 X76.295 Y86.11 E.05457
G1 X76.97 Y84.457 E.05599
G1 X77.685 Y82.861 E.05484
G1 X78.449 Y81.293 E.05469
G1 X79.275 Y79.737 E.05522
G1 X80.197 Y78.138 E.05786
G1 X81.102 Y76.682 E.05375
G1 X82.053 Y75.256 E.05374
G1 X83.086 Y73.821 E.05544
G1 X84.156 Y72.432 E.05497
G1 X85.229 Y71.134 E.05279
M204 S1000
G1 X85.519 Y71.374 F10800
M204 S800
G1 F1200
G1 X86.773 Y69.951 E.05948
G1 X87.951 Y68.708 E.05367
G1 X89.162 Y67.511 E.05339
G1 X90.446 Y66.326 E.05479
G1 X91.764 Y65.186 E.05463
G1 X93.137 Y64.08 E.0553
G1 X94.587 Y62.99 E.05686
G1 X95.995 Y62.007 E.05384
G1 X97.425 Y61.075 E.05353
G1 X98.919 Y60.172 E.05473
G1 X100.432 Y59.326 E.05435
G1 X102.013 Y58.511 E.05576
G1 X103.633 Y57.742 E.05623
G1 X105.198 Y57.067 E.05346
G1 X106.785 Y56.441 E.05348
G1 X108.434 Y55.855 E.05488
G1 X110.094 Y55.325 E.05461
G1 X111.79 Y54.847 E.05525
G1 X113.551 Y54.416 E.05685
G1 X115.225 Y54.066 E.05362
G1 X116.9 Y53.773 E.0533
G1 X118.665 Y53.524 E.05589
G1 X120.449 Y53.337 E.05625
G1 X122.147 Y53.216 E.05337
G1 X123.853 Y53.149 E.05355
G1 X125.679 Y53.142 E.05724
G1 X127.382 Y53.192 E.05342
G1 X129.086 Y53.298 E.05352
G1 X130.872 Y53.47 E.05625
G1 X132.581 Y53.695 E.05405
G1 X134.282 Y53.975 E.05407
G1 X136.049 Y54.328 E.05649
G1 X137.717 Y54.721 E.05373
G1 X139.375 Y55.168 E.05387
G1 X141.056 Y55.684 E.05513
G1 X142.709 Y56.255 E.05482
G1 X144.331 Y56.875 E.05443
G1 X145.94 Y57.553 E.05476
G1 X147.566 Y58.304 E.05614
G1 X149.155 Y59.106 E.05582
G1 X150.648 Y59.923 E.05336
G1 X152.121 Y60.793 E.05366
G1 X153.664 Y61.777 E.05738
G1 X155.065 Y62.742 E.05332
G1 X156.439 Y63.753 E.0535
G1 X157.877 Y64.887 E.0574
G1 X159.208 Y66.018 E.05475
G1 X160.494 Y67.186 E.05447
G1 X161.752 Y68.407 E.05499
G1 X162.932 Y69.632 E.05331
G1 X164.079 Y70.904 E.05369
G1 X165.256 Y72.302 E.05731
G1 X166.333 Y73.675 E.05473
G1 X167.359 Y75.077 E.05447
G1 X168.345 Y76.523 E.05488
G1 X169.281 Y78.001 E.05484
G1 X170.15 Y79.48 E.05379
G1 X170.972 Y80.993 E.05399
G1 X171.746 Y82.541 E.05427
G1 X172.473 Y84.118 E.05443
G1 X173.166 Y85.771 E.05622
G1 X173.789 Y87.412 E.05501
G1 X174.35 Y89.053 E.05437
G1 X174.852 Y90.706 E.05418
G1 X175.307 Y92.401 E.05501
G1 X175.705 Y94.102 E.05479
G1 X176.042 Y95.817 E.0548
G1 X176.325 Y97.553 E.05515
G1 X176.545 Y99.28 E.05457
G1 X176.707 Y101.012 E.05455
G1 X176.812 Y102.76 E.05493
G1 X176.86 Y104.499 E.05452
G1 X176.848 Y106.235 E.05445
G1 X176.776 Y107.984 E.05488
G1 X176.646 Y109.727 E.0548
G1 X176.456 Y111.472 E.05505
G1 X176.207 Y113.204 E.05487
G1 X175.904 Y114.915 E.05448
G1 X175.542 Y116.626 E.05483
G1 X175.121 Y118.32 E.05473
G1 X174.645 Y120 E.05476
G1 X174.111 Y121.666 E.05484
G1 X173.515 Y123.326 E.05531
G1 X172.864 Y124.965 E.05527
G1 X172.177 Y126.538 E.05383
G1 X171.443 Y128.078 E.05348
G1 X170.615 Y129.672 E.05633
G1 X169.773 Y131.169 E.05384
G1 X168.881 Y132.641 E.05399
G1 X167.898 Y134.14 E.05622
G1 X166.907 Y135.55 E.05403
G1 X165.87 Y136.926 E.054
G1 X164.769 Y138.286 E.05488
G1 X163.62 Y139.61 E.05497
G1 X162.442 Y140.883 E.05437
G1 X161.178 Y142.158 E.0563
G1 X159.928 Y143.334 E.0538
G1 X158.629 Y144.479 E.0543
G1 X157.28 Y145.588 E.05478
G1 X155.89 Y146.655 E.05492
G1 X154.479 Y147.667 E.05444
G1 X153.025 Y148.636 E.0548
G1 X151.469 Y149.597 E.05735
G1 X149.981 Y150.446 E.05371
G1 X148.48 Y151.24 E.05325
G1 X146.872 Y152.021 E.05604
G1 X145.241 Y152.747 E.05599
G1 X143.646 Y153.391 E.05393
G1 X142.059 Y153.974 E.05303
G1 X140.323 Y154.544 E.05727
G1 X138.643 Y155.033 E.05486
G1 X136.961 Y155.461 E.05444
G1 X135.245 Y155.838 E.05506
G1 X133.571 Y156.146 E.05338
G1 X131.885 Y156.402 E.05347
G1 X130.087 Y156.61 E.05675
G1 X128.375 Y156.749 E.05387
G1 X126.663 Y156.833 E.05372
G1 X124.841 Y156.858 E.05715
G1 X123.098 Y156.826 E.05467
G1 X121.381 Y156.734 E.05391
G1 X119.662 Y156.585 E.05409
G1 X117.933 Y156.375 E.05462
G1 X116.21 Y156.11 E.05465
G1 X114.484 Y155.783 E.05509
G1 X112.787 Y155.401 E.05454
G1 X111.102 Y154.963 E.05459
G1 X109.239 Y154.397 E.06103
G1 X108.32 Y153.889 E.03293
G1 X107.716 Y153.358 E.02522
G1 X107.5 Y153.094 E.01068
G1 X106.532 Y153.179 E.03045
G1 X105.316 Y152.973 E.03868
G1 X103.519 Y152.202 E.0613
G1 X101.974 Y151.468 E.05364
G1 X100.451 Y150.682 E.05375
G1 X98.918 Y149.823 E.05509
G1 X97.428 Y148.924 E.05455
G1 X95.964 Y147.969 E.05481
G1 X94.496 Y146.94 E.05619
G1 X93.117 Y145.9 E.05417
G1 X91.773 Y144.818 E.05411
G1 X90.455 Y143.679 E.05461
G1 X89.184 Y142.507 E.0542
G1 X87.94 Y141.276 E.05487
G1 X86.738 Y140.005 E.05484
G1 X85.581 Y138.7 E.05469
G1 X84.459 Y137.339 E.05531
G1 X83.361 Y135.915 E.05638
G1 X82.358 Y134.516 E.05397
G1 X81.407 Y133.089 E.05378
G1 X80.452 Y131.551 E.05675
G1 X79.601 Y130.067 E.05364
G1 X78.795 Y128.549 E.0539
G1 X78.01 Y126.941 E.0561
G1 X77.307 Y125.368 E.05404
G1 X76.654 Y123.769 E.05416
G1 X76.034 Y122.086 E.05621
G1 X75.494 Y120.453 E.05393
G1 X75.007 Y118.797 E.05414
G1 X74.564 Y117.074 E.05577
G1 X74.179 Y115.342 E.05563
G1 X73.86 Y113.623 E.05483
G1 X73.602 Y111.906 E.05442
G1 X73.395 Y110.161 E.05511
G1 X73.255 Y108.458 E.05358
G1 X73.167 Y106.759 E.05334
G1 X73.14 Y104.933 E.05725
G1 X73.17 Y103.23 E.05339
G1 X73.255 Y101.526 E.0535
G1 X73.406 Y99.739 E.05623
G1 X73.61 Y98.024 E.05416
G1 X73.869 Y96.325 E.05387
G1 X74.201 Y94.556 E.05644
G1 X74.574 Y92.883 E.05375
G1 X75.004 Y91.213 E.05404
G1 X75.503 Y89.517 E.05547
G1 X76.05 Y87.871 E.05438
G1 X76.648 Y86.243 E.05437
G1 X77.316 Y84.608 E.05538
G1 X78.026 Y83.023 E.05445
G1 X78.787 Y81.461 E.05449
G1 X79.607 Y79.917 E.05481
G1 X80.519 Y78.335 E.05726
G1 X81.421 Y76.884 E.05356
G1 X82.365 Y75.468 E.05335
G1 X83.391 Y74.044 E.05502
G1 X84.453 Y72.665 E.05458
G1 X85.481 Y71.421 E.05061
M204 S1000
G1 X85.772 Y71.661 F10800
M204 S800
G1 F1200
G1 X87.049 Y70.208 E.06066
G1 X88.222 Y68.97 E.05347
