; generated by PrusaSlicer 2.5.2+win64 on 2023-05-24 at 01:52:02 UTC


;
;
; 

; external perimeters extrusion width = 0.45mm
; perimeters extrusion width = 0.45mm
; infill extrusion width = 0.45mm
; solid infill extrusion width = 0.45mm
; top infill extrusion width = 0.40mm
; first layer extrusion width = 0.42mm

M73 P0 R164
M73 Q0 S164
M201 X1000 Y1000 Z200 E5000 ; sets maximum accelerations, mm/sec^2
M203 X200 Y200 Z12 E120 ; sets maximum feedrates, mm / sec
M204 P1250 R1250 T1250 ; sets acceleration (P, T) and retract acceleration (R), mm/sec^2
M205 X8.00 Y8.00 Z0.40 E4.50 ; sets the jerk limits, mm/sec
M205 S0 T0 ; sets the minimum extruding and travel feed rate, mm/sec
M107
;TYPE:Custom
M862.3 P "MK3S" ; printer model check
M862.1 P0.4 ; nozzle diameter check
M115 U3.12.2 ; tell printer latest fw version
G90 ; use absolute coordinates
M83 ; extruder relative mode
M104 S240 ; set extruder temp
M140 S50 ; set bed temp
M190 S50 ; wait for bed temp
M109 S240 ; wait for extruder temp
G28 W ; home all without mesh bed level
G80 ; mesh bed leveling

G1 Z0.2 F720
G1 Y-3 F1000 ; go outside print area
G92 E0
G1 X60 E9 F1000 ; intro line
G1 X100 E12.5 F1000 ; intro line

G92 E0
M221 S95

; Don't change E values below. Excessive value can damage the printer.

G21 ; set units to millimeters
G90 ; use absolute coordinates
M83 ; use relative distances for extrusion
M900 K0 ; Filament gcode
M107
;LAYER_CHANGE
;Z:0.2
;HEIGHT:0.2
;BEFORE_LAYER_CHANGE
G92 E0.0
;0.2


G1 Z.2 F720
;AFTER_LAYER_CHANGE
;0.2
G1 X79.914 Y68.409 F10800
M204 S800
;TYPE:Skirt/Brim
;WIDTH:0.42
G1 F954.706
G1 X82.11 Y65.844 E.12174
G1 X83.568 Y64.299 E.0766
G1 X86.274 Y61.718 E.13485
G1 X87.851 Y60.358 E.07506
G1 X90.838 Y58.032 E.1365
G1 X92.542 Y56.84 E.07499
G1 X95.748 Y54.827 E.13649
G1 X97.567 Y53.808 E.07521
G1 X100.957 Y52.133 E.13634
G1 X102.868 Y51.304 E.0751
G1 X106.404 Y49.978 E.13618
G1 X108.394 Y49.347 E.07526
G1 X112.056 Y48.383 E.13653
G1 X114.087 Y47.957 E.07482
G1 X116.061 Y47.613 E.07226
G1 X119.9 Y47.145 E.13946
G1 X123.679 Y46.936 E.13645
G1 X125.68 Y46.926 E.07216
G1 X127.751 Y46.988 E.07471
G1 X131.529 Y47.288 E.13665
G1 X135.354 Y47.851 E.1394
G1 X137.315 Y48.242 E.07213
G1 X139.342 Y48.72 E.07508
G1 X142.973 Y49.771 E.13629
G1 X144.94 Y50.451 E.07506
G1 X148.416 Y51.85 E.13511
G1 X150.345 Y52.742 E.07661
G1 X153.654 Y54.481 E.13478
G1 X157.13 Y56.619 E.14715
G1 X160.179 Y58.788 E.13493
G1 X161.813 Y60.078 E.07507
G1 X164.661 Y62.572 E.13651
G1 X166.188 Y64.053 E.07669
G1 X168.736 Y66.786 E.13472
G1 X170.08 Y68.38 E.07519
G1 X172.37 Y71.397 E.13658
G1 X173.545 Y73.116 E.07507
G1 X175.514 Y76.338 E.13616
G1 X176.51 Y78.172 E.07524
G1 X178.148 Y81.582 E.13641
G1 X178.952 Y83.501 E.07504
G1 X180.239 Y87.062 E.13652
G1 X180.845 Y89.05 E.07493
G1 X181.362 Y90.984 E.07219
G1 X182.154 Y94.678 E.13624
G1 X182.488 Y96.741 E.07534
G1 X182.904 Y100.492 E.1361
G1 X183.028 Y102.58 E.07539
G1 X183.063 Y106.318 E.1348
G1 X182.826 Y110.393 E.14718
G1 X182.361 Y114.097 E.13461
G1 X181.988 Y116.194 E.07681
G1 X181.151 Y119.839 E.13486
G1 X180.58 Y121.843 E.07512
G1 X179.364 Y125.433 E.13669
G1 X178.582 Y127.401 E.07636
G1 X177.032 Y130.802 E.13473
G1 X176.069 Y132.655 E.0753
G1 X174.159 Y135.924 E.13653
G1 X173.02 Y137.665 E.075
G1 X170.79 Y140.724 E.13649
G1 X169.482 Y142.34 E.07499
G1 X166.955 Y145.159 E.1365
G1 X165.548 Y146.578 E.07206
G1 X164.033 Y148.002 E.07496
G1 X161.151 Y150.453 E.13641
G1 X159.496 Y151.722 E.07521
G1 X156.417 Y153.845 E.13487
G1 X152.908 Y155.931 E.1472
G1 X149.574 Y157.62 E.13476
G1 X147.632 Y158.485 E.07664
G1 X144.137 Y159.832 E.13505
G1 X142.164 Y160.482 E.07492
G1 X138.507 Y161.482 E.13668
G1 X136.476 Y161.93 E.07502
G1 X132.743 Y162.555 E.13647
G1 X130.68 Y162.797 E.0749
G1 X126.899 Y163.044 E.13661
G1 X124.821 Y163.074 E.07493
G1 X122.827 Y163.034 E.07192
G1 X119.09 Y162.773 E.13508
G1 X115.054 Y162.216 E.14691
G1 X113.131 Y161.849 E.07058
G1 X109.49 Y160.965 E.13512
G1 X105.801 Y159.874 E.13869
G1 X104.432 Y159.376 E.05253
G1 X100.912 Y157.842 E.13846
G1 X97.549 Y156.177 E.13528
G1 X95.696 Y155.141 E.07659
G1 X92.53 Y153.149 E.13485
G1 X90.793 Y151.933 E.07645
G1 X87.807 Y149.603 E.13657
G1 X86.233 Y148.242 E.07503
G1 X83.53 Y145.656 E.13488
G1 X82.069 Y144.112 E.07665
G1 X79.613 Y141.234 E.13642
G1 X78.345 Y139.585 E.075
G1 X76.19 Y136.471 E.13656
G1 X75.094 Y134.7 E.07509
G1 X73.268 Y131.389 E.13634
G1 X72.35 Y129.512 E.07535
G1 X70.885 Y126.076 E.13468
G1 X69.535 Y122.219 E.14734
G1 X68.544 Y118.62 E.13459
G1 X68.084 Y116.543 E.07672
G1 X67.458 Y112.852 E.13498
G1 X67.214 Y110.787 E.07498
G1 X66.958 Y107.01 E.13652
G1 X66.925 Y104.925 E.07519
G1 X67.052 Y101.149 E.13622
G1 X67.218 Y99.158 E.07205
G1 X67.465 Y97.086 E.07523
G1 X68.1 Y93.363 E.1362
G1 X68.557 Y91.327 E.07522
G1 X69.567 Y87.679 E.13647
G1 X70.224 Y85.702 E.07514
G1 X71.579 Y82.217 E.13481
G1 X72.447 Y80.281 E.07651
G1 X74.168 Y76.91 E.13648
G1 X75.208 Y75.106 E.07507
G1 X77.237 Y71.959 E.135
G1 X79.675 Y68.687 E.14714
G1 X79.875 Y68.454 E.01107
M204 S1000
G1 X81.922 Y70.15 F10800
M204 S800
G1 F954.706
G1 X82.922 Y68.943 E.0565
G1 X84.154 Y67.555 E.06695
G1 X85.441 Y66.193 E.06757
G1 X86.742 Y64.912 E.06581
G1 X88.078 Y63.677 E.0656
G1 X89.557 Y62.404 E.07035
G1 X91.012 Y61.233 E.06735
G1 X92.498 Y60.118 E.06698
G1 X94.027 Y59.051 E.06726
G1 X95.598 Y58.03 E.06754
G1 X97.187 Y57.071 E.06691
G1 X98.82 Y56.159 E.06744
G1 X100.444 Y55.324 E.06584
G1 X102.093 Y54.542 E.06582
G1 X103.885 Y53.766 E.0704
G1 X105.583 Y53.1 E.06577
G1 X107.294 Y52.489 E.06552
G1 X109.138 Y51.905 E.06975
G1 X110.955 Y51.394 E.06807
G1 X112.76 Y50.954 E.06699
G1 X114.59 Y50.573 E.0674
G1 X116.434 Y50.251 E.06748
G1 X118.27 Y49.996 E.06684
G1 X120.137 Y49.798 E.0677
G1 X121.957 Y49.668 E.06579
G1 X123.777 Y49.598 E.06566
G1 X125.729 Y49.59 E.0704
G1 X127.545 Y49.644 E.0655
G1 X129.365 Y49.757 E.06576
G1 X131.259 Y49.938 E.06862
G1 X133.096 Y50.18 E.06681
G1 X134.916 Y50.478 E.06649
G1 X136.773 Y50.85 E.06829
G1 X138.649 Y51.291 E.06948
G1 X140.414 Y51.772 E.06597
G1 X142.159 Y52.307 E.06582
G1 X143.924 Y52.915 E.06728
M73 P0 R163
G1 X145.654 Y53.577 E.06679
G1 X147.376 Y54.302 E.06737
G1 X149.149 Y55.122 E.07044
G1 X150.776 Y55.944 E.06572
G1 X152.372 Y56.816 E.06557
G1 X154.011 Y57.784 E.06866
G1 X155.626 Y58.817 E.0691
G1 X157.127 Y59.849 E.06569
G1 X158.595 Y60.93 E.06573
G1 X160.127 Y62.14 E.0704
G1 X161.552 Y63.348 E.06736
G1 X162.926 Y64.597 E.06695
G1 X164.273 Y65.904 E.06767
G1 X165.533 Y67.214 E.06556
G1 X166.755 Y68.567 E.06572
G1 X168.01 Y70.056 E.07024
G1 X169.166 Y71.529 E.06752
G1 X170.256 Y73.02 E.06659
G1 X171.307 Y74.56 E.06724
G1 X172.283 Y76.104 E.06585
G1 X173.216 Y77.685 E.06619
G1 X174.139 Y79.386 E.06977
G1 X174.959 Y81.023 E.06603
G1 X175.725 Y82.689 E.06612
G1 X176.469 Y84.465 E.06943
G1 X177.122 Y86.184 E.06629
G1 X177.717 Y87.919 E.06616
G1 X178.275 Y89.752 E.06909
G1 X178.769 Y91.59 E.06859
G1 X179.182 Y93.381 E.06631
G1 X179.537 Y95.177 E.06601
G1 X179.846 Y97.082 E.06957
G1 X180.077 Y98.908 E.06638
G1 X180.252 Y100.742 E.0664
G1 X180.365 Y102.653 E.06905
G1 X180.411 Y104.476 E.06574
G1 X180.399 Y106.294 E.06557
G1 X180.322 Y108.202 E.06884
G1 X180.178 Y110.108 E.06892
G1 X179.98 Y111.913 E.06549
G1 X179.724 Y113.72 E.0658
G1 X179.382 Y115.643 E.07041
G1 X179.003 Y117.422 E.06559
G1 X178.565 Y119.197 E.06593
G1 X178.032 Y121.067 E.0701
G1 X177.46 Y122.852 E.06759
G1 X176.83 Y124.603 E.06711
G1 X176.138 Y126.341 E.06743
G1 X175.412 Y128.005 E.06547
G1 X174.628 Y129.655 E.06588
G1 X173.744 Y131.355 E.06909
G1 X172.81 Y133.016 E.06871
G1 X171.855 Y134.585 E.06624
G1 X170.836 Y136.14 E.06704
G1 X169.774 Y137.649 E.06652
G1 X168.667 Y139.115 E.06625
G1 X167.477 Y140.585 E.06818
G1 X166.223 Y142.031 E.06904
G1 X164.978 Y143.373 E.06599
G1 X163.677 Y144.683 E.06656
G1 X162.322 Y145.958 E.06709
M73 Q0 S163
G1 X160.935 Y147.18 E.06667
G1 X159.472 Y148.385 E.06833
G1 X157.944 Y149.557 E.06944
G1 X156.459 Y150.616 E.06576
G1 X154.945 Y151.625 E.06562
G1 X153.318 Y152.63 E.06894
G1 X151.661 Y153.577 E.06882
G1 X150.052 Y154.425 E.06558
G1 X148.413 Y155.223 E.06575
G1 X146.628 Y156.018 E.07046
G1 X144.896 Y156.718 E.06734
G1 X143.146 Y157.357 E.06716
G1 X141.373 Y157.938 E.06728
G1 X139.577 Y158.461 E.06746
G1 X137.778 Y158.918 E.06692
G1 X135.953 Y159.318 E.06736
G1 X134.114 Y159.656 E.06744
G1 X132.277 Y159.931 E.06697
G1 X130.416 Y160.146 E.06754
G1 X128.595 Y160.295 E.06589
G1 X126.776 Y160.383 E.06566
G1 X124.828 Y160.41 E.07027
G1 X122.996 Y160.375 E.06604
G1 X121.169 Y160.279 E.06597
G1 X119.275 Y160.115 E.06856
G1 X117.42 Y159.892 E.06737
G1 X115.595 Y159.607 E.0666
G1 X113.782 Y159.264 E.06652
G1 X111.94 Y158.85 E.0681
G1 X110.131 Y158.379 E.0674
G1 X108.122 Y157.767 E.07572
G1 X107.169 Y157.241 E.03924
G1 X106.498 Y156.659 E.03203
G1 X106.294 Y156.409 E.01165
G1 X105.223 Y156.486 E.03871
G1 X103.911 Y156.24 E.04814
G1 X102.049 Y155.433 E.07316
G1 X100.396 Y154.65 E.06593
G1 X98.766 Y153.808 E.06618
G1 X97.086 Y152.869 E.06938
G1 X95.516 Y151.916 E.06622
G1 X93.978 Y150.913 E.06619
G1 X92.402 Y149.81 E.06938
G1 X90.929 Y148.7 E.0665
G1 X89.498 Y147.545 E.06631
G1 X88.045 Y146.289 E.06926
G1 X86.709 Y145.052 E.06565
G1 X85.406 Y143.766 E.06603
G1 X84.077 Y142.36 E.06976
G1 X82.86 Y140.982 E.06627
G1 X81.686 Y139.561 E.06645
G1 X80.515 Y138.039 E.06925
G1 X79.442 Y136.544 E.06636
G1 X78.422 Y135.018 E.06617
G1 X77.403 Y133.371 E.06987
G1 X76.484 Y131.768 E.06663
G1 X75.618 Y130.134 E.06665
G1 X74.791 Y128.444 E.06786
G1 X74.042 Y126.763 E.06634
G1 X73.347 Y125.061 E.0663
G1 X72.691 Y123.28 E.06843
G1 X72.097 Y121.485 E.06817
G1 X71.578 Y119.711 E.06667
G1 X71.119 Y117.937 E.06608
G1 X70.701 Y116.05 E.06969
G1 X70.368 Y114.26 E.06562
G1 X70.092 Y112.456 E.06583
G1 X69.865 Y110.534 E.06978
G1 X69.71 Y108.692 E.06663
G1 X69.618 Y106.86 E.06616
G1 X69.589 Y104.928 E.06966
G1 X69.621 Y103.109 E.0656
G1 X69.712 Y101.288 E.06574
G1 X69.875 Y99.36 E.06975
G1 X70.099 Y97.486 E.06806
G1 X70.379 Y95.668 E.06633
G1 X70.721 Y93.844 E.06691
G1 X71.125 Y92.04 E.06668
G1 X71.582 Y90.267 E.06602
G1 X72.119 Y88.443 E.06857
G1 X72.723 Y86.622 E.06917
G1 X73.355 Y84.917 E.06558
G1 X74.043 Y83.228 E.06576
G1 X74.818 Y81.5 E.06829
G1 X75.63 Y79.837 E.06673
G1 X76.498 Y78.2 E.0668
G1 X77.455 Y76.537 E.06919
G1 X78.425 Y74.976 E.06626
G1 X79.448 Y73.444 E.06643
G1 X80.566 Y71.888 E.06907
G1 X81.884 Y70.196 E.07735
M204 S1000
G1 X82.174 Y70.437 F10800
M204 S800
G1 F954.706
G1 X83.206 Y69.191 E.05832
G1 X84.43 Y67.811 E.06651
G1 X85.708 Y66.459 E.0671
G1 X87 Y65.187 E.06537
G1 X88.332 Y63.957 E.06537
G1 X89.795 Y62.696 E.06966
G1 X91.24 Y61.533 E.06688
G1 X92.716 Y60.426 E.06652
G1 X94.235 Y59.365 E.0668
G1 X95.795 Y58.351 E.06709
G1 X97.374 Y57.399 E.06646
G1 X98.995 Y56.493 E.06698
G1 X100.613 Y55.661 E.06561
G1 X102.252 Y54.885 E.06537
G1 X104.026 Y54.116 E.06971
G1 X105.712 Y53.454 E.06533
G1 X107.417 Y52.845 E.06529
G1 X109.243 Y52.267 E.06905
G1 X111.048 Y51.76 E.0676
G1 X112.84 Y51.322 E.06652
G1 X114.658 Y50.944 E.06696
G1 X116.489 Y50.624 E.06701
G1 X118.313 Y50.371 E.06639
G1 X120.167 Y50.174 E.06723
G1 X121.981 Y50.045 E.06556
G1 X123.788 Y49.974 E.06522
G1 X125.721 Y49.967 E.0697
G1 X127.53 Y50.021 E.06528
G1 X129.338 Y50.133 E.06532
G1 X131.213 Y50.312 E.06791
G1 X133.044 Y50.554 E.06659
G1 X134.852 Y50.85 E.06605
G1 X136.696 Y51.219 E.06782
G1 X138.553 Y51.656 E.06879
G1 X140.307 Y52.133 E.06552
G1 X142.046 Y52.667 E.06559
G1 X143.798 Y53.271 E.06682
G1 X145.516 Y53.928 E.06634
G1 X147.226 Y54.648 E.06691
G1 X148.982 Y55.46 E.06974
G1 X150.598 Y56.276 E.06528
G1 X152.188 Y57.145 E.06534
G1 X153.816 Y58.107 E.0682
G1 X155.415 Y59.129 E.06841
G1 X156.906 Y60.154 E.06525
G1 X158.369 Y61.231 E.0655
G1 X159.886 Y62.43 E.0697
G1 X161.3 Y63.63 E.0669
G1 X162.666 Y64.869 E.0665
G1 X164.003 Y66.167 E.0672
G1 X165.26 Y67.473 E.06533
G1 X166.473 Y68.817 E.06528
G1 X167.715 Y70.292 E.06953
G1 X168.863 Y71.755 E.06705
G1 X169.946 Y73.235 E.06614
G1 X170.99 Y74.765 E.06677
G1 X171.963 Y76.303 E.06563
G1 X172.889 Y77.874 E.06575
G1 X173.803 Y79.557 E.06908
G1 X174.617 Y81.184 E.06558
G1 X175.381 Y82.844 E.06589
G1 X176.117 Y84.602 E.06874
G1 X176.766 Y86.309 E.06584
G1 X177.359 Y88.039 E.06593
G1 X177.914 Y89.859 E.06863
G1 X178.402 Y91.678 E.06789
G1 X178.813 Y93.457 E.06586
G1 X179.167 Y95.247 E.06579
G1 X179.473 Y97.133 E.06886
G1 X179.702 Y98.947 E.06594
G1 X179.876 Y100.774 E.06617
G1 X179.988 Y102.666 E.06834
G1 X180.034 Y104.476 E.0653
G1 X180.022 Y106.289 E.06535
G1 X179.945 Y108.183 E.06838
G1 X179.803 Y110.07 E.06822
G1 X179.605 Y111.869 E.06527
G1 X179.352 Y113.664 E.06536
G1 X179.013 Y115.568 E.0697
G1 X178.635 Y117.341 E.06537
G1 X178.2 Y119.104 E.06548
G1 X177.672 Y120.955 E.06941
G1 X177.104 Y122.728 E.06712
G1 X176.479 Y124.467 E.06664
G1 X175.791 Y126.193 E.06698
G1 X175.07 Y127.846 E.06504
G1 X174.289 Y129.49 E.06565
G1 X173.414 Y131.173 E.06839
G1 X172.486 Y132.823 E.06824
G1 X171.538 Y134.381 E.06578
G1 X170.526 Y135.926 E.06659
G1 X169.471 Y137.424 E.06607
G1 X168.368 Y138.885 E.06602
G1 X167.186 Y140.345 E.06771
G1 X165.944 Y141.777 E.06835
G1 X164.703 Y143.114 E.06576
G1 X163.411 Y144.415 E.06611
G1 X162.066 Y145.681 E.06664
G1 X160.688 Y146.895 E.06622
G1 X159.24 Y148.088 E.06763
G1 X157.722 Y149.252 E.06897
G1 X156.243 Y150.308 E.06553
G1 X154.738 Y151.31 E.06517
G1 X153.128 Y152.304 E.06825
G1 X151.483 Y153.245 E.06835
G1 X149.884 Y154.087 E.06513
G1 X148.25 Y154.883 E.06553
G1 X146.483 Y155.67 E.06975
G1 X144.764 Y156.364 E.06687
G1 X143.026 Y156.999 E.06671
G1 X141.265 Y157.577 E.06683
G1 X139.481 Y158.096 E.06699
G1 X137.694 Y158.55 E.06647
G1 X135.882 Y158.948 E.0669
G1 X134.055 Y159.284 E.06698
G1 X132.23 Y159.556 E.06652
G1 X130.382 Y159.771 E.06708
G1 X128.574 Y159.918 E.06544
G1 X126.761 Y160.006 E.06544
G1 X124.832 Y160.033 E.06958
G1 X123.013 Y159.998 E.06558
G1 X121.192 Y159.903 E.06574
G1 X119.317 Y159.74 E.06787
G1 X117.475 Y159.519 E.0669
G1 X115.656 Y159.235 E.06638
G1 X113.856 Y158.894 E.06608
G1 X112.025 Y158.483 E.06764
G1 X110.23 Y158.015 E.06692
G1 X108.25 Y157.412 E.0746
G1 X107.401 Y156.943 E.03497
G1 X106.759 Y156.386 E.03065
G1 X106.465 Y156.017 E.01704
G1 X105.266 Y156.111 E.04336
G1 X104.04 Y155.885 E.04493
G1 X102.207 Y155.091 E.07203
G1 X100.561 Y154.311 E.0657
G1 X98.942 Y153.474 E.06572
G1 X97.279 Y152.544 E.06869
G1 X95.715 Y151.595 E.06599
G1 X94.187 Y150.599 E.06575
G1 X92.626 Y149.507 E.06869
G1 X91.159 Y148.401 E.06627
G1 X89.738 Y147.253 E.06586
G1 X88.299 Y146.01 E.06857
G1 X86.967 Y144.778 E.06542
G1 X85.673 Y143.499 E.06558
G1 X84.357 Y142.108 E.06906
G1 X83.145 Y140.735 E.06604
G1 X81.979 Y139.324 E.066
G1 X80.82 Y137.817 E.06856
G1 X79.75 Y136.327 E.06613
G1 X78.738 Y134.812 E.06571
G1 X77.728 Y133.181 E.06916
G1 X76.812 Y131.583 E.0664
G1 X75.952 Y129.961 E.0662
G1 X75.134 Y128.287 E.06716
G1 X74.39 Y126.618 E.0659
G1 X73.698 Y124.921 E.06608
G1 X73.048 Y123.159 E.06774
G1 X72.458 Y121.376 E.06769
G1 X71.942 Y119.614 E.06623
G1 X71.485 Y117.845 E.06585
G1 X71.071 Y115.977 E.06898
G1 X70.739 Y114.194 E.0654
G1 X70.465 Y112.402 E.06538
G1 X70.241 Y110.499 E.06909
G1 X70.087 Y108.67 E.06618
G1 X69.995 Y106.844 E.06593
G1 X69.966 Y104.932 E.06897
G1 X69.998 Y103.119 E.06538
G1 X70.089 Y101.31 E.0653
G1 X70.249 Y99.402 E.06905
G1 X70.472 Y97.54 E.06759
G1 X70.751 Y95.735 E.06589
G1 X71.089 Y93.923 E.06644
G1 X71.49 Y92.131 E.06623
G1 X71.946 Y90.364 E.06579
G1 X72.48 Y88.552 E.0681
G1 X73.078 Y86.75 E.06846
G1 X73.708 Y85.051 E.06536
G1 X74.391 Y83.373 E.06531
G1 X75.158 Y81.662 E.0676
G1 X75.965 Y80.011 E.06628
G1 X76.829 Y78.38 E.06656
G1 X77.777 Y76.734 E.06849
G1 X78.743 Y75.178 E.06603
G1 X79.76 Y73.656 E.06598
G1 X80.866 Y72.116 E.06836
G1 X82.136 Y70.483 E.07461
M204 S1000
G1 X82.427 Y70.724 F10800
M204 S800
G1 F954.706
G1 X83.49 Y69.439 E.06014
G1 X84.706 Y68.068 E.06607
G1 X85.975 Y66.725 E.06662
G1 X87.258 Y65.462 E.06493
G1 X88.585 Y64.236 E.06514
G1 X90.034 Y62.988 E.06897
G1 X91.469 Y61.832 E.06642
G1 X92.935 Y60.733 E.06606
G1 X94.444 Y59.68 E.06635
G1 X95.993 Y58.672 E.06663
