; generated by PrusaSlicer 2.5.2+win64 on 2023-05-24 at 01:49:20 UTC


;
;
; 

; external perimeters extrusion width = 0.45mm
; perimeters extrusion width = 0.45mm
; infill extrusion width = 0.45mm
; solid infill extrusion width = 0.45mm
; top infill extrusion width = 0.40mm
; first layer extrusion width = 0.42mm

M73 P0 R39
M73 Q0 S39
M201 X1000 Y1000 Z200 E5000 ; sets maximum accelerations, mm/sec^2
M203 X200 Y200 Z12 E120 ; sets maximum feedrates, mm / sec
M204 P1250 R1250 T1250 ; sets acceleration (P, T) and retract acceleration (R), mm/sec^2
M205 X8.00 Y8.00 Z0.40 E4.50 ; sets the jerk limits, mm/sec
M205 S0 T0 ; sets the minimum extruding and travel feed rate, mm/sec
M107
;TYPE:Custom
M862.3 P "MK3S" ; printer model check
M862.1 P0.4 ; nozzle diameter check
M115 U3.12.2 ; tell printer latest fw version
G90 ; use absolute coordinates
M83 ; extruder relative mode
M104 S230 ; set extruder temp
M140 S60 ; set bed temp
M190 S60 ; wait for bed temp
M109 S230 ; wait for extruder temp
G28 W ; home all without mesh bed level
G80 ; mesh bed leveling

G1 Z0.2 F720
G1 Y-3 F1000 ; go outside print area
G92 E0
G1 X60 E9 F1000 ; intro line
G1 X100 E12.5 F1000 ; intro line

G92 E0
M221 S95

; Don't change E values below. Excessive value can damage the printer.

G21 ; set units to millimeters
G90 ; use absolute coordinates
M83 ; use relative distances for extrusion
M900 K0.05 ; Filament gcode LA 1.5
M900 K30 ; Filament gcode LA 1.0
M107
;LAYER_CHANGE
;Z:0.2
;HEIGHT:0.2
;BEFORE_LAYER_CHANGE
G92 E0.0
;0.2


G1 E-.8 F2100
G1 Z.4 F720
;AFTER_LAYER_CHANGE
;0.2
G1 X80.808 Y67.313 F10800
G1 Z.2 F720
G1 E.8 F2100
M204 S800
;TYPE:Skirt/Brim
;WIDTH:0.42
G1 F1200
G1 X83.568 Y64.301 E.1281
G1 X86.273 Y61.718 E.11725
G1 X87.853 Y60.354 E.06545
G1 X90.836 Y58.034 E.11849
G1 X92.541 Y56.837 E.06533
G1 X95.743 Y54.827 E.11854
G1 X97.562 Y53.813 E.06528
G1 X99.343 Y52.895 E.06285
G1 X102.865 Y51.305 E.12115
G1 X106.404 Y49.978 E.11852
G1 X108.396 Y49.345 E.06552
G1 X112.055 Y48.383 E.11862
G1 X114.086 Y47.957 E.06506
G1 X116.06 Y47.613 E.06283
G1 X119.899 Y47.145 E.12126
G1 X123.676 Y46.936 E.1186
G1 X125.679 Y46.926 E.06281
G1 X127.75 Y46.988 E.06496
G1 X131.528 Y47.288 E.11883
G1 X135.353 Y47.851 E.12122
G1 X137.276 Y48.234 E.06148
G1 X139.341 Y48.72 E.06653
G1 X142.934 Y49.758 E.11726
G1 X146.77 Y51.155 E.128
G1 X150.19 Y52.668 E.11726
G1 X152.053 Y53.607 E.06543
G1 X155.336 Y55.473 E.11838
G1 X157.092 Y56.594 E.06533
G1 X160.179 Y58.787 E.11872
G1 X161.814 Y60.079 E.06535
G1 X164.662 Y62.575 E.11874
G1 X166.153 Y64.018 E.06507
G1 X168.738 Y66.79 E.11884
G1 X170.075 Y68.378 E.06508
G1 X172.367 Y71.392 E.11872
G1 X173.495 Y73.042 E.06268
G1 X174.609 Y74.8 E.06525
G1 X176.47 Y78.094 E.1186
G1 X177.401 Y79.957 E.06529
G1 X178.904 Y83.384 E.11735
G1 X179.658 Y85.367 E.06651
G1 X180.821 Y88.967 E.11862
G1 X181.361 Y90.984 E.06548
G1 X182.145 Y94.638 E.11718
G1 X182.732 Y98.677 E.12795
G1 X183.019 Y102.409 E.11738
G1 X183.076 Y104.535 E.06669
G1 X182.984 Y108.273 E.11722
G1 X182.829 Y110.355 E.06546
G1 X182.36 Y114.097 E.11824
G1 X181.995 Y116.156 E.06556
G1 X181.15 Y119.839 E.1185
G1 X180.579 Y121.843 E.06532
G1 X179.968 Y123.747 E.06269
G1 X178.628 Y127.287 E.11869
G1 X177.797 Y129.191 E.06514
G1 X176.11 Y132.579 E.11866
G1 X175.087 Y134.396 E.06537
G1 X173.066 Y137.596 E.11869
G1 X171.867 Y139.294 E.06516
G1 X169.537 Y142.273 E.11858
G1 X168.166 Y143.852 E.06557
G1 X165.579 Y146.546 E.11712
G1 X164.032 Y148.002 E.06661
G1 X161.149 Y150.453 E.11865
G1 X159.496 Y151.721 E.06533
G1 X156.416 Y153.845 E.11731
G1 X152.909 Y155.93 E.12789
G1 X149.569 Y157.622 E.1174
G1 X147.631 Y158.484 E.06652
G1 X144.136 Y159.832 E.11746
G1 X142.161 Y160.482 E.06517
G1 X138.506 Y161.482 E.11881
G1 X136.475 Y161.93 E.06523
G1 X132.742 Y162.555 E.11867
G1 X130.679 Y162.797 E.06512
G1 X126.898 Y163.044 E.11882
G1 X124.82 Y163.074 E.06515
G1 X122.826 Y163.034 E.06254
G1 X119.087 Y162.773 E.1175
G1 X115.087 Y162.222 E.1266
G1 X111.389 Y161.457 E.11843
G1 X109.488 Y160.965 E.06155
G1 X105.8 Y159.873 E.12059
G1 X104.436 Y159.376 E.04553
G1 X100.911 Y157.842 E.12053
G1 X97.547 Y156.177 E.11769
G1 X95.699 Y155.141 E.06644
G1 X92.528 Y153.149 E.11742
G1 X90.796 Y151.934 E.06634
G1 X87.805 Y149.602 E.11893
G1 X86.235 Y148.243 E.06509
G1 X83.53 Y145.659 E.1173
G1 X82.068 Y144.111 E.06677
G1 X79.613 Y141.232 E.11863
G1 X78.342 Y139.581 E.06533
G1 X76.191 Y136.475 E.11845
G1 X75.093 Y134.7 E.06544
G1 X73.265 Y131.387 E.11864
G1 X72.353 Y129.516 E.06525
G1 X70.884 Y126.076 E.11729
G1 X69.534 Y122.219 E.12814
G1 X68.543 Y118.617 E.11714
G1 X68.083 Y116.543 E.06659
G1 X67.457 Y112.852 E.11738
G1 X67.213 Y110.787 E.0652
G1 X66.957 Y107.007 E.11879
G1 X66.924 Y104.923 E.06537
G1 X67.051 Y101.15 E.11837
G1 X67.226 Y99.072 E.06537
G1 X67.465 Y97.083 E.06281
G1 X68.102 Y93.36 E.11845
G1 X68.555 Y91.328 E.06526
M73 Q1 S39
G1 X69.563 Y87.682 E.11861
M73 P1 R39
G1 X70.223 Y85.701 E.06549
G1 X71.578 Y82.218 E.11717
G1 X72.445 Y80.283 E.06648
G1 X74.169 Y76.905 E.11891
G1 X75.208 Y75.104 E.06519
G1 X77.237 Y71.959 E.11734
G1 X78.476 Y70.236 E.06655
G1 X80.771 Y67.36 E.11537
M204 S1000
;WIPE_START
G1 F8640
G1 X82.992 Y64.931 E-.76
;WIPE_END
G1 E-.04 F2100
G1 Z.6 F720
G1 X82.825 Y69.056 F10800
G1 Z.2 F720
G1 E.8 F2100
M204 S800
G1 F1200
G1 X84.143 Y67.561 E.06249
G1 X85.42 Y66.215 E.05816
G1 X86.727 Y64.926 E.05755
G1 X88.096 Y63.661 E.05845
G1 X89.504 Y62.446 E.05833
G1 X90.95 Y61.282 E.05818
G1 X92.453 Y60.152 E.05897
G1 X93.999 Y59.067 E.05921
G1 X95.556 Y58.055 E.05824
G1 X97.154 Y57.088 E.05856
G1 X98.789 Y56.177 E.05869
G1 X100.449 Y55.319 E.05859
G1 X102.143 Y54.519 E.05873
G1 X103.847 Y53.781 E.05823
G1 X105.56 Y53.107 E.05773
G1 X107.33 Y52.476 E.05892
G1 X109.107 Y51.912 E.05845
G1 X110.89 Y51.411 E.05808
G1 X112.72 Y50.963 E.05907
G1 X114.552 Y50.58 E.05868
G1 X116.393 Y50.257 E.0586
G1 X118.257 Y49.997 E.059
G1 X120.136 Y49.798 E.05924
G1 X121.949 Y49.669 E.05701
G1 X123.774 Y49.598 E.05724
G1 X125.728 Y49.59 E.06128
G1 X127.544 Y49.644 E.05696
G1 X129.364 Y49.757 E.05718
G1 X131.245 Y49.936 E.05925
G1 X133.114 Y50.183 E.05911
G1 X134.983 Y50.491 E.0594
G1 X136.773 Y50.85 E.05723
G1 X138.583 Y51.275 E.05829
G1 X140.425 Y51.775 E.05985
G1 X142.216 Y52.326 E.05875
G1 X143.984 Y52.939 E.05868
G1 X145.737 Y53.61 E.05885
G1 X147.417 Y54.322 E.05721
G1 X149.068 Y55.084 E.05702
G1 X150.794 Y55.954 E.06058
G1 X152.4 Y56.835 E.05745
G1 X153.977 Y57.764 E.0574
G1 X155.622 Y58.815 E.06118
G1 X157.124 Y59.845 E.05713
G1 X158.594 Y60.928 E.05725
G1 X160.105 Y62.123 E.0604
G1 X161.55 Y63.348 E.05941
G1 X162.922 Y64.594 E.0581
G1 X164.267 Y65.898 E.05873
G1 X165.546 Y67.226 E.0578
G1 X166.771 Y68.586 E.05739
G1 X168.005 Y70.054 E.06015
G1 X169.145 Y71.504 E.05783
G1 X170.229 Y72.981 E.05744
G1 X171.296 Y74.545 E.05935
G1 X172.304 Y76.135 E.05904
G1 X173.239 Y77.728 E.0579
G1 X174.122 Y79.352 E.05796
G1 X174.979 Y81.066 E.06009
G1 X175.741 Y82.728 E.05732
G1 X176.451 Y84.421 E.05756
G1 X177.127 Y86.201 E.05971
G1 X177.726 Y87.952 E.05802
G1 X178.269 Y89.732 E.05836
G1 X178.762 Y91.568 E.0596
G1 X179.178 Y93.369 E.05796
G1 X179.535 Y95.172 E.05764
G1 X179.835 Y97.012 E.05847
G1 X180.072 Y98.853 E.05817
G1 X180.249 Y100.724 E.05893
G1 X180.363 Y102.616 E.05944
G1 X180.413 Y104.519 E.05967
G1 X180.397 Y106.344 E.05724
G1 X180.323 Y108.159 E.05694
G1 X180.18 Y110.075 E.06024
G1 X179.98 Y111.901 E.0576
G1 X179.724 Y113.718 E.05754
G1 X179.386 Y115.617 E.06048
G1 X179.004 Y117.415 E.05764
G1 X178.565 Y119.195 E.05748
G1 X178.042 Y121.032 E.05989
G1 X177.459 Y122.852 E.0599
G1 X176.836 Y124.584 E.05774
G1 X176.158 Y126.292 E.0576
G1 X175.421 Y127.983 E.05784
G1 X174.625 Y129.655 E.05808
G1 X173.753 Y131.336 E.05937
G1 X172.809 Y133.016 E.0604
G1 X171.861 Y134.574 E.05718
G1 X170.863 Y136.098 E.05713
G1 X169.785 Y137.63 E.05873
G1 X168.668 Y139.11 E.05814
G1 X167.477 Y140.584 E.05939
G1 X166.212 Y142.042 E.06054
G1 X164.971 Y143.376 E.05712
G1 X163.692 Y144.667 E.057
G1 X162.33 Y145.949 E.05864
G1 X160.933 Y147.181 E.0584
G1 X159.476 Y148.38 E.05917
G1 X157.944 Y149.556 E.06056
G1 X156.463 Y150.613 E.05702
G1 X154.944 Y151.625 E.05725
G1 X153.35 Y152.61 E.05876
G1 X151.74 Y153.534 E.0582
G1 X150.088 Y154.407 E.05857
G1 X148.332 Y155.26 E.06121
G1 X146.668 Y156 E.05713
G1 X144.977 Y156.686 E.0572
G1 X143.144 Y157.357 E.06122
G1 X141.414 Y157.924 E.05706
G1 X139.663 Y158.437 E.05722
G1 X137.809 Y158.911 E.06001
G1 X135.946 Y159.32 E.05979
G1 X134.113 Y159.656 E.05844
G1 X132.276 Y159.931 E.05823
G1 X130.416 Y160.146 E.05872
G1 X128.601 Y160.295 E.05709
G1 X126.775 Y160.383 E.05731
G1 X124.826 Y160.41 E.0611
G1 X122.989 Y160.375 E.05763
G1 X121.155 Y160.278 E.05758
G1 X119.275 Y160.115 E.05915
G1 X117.438 Y159.892 E.05803
G1 X115.607 Y159.609 E.05807
G1 X113.769 Y159.26 E.05867
G1 X111.941 Y158.851 E.05873
G1 X110.129 Y158.378 E.05872
G1 X108.121 Y157.767 E.06581
G1 X107.169 Y157.241 E.03411
G1 X106.498 Y156.658 E.02785
G1 X106.295 Y156.409 E.01009
G1 X105.225 Y156.486 E.03361
G1 X103.913 Y156.241 E.04185
G1 X102.048 Y155.434 E.06372
G1 X100.396 Y154.65 E.05734
G1 X98.769 Y153.81 E.0574
G1 X97.085 Y152.866 E.06053
G1 X95.512 Y151.914 E.05767
G1 X93.975 Y150.912 E.05753
G1 X92.438 Y149.835 E.05884
G1 X90.947 Y148.715 E.05847
G1 X89.502 Y147.549 E.05824
G1 X88.087 Y146.325 E.05864
G1 X86.723 Y145.067 E.05818
G1 X85.389 Y143.751 E.05877
G1 X84.1 Y142.386 E.05885
G1 X82.869 Y140.994 E.05827
G1 X81.668 Y139.537 E.0592
G1 X80.517 Y138.043 E.05913
G1 X79.442 Y136.543 E.05788
G1 X78.412 Y135.004 E.05808
G1 X77.427 Y133.413 E.05866
G1 X76.504 Y131.807 E.05806
G1 X75.625 Y130.15 E.05884
G1 X74.792 Y128.445 E.05948
G1 X74.04 Y126.759 E.05788
G1 X73.347 Y125.061 E.05751
G1 X72.699 Y123.308 E.05861
G1 X72.116 Y121.552 E.05802
G1 X71.588 Y119.753 E.05878
G1 X71.108 Y117.892 E.06025
G1 X70.711 Y116.103 E.05748
G1 X70.372 Y114.292 E.05775
G1 X70.082 Y112.391 E.06029
G1 X69.867 Y110.563 E.05771
G1 X69.711 Y108.725 E.05786
G1 X69.616 Y106.824 E.05966
G1 X69.588 Y104.926 E.05953
G1 X69.62 Y103.105 E.0571
G1 X69.711 Y101.288 E.05704
G1 X69.876 Y99.341 E.06127
G1 X70.098 Y97.483 E.05866
G1 X70.379 Y95.665 E.05771
G1 X70.721 Y93.849 E.05793
G1 X71.136 Y91.99 E.05971
M73 P1 R38
G1 X71.592 Y90.226 E.05715
G1 X72.111 Y88.458 E.05775
G1 X72.723 Y86.621 E.06071
G1 X73.358 Y84.907 E.05734
G1 X74.057 Y83.193 E.05803
G1 X74.81 Y81.513 E.05773
G1 X75.621 Y79.849 E.05803
G1 X76.499 Y78.197 E.05866
G1 X77.473 Y76.507 E.06116
G1 X78.437 Y74.956 E.05725
G1 X79.452 Y73.439 E.05722
G1 X80.588 Y71.859 E.06103
G1 X81.707 Y70.409 E.05742
G1 X82.787 Y69.102 E.05316
M204 S1000
G1 X83.077 Y69.342 F10800
M204 S800
G1 F1200
G1 X84.419 Y67.818 E.06366
G1 X85.687 Y66.482 E.05776
G1 X86.989 Y65.197 E.05735
G1 X88.345 Y63.944 E.05786
G1 X89.748 Y62.733 E.05812
G1 X91.184 Y61.578 E.05778
G1 X92.677 Y60.455 E.05858
G1 X94.212 Y59.378 E.05882
G1 X95.759 Y58.373 E.05783
G1 X97.34 Y57.416 E.05795
G1 X98.97 Y56.508 E.05849
G1 X100.619 Y55.656 E.05821
G1 X102.301 Y54.862 E.05832
G1 X103.994 Y54.129 E.05784
G1 X105.696 Y53.459 E.05734
G1 X107.448 Y52.835 E.05832
G1 X109.218 Y52.272 E.05824
G1 X110.989 Y51.775 E.05768
G1 X112.801 Y51.331 E.05847
G1 X114.626 Y50.949 E.05849
G1 X116.455 Y50.629 E.0582
G1 X118.306 Y50.371 E.05859
G1 X120.166 Y50.174 E.05865
M73 Q1 S38
G1 X121.973 Y50.045 E.05681
G1 X123.785 Y49.974 E.05685
G1 X125.72 Y49.967 E.06067
G1 X127.529 Y50.021 E.05676
G1 X129.337 Y50.133 E.0568
G1 X131.199 Y50.311 E.05863
G1 X133.062 Y50.556 E.05891
G1 X134.919 Y50.862 E.05901
G1 X136.696 Y51.219 E.05683
G1 X138.487 Y51.64 E.05769
G1 X140.323 Y52.138 E.05965
G1 X142.102 Y52.685 E.05835
G1 X143.852 Y53.292 E.05809
G1 X145.593 Y53.958 E.05844
G1 X147.262 Y54.665 E.05682
G1 X148.907 Y55.425 E.05683
G1 X150.615 Y56.286 E.05997
G1 X152.211 Y57.161 E.05707
G1 X153.783 Y58.087 E.0572
G1 X155.411 Y59.127 E.06057
G1 X156.903 Y60.151 E.05673
G1 X158.368 Y61.23 E.05705
G1 X159.864 Y62.413 E.05979
G1 X161.299 Y63.63 E.059
G1 X162.662 Y64.867 E.05771
M73 Q2 S38
G1 X163.997 Y66.162 E.05833
G1 X165.268 Y67.481 E.05741
M73 P2 R38
G1 X166.488 Y68.836 E.05719
G1 X167.711 Y70.29 E.05956
G1 X168.843 Y71.73 E.05743
G1 X169.923 Y73.202 E.05724
G1 X170.982 Y74.755 E.05895
G1 X171.98 Y76.329 E.05844
G1 X172.909 Y77.911 E.05751
G1 X173.789 Y79.529 E.05776
G1 X174.638 Y81.226 E.05949
G1 X175.397 Y82.882 E.05713
G1 X176.102 Y84.564 E.05716
G1 X176.772 Y86.326 E.05911
G1 X177.368 Y88.071 E.05782
G1 X177.907 Y89.839 E.05796
G1 X178.395 Y91.656 E.05899
G1 X178.809 Y93.445 E.05757
G1 X179.165 Y95.242 E.05744
G1 X179.462 Y97.07 E.05807
G1 X179.698 Y98.898 E.05778
G1 X179.873 Y100.756 E.05852
G1 X179.986 Y102.635 E.05904
G1 X180.036 Y104.519 E.05907
G1 X180.02 Y106.332 E.05685
G1 X179.947 Y108.14 E.05675
G1 X179.805 Y110.037 E.05963
G1 X179.606 Y111.857 E.05741
G1 X179.351 Y113.662 E.05716
G1 X179.017 Y115.542 E.05987
G1 X178.637 Y117.328 E.05725
G1 X178.2 Y119.102 E.05727
G1 X177.682 Y120.92 E.05929
G1 X177.104 Y122.727 E.05949
G1 X176.485 Y124.448 E.05734
G1 X175.811 Y126.144 E.05721
G1 X175.076 Y127.829 E.05765
G1 X174.286 Y129.49 E.05769
G1 X173.42 Y131.16 E.05897
G1 X172.485 Y132.823 E.0598
G1 X171.544 Y134.37 E.05679
G1 X170.549 Y135.889 E.05693
G1 X169.478 Y137.41 E.05834
G1 X168.369 Y138.881 E.05775
G1 X167.186 Y140.344 E.05899
G1 X165.934 Y141.788 E.05992
G1 X164.697 Y143.117 E.05693
G1 X163.426 Y144.399 E.05662
G1 X162.074 Y145.673 E.05823
G1 X160.686 Y146.896 E.058
G1 X159.238 Y148.087 E.05877
G1 X157.722 Y149.251 E.05996
G1 X156.247 Y150.304 E.05682
G1 X154.737 Y151.31 E.05687
G1 X153.154 Y152.288 E.05835
G1 X151.555 Y153.205 E.05781
G1 X149.915 Y154.072 E.05816
G1 X148.176 Y154.917 E.0606
G1 X146.517 Y155.654 E.05693
G1 X144.838 Y156.335 E.05681
G1 X143.023 Y157 E.06061
G1 X141.3 Y157.565 E.05687
G1 X139.56 Y158.074 E.05683
G1 X137.718 Y158.544 E.0596
G1 X135.875 Y158.949 E.05919
G1 X134.054 Y159.284 E.05804
G1 X132.229 Y159.556 E.05784
G1 X130.382 Y159.771 E.05832
G1 X128.579 Y159.918 E.0567
G1 X126.76 Y160.006 E.05711
G1 X124.83 Y160.033 E.0605
G1 X122.999 Y159.998 E.05744
G1 X121.178 Y159.902 E.05718
G1 X119.317 Y159.74 E.05855
G1 X117.486 Y159.518 E.05784
G1 X115.668 Y159.237 E.05768
G1 X113.843 Y158.89 E.05827
G1 X112.033 Y158.485 E.05813
G1 X110.228 Y158.015 E.05849
G1 X108.25 Y157.412 E.06483
G1 X107.401 Y156.943 E.03041
G1 X106.76 Y156.386 E.02665
G1 X106.466 Y156.017 E.01479
G1 X105.268 Y156.111 E.03766
G1 X104.043 Y155.886 E.03906
G1 X102.207 Y155.092 E.06273
G1 X100.566 Y154.314 E.05693
G1 X98.945 Y153.477 E.0572
G1 X97.278 Y152.542 E.05993
G1 X95.71 Y151.593 E.05747
G1 X94.184 Y150.598 E.05713
G1 X92.657 Y149.528 E.05844
G1 X91.176 Y148.415 E.05808
G1 X89.741 Y147.257 E.05783
G1 X88.336 Y146.042 E.05824
G1 X86.981 Y144.792 E.05779
G1 X85.656 Y143.485 E.05837
G1 X84.376 Y142.13 E.05843
G1 X83.154 Y140.747 E.05787
G1 X81.961 Y139.3 E.0588
G1 X80.822 Y137.821 E.05852
G1 X79.751 Y136.326 E.05768
G1 X78.727 Y134.797 E.05769
G1 X77.749 Y133.217 E.05825
G1 X76.833 Y131.622 E.05767
G1 X75.959 Y129.976 E.05845
G1 X75.135 Y128.288 E.05887
G1 X74.385 Y126.609 E.05768
G1 X73.697 Y124.922 E.05712
G1 X73.053 Y123.18 E.05821
G1 X72.475 Y121.436 E.05761
G1 X71.951 Y119.65 E.05837
G1 X71.475 Y117.807 E.05966
G1 X71.08 Y116.024 E.05728
G1 X70.743 Y114.226 E.05736
G1 X70.456 Y112.344 E.05969
G1 X70.243 Y110.528 E.05732
G1 X70.087 Y108.696 E.05766
G1 X69.992 Y106.809 E.05925
G1 X69.965 Y104.929 E.05893
G1 X69.997 Y103.115 E.05691
G1 X70.087 Y101.31 E.05665
G1 X70.25 Y99.382 E.06066
G1 X70.471 Y97.538 E.05825
G1 X70.751 Y95.725 E.05751
G1 X71.089 Y93.928 E.05734
G1 X71.501 Y92.082 E.05931
G1 X71.955 Y90.329 E.05677
G1 X72.47 Y88.574 E.05734
G1 X73.077 Y86.749 E.06031
G1 X73.711 Y85.041 E.05714
G1 X74.403 Y83.344 E.05744
G1 X75.153 Y81.67 E.05753
G1 X75.958 Y80.017 E.05764
G1 X76.83 Y78.377 E.05825
G1 X77.794 Y76.703 E.06056
G1 X78.753 Y75.163 E.05686
G1 X79.76 Y73.657 E.05682
G1 X80.889 Y72.087 E.06063
G1 X82 Y70.647 E.05703
G1 X83.039 Y69.388 E.05118
M204 S1000
G1 X83.33 Y69.628 F10800
M204 S800
G1 F1200
G1 X84.695 Y68.075 E.06483
G1 X85.959 Y66.743 E.05756
