; generated by PrusaSlicer 2.5.2+win64 on 2023-05-24 at 01:48:46 UTC


;
;
; 

; external perimeters extrusion width = 0.45mm
; perimeters extrusion width = 0.45mm
; infill extrusion width = 0.45mm
; solid infill extrusion width = 0.45mm
; top infill extrusion width = 0.40mm
; first layer extrusion width = 0.42mm

M73 P0 R50
M73 Q0 S50
M201 X1000 Y1000 Z200 E5000 ; sets maximum accelerations, mm/sec^2
M203 X200 Y200 Z12 E120 ; sets maximum feedrates, mm / sec
M204 P1250 R1250 T1250 ; sets acceleration (P, T) and retract acceleration (R), mm/sec^2
M205 X8.00 Y8.00 Z0.40 E4.50 ; sets the jerk limits, mm/sec
M205 S0 T0 ; sets the minimum extruding and travel feed rate, mm/sec
M107
;TYPE:Custom
M862.3 P "MK3S" ; printer model check
M862.1 P0.4 ; nozzle diameter check
M115 U3.12.2 ; tell printer latest fw version
G90 ; use absolute coordinates
M83 ; extruder relative mode
M104 S230 ; set extruder temp
M140 S60 ; set bed temp
M190 S60 ; wait for bed temp
M109 S230 ; wait for extruder temp
G28 W ; home all without mesh bed level
G80 ; mesh bed leveling

G1 Z0.2 F720
G1 Y-3 F1000 ; go outside print area
G92 E0
G1 X60 E9 F1000 ; intro line
G1 X100 E12.5 F1000 ; intro line

G92 E0
M221 S95

; Don't change E values below. Excessive value can damage the printer.

G21 ; set units to millimeters
G90 ; use absolute coordinates
M83 ; use relative distances for extrusion
M900 K0.05 ; Filament gcode LA 1.5
M900 K30 ; Filament gcode LA 1.0
M107
;LAYER_CHANGE
;Z:0.2
;HEIGHT:0.2
;BEFORE_LAYER_CHANGE
G92 E0.0
;0.2


G1 E-.8 F2100
G1 Z.4 F720
;AFTER_LAYER_CHANGE
;0.2
G1 X82.346 Y70.447 F10800
G1 Z.2 F720
G1 E.8 F2100
M204 S800
;TYPE:Skirt/Brim
;WIDTH:0.42
G1 F1200
G1 X84.446 Y67.991 E.10132
G1 X85.837 Y66.523 E.06342
G1 X88.383 Y64.09 E.1104
G1 X89.885 Y62.795 E.06219
G1 X92.7 Y60.603 E.11187
G1 X94.318 Y59.471 E.0619
G1 X97.345 Y57.571 E.11206
G1 X99.062 Y56.611 E.06169
G1 X100.752 Y55.741 E.0596
G1 X104.075 Y54.241 E.11432
G1 X107.426 Y52.986 E.11218
G1 X109.303 Y52.388 E.06176
G1 X111.129 Y51.878 E.05945
G1 X114.689 Y51.074 E.11444
G1 X118.217 Y50.518 E.11197
G1 X120.183 Y50.308 E.06202
G1 X123.745 Y50.111 E.11183
G1 X125.636 Y50.101 E.05932
G1 X127.605 Y50.159 E.06176
G1 X131.168 Y50.443 E.11206
G1 X134.782 Y50.974 E.11454
G1 X136.641 Y51.345 E.05944
G1 X138.559 Y51.796 E.06178
G1 X141.993 Y52.791 E.1121
G1 X145.421 Y54.034 E.11432
G1 X147.133 Y54.754 E.05822
G1 X148.961 Y55.601 E.06316
G1 X152.12 Y57.262 E.11192
G1 X153.823 Y58.27 E.06206
G1 X156.761 Y60.215 E.11045
G1 X158.384 Y61.412 E.06326
G1 X161.117 Y63.648 E.11071
G1 X163.937 Y66.291 E.1212
G1 X166.343 Y68.873 E.11065
G1 X167.619 Y70.385 E.06201
G1 X169.774 Y73.224 E.11177
G1 X170.888 Y74.856 E.06195
G1 X171.901 Y76.454 E.05933
G1 X173.657 Y79.569 E.11211
G1 X174.536 Y81.325 E.06157
G1 X175.974 Y84.601 E.11219
G1 X176.672 Y86.444 E.06179
G1 X177.77 Y89.845 E.11206
G1 X178.279 Y91.748 E.06178
G1 X179.03 Y95.244 E.1121
G1 X179.344 Y97.192 E.06186
G1 X179.737 Y100.741 E.11195
G1 X179.855 Y102.714 E.06198
G1 X179.89 Y106.236 E.11045
G1 X179.665 Y110.102 E.12141
G1 X179.226 Y113.599 E.11051
G1 X178.873 Y115.587 E.0633
G1 X178.08 Y119.028 E.11073
G1 X177.542 Y120.926 E.06186
G1 X176.392 Y124.313 E.11215
G1 X175.653 Y126.177 E.06288
G1 X174.185 Y129.394 E.11085
G1 X173.276 Y131.146 E.0619
G1 X171.471 Y134.233 E.11213
G1 X170.395 Y135.877 E.06159
G1 X169.304 Y137.425 E.05937
G1 X167.104 Y140.236 E.11193
G1 X165.81 Y141.723 E.06182
G1 X163.336 Y144.302 E.11202
G1 X161.896 Y145.655 E.06194
G1 X159.172 Y147.97 E.11211
G1 X157.61 Y149.166 E.06168
G1 X154.665 Y151.196 E.11215
G1 X152.986 Y152.232 E.06186
G1 X149.859 Y153.951 E.11188
G1 X148.08 Y154.813 E.06198
G1 X144.831 Y156.193 E.11069
G1 X142.938 Y156.887 E.0632
G1 X139.569 Y157.932 E.11061
G1 X135.805 Y158.827 E.1213
G1 X132.327 Y159.408 E.11056
G1 X130.37 Y159.637 E.06179
G1 X126.796 Y159.871 E.11227
G1 X124.83 Y159.899 E.06167
G1 X122.943 Y159.861 E.05915
G1 X119.418 Y159.617 E.11081
G1 X115.633 Y159.094 E.11979
G1 X113.775 Y158.74 E.05932
G1 X110.344 Y157.908 E.11069
G1 X106.749 Y156.839 E.11758
G1 X105.657 Y156.444 E.03642
G1 X102.258 Y154.969 E.11618
G1 X99.055 Y153.383 E.11208
G1 X97.295 Y152.397 E.06325
G1 X94.311 Y150.521 E.11051
G1 X92.658 Y149.363 E.06328
G1 X89.843 Y147.166 E.11197
G1 X88.345 Y145.871 E.06208
G1 X85.802 Y143.439 E.11032
G1 X84.412 Y141.968 E.06346
G1 X82.125 Y139.29 E.11043
G1 X79.816 Y136.184 E.12135
G1 X77.906 Y133.216 E.11066
G1 X76.923 Y131.506 E.06184
G1 X75.3 Y128.323 E.11203
G1 X74.478 Y126.482 E.06322
G1 X73.203 Y123.199 E.11041
G1 X72.578 Y121.311 E.06237
G1 X71.633 Y117.88 E.11157
G1 X71.203 Y115.953 E.0619
G1 X70.604 Y112.424 E.11223
G1 X70.372 Y110.466 E.06183
G1 X70.131 Y106.908 E.11181
G1 X70.1 Y104.926 E.06215
G1 X70.219 Y101.366 E.11168
G1 X70.385 Y99.398 E.06193
G1 X70.61 Y97.513 E.0595
G1 X71.229 Y93.918 E.11439
G1 X71.642 Y92.069 E.0594
G1 X72.597 Y88.627 E.11199
G1 X73.22 Y86.755 E.06185
G1 X74.499 Y83.467 E.11063
G1 X75.322 Y81.628 E.06318
G1 X76.949 Y78.442 E.11217
G1 X77.933 Y76.737 E.06171
G1 X79.846 Y73.77 E.11069
G1 X82.159 Y70.666 E.12138
G1 X82.307 Y70.492 E.00714
M204 S1000
;WIPE_START
G1 F8640
G1 X84.446 Y67.991 E-.75999
G1 X84.446 Y67.991 E-.00001
;WIPE_END
G1 E-.04 F2100
G1 Z.6 F720
G1 X84.355 Y72.19 F10800
G1 Z.2 F720
G1 E.8 F2100
M204 S800
G1 F1200
G1 X85.308 Y71.04 E.04683
G1 X86.439 Y69.758 E.0536
G1 X87.711 Y68.416 E.05797
G1 X88.932 Y67.212 E.05377
G1 X90.189 Y66.049 E.05369
G1 X91.578 Y64.851 E.0575
G1 X92.919 Y63.772 E.05397
G1 X94.297 Y62.735 E.05408
G1 X95.803 Y61.682 E.05762
G1 X97.285 Y60.718 E.05544
G1 X98.785 Y59.815 E.05488
G1 X100.324 Y58.956 E.05527
G1 X101.893 Y58.147 E.05536
G1 X103.475 Y57.402 E.05483
G1 X105.094 Y56.702 E.0553
G1 X106.734 Y56.057 E.05526
G1 X108.385 Y55.474 E.0549
G1 X110.068 Y54.94 E.05535
G1 X111.766 Y54.464 E.05528
G1 X113.465 Y54.051 E.05482
G1 X115.193 Y53.689 E.05538
G1 X116.928 Y53.388 E.0552
G1 X118.664 Y53.146 E.05496
G1 X120.419 Y52.961 E.05534
G1 X122.132 Y52.839 E.05383
G1 X123.843 Y52.773 E.05368
G1 X125.686 Y52.765 E.05779
G1 X127.405 Y52.816 E.05393
G1 X129.113 Y52.922 E.05367
G1 X130.918 Y53.095 E.05685
G1 X132.64 Y53.322 E.05445
G1 X134.345 Y53.601 E.05417
G1 X136.094 Y53.952 E.05593
G1 X137.867 Y54.368 E.0571
G1 X139.521 Y54.818 E.05376
G1 X141.166 Y55.323 E.05394
G1 X142.835 Y55.899 E.05537
G1 X144.466 Y56.521 E.05471
G1 X146.091 Y57.205 E.05531
G1 X147.695 Y57.947 E.05539
G1 X149.258 Y58.734 E.05488
G1 X150.816 Y59.584 E.05563
G1 X152.393 Y60.517 E.05747
G1 X153.834 Y61.439 E.05364
G1 X155.251 Y62.409 E.05382
G1 X156.674 Y63.457 E.05544
G1 X158.048 Y64.541 E.05487
G1 X159.392 Y65.677 E.05518
G1 X160.727 Y66.887 E.05648
G1 X162.023 Y68.144 E.05661
G1 X163.242 Y69.411 E.05512
G1 X164.408 Y70.707 E.05468
G1 X165.551 Y72.064 E.05563
G1 X166.605 Y73.409 E.05356
G1 X167.624 Y74.796 E.05395
G1 X168.663 Y76.319 E.05783
G1 X169.561 Y77.733 E.0525
G1 X170.249 Y78.901 E.04251
G1 X171.329 Y80.864 E.07026
G1 X172.096 Y82.397 E.05374
G1 X172.817 Y83.962 E.05401
G1 X173.512 Y85.618 E.05631
G1 X174.132 Y87.251 E.05476
G1 X174.695 Y88.896 E.05452
G1 X175.214 Y90.595 E.05571
M73 Q1 S50
G1 X175.669 Y92.287 E.05492
G1 X176.066 Y93.987 E.05473
M73 P1 R50
G1 X176.408 Y95.713 E.05519
G1 X176.692 Y97.46 E.05548
G1 X176.915 Y99.193 E.05478
G1 X177.081 Y100.944 E.05517
G1 X177.192 Y102.788 E.05792
G1 X177.236 Y104.504 E.05382
G1 X177.226 Y106.215 E.05363
G1 X177.155 Y107.982 E.05546
G1 X177.025 Y109.731 E.05499
G1 X176.834 Y111.492 E.05554
G1 X176.576 Y113.305 E.05742
G1 X176.274 Y114.999 E.05394
G1 X175.918 Y116.676 E.05375
G1 X175.474 Y118.465 E.0578
G1 X175.002 Y120.125 E.0541
G1 X174.481 Y121.753 E.0536
G1 X173.865 Y123.466 E.05708
G1 X173.229 Y125.07 E.05409
G1 X172.541 Y126.652 E.05411
G1 X171.745 Y128.32 E.05795
G1 X170.951 Y129.846 E.05393
G1 X170.112 Y131.34 E.05372
G1 X169.153 Y132.916 E.05784
G1 X168.212 Y134.35 E.05378
G1 X167.229 Y135.75 E.05364
G1 X166.143 Y137.187 E.05648
G1 X165.005 Y138.593 E.05673
G1 X163.877 Y139.889 E.05384
G1 X162.717 Y141.142 E.05354
G1 X161.428 Y142.442 E.0574
G1 X160.171 Y143.624 E.05409
G1 X158.877 Y144.764 E.05409
G1 X157.477 Y145.915 E.05683
G1 X156.105 Y146.967 E.05421
G1 X154.694 Y147.977 E.05439
G1 X153.223 Y148.957 E.05543
G1 X151.659 Y149.922 E.05761
G1 X150.174 Y150.77 E.05363
G1 X148.647 Y151.579 E.05419
G1 X146.995 Y152.381 E.05756
G1 X145.423 Y153.079 E.05394
G1 X143.835 Y153.723 E.05372
G1 X142.102 Y154.358 E.05786
G1 X140.47 Y154.893 E.05385
G1 X138.827 Y155.374 E.0537
G1 X137.077 Y155.821 E.05663
G1 X135.318 Y156.209 E.05647
G1 X133.633 Y156.518 E.05371
G1 X131.934 Y156.774 E.05386
G1 X130.105 Y156.987 E.05775
G1 X128.347 Y157.131 E.0553
G1 X126.597 Y157.212 E.05494
G1 X124.836 Y157.235 E.05521
G1 X123.112 Y157.202 E.05405
G1 X121.4 Y157.113 E.05376
G1 X119.626 Y156.961 E.05585
G1 X117.844 Y156.744 E.05628
G1 X116.13 Y156.477 E.05438
G1 X114.421 Y156.154 E.05453
G1 X112.702 Y155.768 E.05523
G1 X111.004 Y155.327 E.05501
G1 X109.111 Y154.751 E.06203
G1 X108.12 Y154.209 E.03544
G1 X107.454 Y153.629 E.02768
G1 X107.333 Y153.489 E.0058
G1 X106.499 Y153.555 E.02624
G1 X105.193 Y153.329 E.04154
G1 X103.362 Y152.545 E.06247
G1 X101.799 Y151.802 E.05427
G1 X100.265 Y151.009 E.05413
G1 X98.684 Y150.124 E.05682
G1 X97.199 Y149.223 E.05445
G1 X95.758 Y148.285 E.0539
G1 X94.268 Y147.242 E.05703
G1 X92.878 Y146.194 E.05458
G1 X91.534 Y145.108 E.05419
G1 X90.157 Y143.919 E.05704
G1 X88.897 Y142.751 E.05386
G1 X87.678 Y141.547 E.05372
G1 X86.42 Y140.218 E.05738
G1 X85.272 Y138.915 E.05447
G1 X84.168 Y137.58 E.05429
G1 X83.069 Y136.154 E.05646
G1 X82.029 Y134.703 E.05596
G1 X81.072 Y133.267 E.05411
G1 X80.161 Y131.797 E.05423
G1 X79.258 Y130.225 E.05683
G1 X78.449 Y128.7 E.05412
G1 X77.695 Y127.157 E.05387
G1 X76.948 Y125.485 E.05741
G1 X76.295 Y123.878 E.0544
G1 X75.699 Y122.267 E.05385
G1 X75.135 Y120.565 E.05623
G1 X74.645 Y118.89 E.05472
G1 X74.208 Y117.198 E.05479
G1 X73.813 Y115.417 E.05719
G1 X73.489 Y113.682 E.05535
G1 X73.229 Y111.96 E.05461
G1 X73.025 Y110.22 E.05494
G1 X72.88 Y108.489 E.05446
G1 X72.791 Y106.768 E.05404
G1 X72.764 Y104.929 E.05765
G1 X72.794 Y103.214 E.05377
G1 X72.879 Y101.504 E.05371
G1 X73.035 Y99.668 E.05777
G1 X73.244 Y97.913 E.0554
G1 X73.508 Y96.202 E.0543
G1 X73.831 Y94.489 E.05465
G1 X74.222 Y92.732 E.05643
G1 X74.652 Y91.074 E.05369
G1 X75.138 Y89.425 E.05392
G1 X75.694 Y87.749 E.05535
G1 X76.299 Y86.107 E.05489
G1 X76.962 Y84.479 E.0551
G1 X77.683 Y82.867 E.05537
G1 X78.452 Y81.29 E.05499
G1 X79.279 Y79.734 E.05527
G1 X80.159 Y78.205 E.05532
G1 X81.08 Y76.719 E.05481
G1 X82.057 Y75.255 E.05518
G1 X83.112 Y73.787 E.05669
G1 X84.316 Y72.236 E.06156
M204 S1000
G1 X84.607 Y72.477 F10800
M204 S800
G1 F1200
G1 X85.596 Y71.283 E.04862
G1 X86.72 Y70.011 E.05322
G1 X87.978 Y68.682 E.05736
G1 X89.195 Y67.483 E.05358
G1 X90.442 Y66.328 E.05331
G1 X91.817 Y65.143 E.05688
G1 X93.148 Y64.072 E.05359
G1 X94.521 Y63.038 E.05388
G1 X96.012 Y61.997 E.05702
G1 X97.483 Y61.039 E.05503
G1 X98.971 Y60.143 E.05448
G1 X100.5 Y59.29 E.05488
G1 X102.057 Y58.487 E.05495
G1 X103.628 Y57.747 E.05444
G1 X105.235 Y57.052 E.0549
G1 X106.863 Y56.412 E.05485
G1 X108.502 Y55.832 E.05451
G1 X110.173 Y55.302 E.05495
G1 X111.858 Y54.83 E.05487
G1 X113.545 Y54.42 E.05443
G1 X115.261 Y54.06 E.05498
G1 X116.983 Y53.761 E.0548
G1 X118.707 Y53.521 E.05457
G1 X120.449 Y53.337 E.05494
G1 X122.15 Y53.216 E.05345
G1 X123.854 Y53.149 E.05348
G1 X125.678 Y53.142 E.05718
G1 X127.385 Y53.192 E.05354
G1 X129.087 Y53.298 E.05347
G1 X130.872 Y53.47 E.05624
G1 X132.588 Y53.696 E.05425
G1 X134.281 Y53.973 E.05379
G1 X136.017 Y54.321 E.05552
G1 X137.771 Y54.733 E.0565
G1 X139.419 Y55.181 E.05356
G1 X141.052 Y55.682 E.05355
G1 X142.709 Y56.255 E.05497
G1 X144.328 Y56.872 E.05433
G1 X145.942 Y57.551 E.0549
G1 X147.534 Y58.288 E.05499
G1 X149.086 Y59.069 E.05448
G1 X150.632 Y59.913 E.05524
G1 X152.193 Y60.837 E.05686
G1 X153.629 Y61.755 E.05344
G1 X155.035 Y62.718 E.05344
G1 X156.448 Y63.759 E.05503
G1 X157.812 Y64.835 E.05448
G1 X159.146 Y65.963 E.05478
G1 X160.471 Y67.164 E.05608
G1 X161.754 Y68.408 E.05601
G1 X162.964 Y69.665 E.05472
G1 X164.126 Y70.957 E.05449
G1 X165.256 Y72.3 E.05503
G1 X166.307 Y73.639 E.05337
G1 X167.318 Y75.016 E.05357
G1 X168.346 Y76.524 E.05723
M73 P1 R49
G1 X169.241 Y77.932 E.05231
G1 X169.922 Y79.09 E.04212
G1 X170.993 Y81.036 E.06965
G1 X171.757 Y82.563 E.05353
G1 X172.473 Y84.116 E.05362
G1 X173.16 Y85.755 E.0557
G1 X173.778 Y87.382 E.05457
G1 X174.338 Y89.015 E.05413
G1 X174.85 Y90.696 E.05512
G1 X175.302 Y92.376 E.05453
G1 X175.698 Y94.069 E.05453
G1 X176.037 Y95.783 E.05479
G1 X176.319 Y97.517 E.05508
G1 X176.541 Y99.238 E.05439
G1 X176.706 Y100.977 E.05476
G1 X176.815 Y102.801 E.05731
G1 X176.859 Y104.505 E.05344
G1 X176.849 Y106.209 E.05343
G1 X176.778 Y107.964 E.05505
G1 X176.649 Y109.7 E.05459
G1 X176.46 Y111.448 E.05514
G1 X176.204 Y113.243 E.05682
G1 X175.904 Y114.93 E.05374
G1 X175.55 Y116.595 E.05336
G1 X175.111 Y118.365 E.0572
G1 X174.642 Y120.013 E.05371
G1 X174.123 Y121.634 E.0534
G1 X173.514 Y123.33 E.05648
G1 X172.88 Y124.928 E.0539
G1 X172.196 Y126.499 E.05372
G1 X171.409 Y128.149 E.05733
G1 X170.618 Y129.669 E.05374
G1 X169.785 Y131.152 E.05333
G1 X168.836 Y132.712 E.05723
G1 X167.902 Y134.136 E.0534
G1 X166.922 Y135.531 E.05344
G1 X165.844 Y136.958 E.05607
G1 X164.718 Y138.348 E.05612
G1 X163.595 Y139.639 E.05364
G1 X162.442 Y140.883 E.05317
G1 X161.168 Y142.169 E.05678
G1 X159.915 Y143.347 E.05389
G1 X158.63 Y144.479 E.0537
G1 X157.245 Y145.617 E.05622
G1 X155.883 Y146.662 E.05382
G1 X154.477 Y147.668 E.05419
G1 X153.017 Y148.641 E.05502
G1 X151.47 Y149.596 E.05701
G1 X149.99 Y150.441 E.05344
G1 X148.473 Y151.244 E.0538
G1 X146.839 Y152.037 E.05696
G1 X145.278 Y152.731 E.05355
G1 X143.696 Y153.372 E.05352
G1 X141.982 Y154.001 E.05726
G1 X140.362 Y154.532 E.05346
G1 X138.724 Y155.012 E.0535
G1 X136.992 Y155.454 E.05604
G1 X135.246 Y155.838 E.05606
G1 X133.568 Y156.147 E.05351
G1 X131.881 Y156.4 E.05347
G1 X130.071 Y156.611 E.05715
G1 X128.326 Y156.754 E.05489
G1 X126.588 Y156.835 E.05454
G1 X124.84 Y156.858 E.05482
G1 X123.129 Y156.825 E.05366
G1 X121.423 Y156.737 E.05356
G1 X119.661 Y156.585 E.05544
G1 X117.899 Y156.37 E.05567
G1 X116.191 Y156.105 E.05419
G1 X114.494 Y155.785 E.05414
G1 X112.788 Y155.401 E.05483
G1 X111.103 Y154.963 E.0546
G1 X109.24 Y154.397 E.06104
G1 X108.321 Y153.889 E.03293
G1 X107.717 Y153.358 E.02522
G1 X107.501 Y153.095 E.01066
G1 X106.537 Y153.179 E.03035
G1 X105.321 Y152.973 E.03867
G1 X103.52 Y152.202 E.06141
G1 X101.969 Y151.465 E.05386
G1 X100.441 Y150.676 E.05393
G1 X98.876 Y149.8 E.05621
G1 X97.402 Y148.906 E.05406
G1 X95.967 Y147.971 E.05371
G1 X94.493 Y146.939 E.05642
G1 X93.113 Y145.899 E.05418
G1 X91.773 Y144.817 E.054
G1 X90.411 Y143.64 E.05644
G1 X89.16 Y142.481 E.05348
G1 X87.945 Y141.281 E.05353
G1 X86.701 Y139.966 E.05677
G1 X85.56 Y138.672 E.05408
G1 X84.461 Y137.342 E.05409
G1 X83.374 Y135.931 E.05585
G1 X82.341 Y134.491 E.05556
G1 X81.388 Y133.06 E.05392
M73 Q1 S49
G1 X80.483 Y131.601 E.05384
G1 X79.59 Y130.046 E.05623
G1 X78.787 Y128.532 E.05372
G1 X78.035 Y126.994 E.05367
G1 X77.296 Y125.34 E.0568
G1 X76.645 Y123.739 E.05421
G1 X76.054 Y122.139 E.05346
G1 X75.496 Y120.456 E.05561
G1 X75.008 Y118.787 E.05453
G1 X74.574 Y117.107 E.0544
G1 X74.183 Y115.345 E.05659
G1 X73.861 Y113.623 E.05494
G1 X73.603 Y111.913 E.05421
G1 X73.4 Y110.185 E.05455
G1 X73.256 Y108.46 E.05426
G1 X73.168 Y106.752 E.05365
G1 X73.141 Y104.933 E.05704
G1 X73.171 Y103.23 E.05339
G1 X73.256 Y101.526 E.05351
G1 X73.41 Y99.709 E.05716
G1 X73.617 Y97.968 E.05499
G1 X73.881 Y96.262 E.0541
G1 X74.201 Y94.561 E.05427
G1 X74.588 Y92.823 E.05583
G1 X75.015 Y91.178 E.0533
G1 X75.499 Y89.534 E.05373
G1 X76.051 Y87.871 E.05496
G1 X76.652 Y86.24 E.0545
G1 X77.31 Y84.624 E.0547
G1 X78.026 Y83.023 E.05498
G1 X78.789 Y81.459 E.05458
G1 X79.61 Y79.914 E.05486
G1 X80.484 Y78.395 E.05493
G1 X81.399 Y76.92 E.05442
G1 X82.369 Y75.467 E.05478
G1 X83.412 Y74.014 E.05608
G1 X84.568 Y72.523 E.05917
M204 S1000
G1 X84.859 Y72.764 F10800
M204 S800
G1 F1200
