; generated by PrusaSlicer 2.5.2+win64 on 2023-05-24 at 01:49:34 UTC


;
;
; 

; external perimeters extrusion width = 0.45mm
; perimeters extrusion width = 0.45mm
; infill extrusion width = 0.45mm
; solid infill extrusion width = 0.45mm
; top infill extrusion width = 0.40mm
; first layer extrusion width = 0.42mm

M73 P0 R84
M73 Q0 S84
M201 X1000 Y1000 Z200 E5000 ; sets maximum accelerations, mm/sec^2
M203 X200 Y200 Z12 E120 ; sets maximum feedrates, mm / sec
M204 P1250 R1250 T1250 ; sets acceleration (P, T) and retract acceleration (R), mm/sec^2
M205 X8.00 Y8.00 Z0.40 E4.50 ; sets the jerk limits, mm/sec
M205 S0 T0 ; sets the minimum extruding and travel feed rate, mm/sec
M107
;TYPE:Custom
M862.3 P "MK3S" ; printer model check
M862.1 P0.4 ; nozzle diameter check
M115 U3.12.2 ; tell printer latest fw version
G90 ; use absolute coordinates
M83 ; extruder relative mode
M104 S230 ; set extruder temp
M140 S60 ; set bed temp
M190 S60 ; wait for bed temp
M109 S230 ; wait for extruder temp
G28 W ; home all without mesh bed level
G80 ; mesh bed leveling

G1 Z0.2 F720
G1 Y-3 F1000 ; go outside print area
G92 E0
G1 X60 E9 F1000 ; intro line
G1 X100 E12.5 F1000 ; intro line

G92 E0
M221 S95

; Don't change E values below. Excessive value can damage the printer.

G21 ; set units to millimeters
G90 ; use absolute coordinates
M83 ; use relative distances for extrusion
M900 K0.05 ; Filament gcode LA 1.5
M900 K30 ; Filament gcode LA 1.0
M107
;LAYER_CHANGE
;Z:0.2
;HEIGHT:0.2
;BEFORE_LAYER_CHANGE
G92 E0.0
;0.2


G1 E-.8 F2100
G1 Z.4 F720
;AFTER_LAYER_CHANGE
;0.2
G1 X80.843 Y67.275 F10800
G1 Z.2 F720
G1 E.8 F2100
M204 S800
;TYPE:Skirt/Brim
;WIDTH:0.42
G1 F1200
G1 X82.224 Y65.716 E.06528
G1 X84.836 Y63.049 E.11707
G1 X87.882 Y60.33 E.12801
G1 X90.84 Y58.031 E.11747
G1 X92.578 Y56.813 E.06651
G1 X95.748 Y54.826 E.11732
G1 X97.564 Y53.81 E.06525
G1 X100.957 Y52.132 E.11867
G1 X102.899 Y51.29 E.06639
G1 X106.414 Y49.974 E.11768
G1 X108.393 Y49.347 E.06509
G1 X112.059 Y48.381 E.11886
G1 X114.088 Y47.956 E.06498
G1 X116.06 Y47.612 E.06279
G1 X119.9 Y47.144 E.12128
G1 X123.676 Y46.935 E.11858
G1 X125.68 Y46.925 E.06283
G1 X127.748 Y46.987 E.06488
G1 X131.527 Y47.287 E.11885
G1 X135.352 Y47.85 E.12124
G1 X137.315 Y48.241 E.06274
G1 X139.339 Y48.718 E.0652
G1 X142.976 Y49.772 E.11874
G1 X144.943 Y50.451 E.06525
G1 X148.416 Y51.849 E.11739
G1 X150.345 Y52.741 E.06662
G1 X153.693 Y54.503 E.11863
G1 X155.478 Y55.56 E.06503
G1 X158.606 Y57.629 E.1176
G1 X161.844 Y60.103 E.12777
G1 X164.66 Y62.571 E.1174
G1 X166.187 Y64.049 E.06664
G1 X168.737 Y66.784 E.11724
G1 X170.08 Y68.381 E.06542
G1 X172.366 Y71.391 E.11853
G1 X173.544 Y73.114 E.06543
G1 X175.514 Y76.337 E.11843
G1 X176.509 Y78.168 E.06535
G1 X178.149 Y81.584 E.11879
G1 X178.952 Y83.5 E.06516
G1 X180.239 Y87.061 E.11872
G1 X180.845 Y89.05 E.0652
G1 X181.766 Y92.718 E.11856
G1 X182.155 Y94.684 E.06285
G1 X182.487 Y96.733 E.06507
G1 X182.903 Y100.5 E.11885
G1 X183.028 Y102.577 E.06524
G1 X183.063 Y106.317 E.11726
G1 X182.976 Y108.439 E.06659
G1 X182.634 Y112.164 E.11729
G1 X181.988 Y116.195 E.128
G1 X181.148 Y119.842 E.11735
G1 X180.582 Y121.842 E.06517
G1 X179.364 Y125.431 E.11883
G1 X178.584 Y127.399 E.06638
G1 X177.029 Y130.806 E.11743
G1 X176.068 Y132.656 E.06536
G1 X175.087 Y134.395 E.06261
G1 X173.021 Y137.662 E.12117
G1 X170.79 Y140.723 E.11876
G1 X169.535 Y142.276 E.06262
G1 X166.958 Y145.154 E.12112
G1 X165.548 Y146.577 E.06283
G1 X164.033 Y148.001 E.06518
G1 X161.15 Y150.452 E.11865
G1 X159.497 Y151.72 E.06533
G1 X156.417 Y153.844 E.11731
G1 X152.908 Y155.929 E.12797
G1 X149.573 Y157.619 E.11721
G1 X147.632 Y158.484 E.06664
G1 X144.137 Y159.831 E.11745
G1 X142.159 Y160.482 E.06529
G1 X138.509 Y161.48 E.11864
G1 X136.482 Y161.928 E.06509
G1 X132.745 Y162.556 E.11883
G1 X130.677 Y162.796 E.06526
G1 X126.9 Y163.043 E.11868
G1 X124.818 Y163.075 E.06528
G1 X121.039 Y162.939 E.11857
G1 X119.088 Y162.772 E.06139
G1 X115.056 Y162.216 E.12762
G1 X113.128 Y161.848 E.06156
G1 X109.49 Y160.964 E.11739
G1 X105.801 Y159.873 E.1206
G1 X104.439 Y159.376 E.04547
G1 X100.907 Y157.841 E.12074
G1 X97.549 Y156.176 E.1175
G1 X95.696 Y155.14 E.0666
G1 X92.529 Y153.148 E.11729
G1 X90.794 Y151.93 E.06647
G1 X87.808 Y149.603 E.11868
G1 X86.236 Y148.242 E.0652
G1 X83.527 Y145.65 E.11755
G1 X82.07 Y144.111 E.06645
G1 X79.639 Y141.264 E.11738
G1 X77.205 Y137.99 E.12792
G1 X75.18 Y134.843 E.11732
G1 X74.142 Y133.04 E.06525
G1 X72.423 Y129.667 E.11869
G1 X71.556 Y127.726 E.06667
G1 X70.205 Y124.243 E.11714
G1 X69.549 Y122.264 E.06538
G1 X68.542 Y118.613 E.11874
G1 X68.091 Y116.581 E.06525
G1 X67.458 Y112.851 E.11862
G1 X67.214 Y110.786 E.0652
G1 X66.958 Y107.006 E.11879
G1 X66.925 Y104.922 E.06537
G1 X67.052 Y101.148 E.11839
G1 X67.227 Y99.07 E.06538
G1 X67.737 Y95.317 E.11876
G1 X68.118 Y93.277 E.06507
G1 X68.556 Y91.321 E.06287
G1 X69.592 Y87.597 E.1212
G1 X70.84 Y84.028 E.11854
G1 X71.596 Y82.175 E.06275
G1 X72.446 Y80.277 E.06519
G1 X74.17 Y76.904 E.11877
G1 X75.208 Y75.105 E.06512
G1 X77.26 Y71.925 E.11866
G1 X78.475 Y70.236 E.06523
G1 X80.806 Y67.321 E.11703
M204 S1000
;WIPE_START
G1 F8640
G1 X82.224 Y65.716 E-.49459
G1 X83.028 Y64.895 E-.26541
;WIPE_END
G1 E-.04 F2100
G1 Z.6 F720
G1 X82.857 Y69.018 F10800
G1 Z.2 F720
G1 E.8 F2100
M204 S800
G1 F1200
G1 X84.16 Y67.545 E.06165
G1 X85.419 Y66.219 E.05735
G1 X86.706 Y64.946 E.05674
G1 X88.142 Y63.619 E.06131
G1 X89.524 Y62.428 E.05721
G1 X90.943 Y61.286 E.05709
G1 X92.44 Y60.161 E.05873
G1 X93.958 Y59.094 E.05817
G1 X95.526 Y58.074 E.05865
G1 X97.126 Y57.106 E.05863
G1 X98.747 Y56.198 E.05826
G1 X100.407 Y55.341 E.05858
G1 X102.099 Y54.539 E.05871
G1 X103.8 Y53.8 E.05815
G1 X105.539 Y53.113 E.05864
G1 X107.384 Y52.458 E.06137
G1 X109.122 Y51.909 E.05716
G1 X110.883 Y51.412 E.05737
G1 X112.77 Y50.951 E.0609
G1 X114.559 Y50.578 E.05729
G1 X116.344 Y50.264 E.05682
G1 X118.232 Y50 E.0598
G1 X120.137 Y49.797 E.06005
G1 X121.957 Y49.667 E.0572
G1 X123.774 Y49.597 E.05703
G1 X125.729 Y49.589 E.06129
G1 X127.55 Y49.644 E.05713
G1 X129.365 Y49.756 E.057
G1 X131.271 Y49.938 E.06003
G1 X133.096 Y50.179 E.05774
G1 X134.914 Y50.478 E.05777
G1 X136.791 Y50.853 E.06001
G1 X138.594 Y51.277 E.05806
G1 X140.365 Y51.756 E.05753
G1 X142.174 Y52.313 E.05935
G1 X143.994 Y52.94 E.06036
G1 X145.697 Y53.593 E.05719
G1 X147.376 Y54.301 E.05713
G1 X149.108 Y55.101 E.05981
G1 X150.813 Y55.963 E.0599
G1 X152.45 Y56.86 E.05855
G1 X154.046 Y57.806 E.05815
G1 X155.627 Y58.815 E.0588
G1 X157.166 Y59.874 E.05859
G1 X158.653 Y60.973 E.05796
G1 X160.127 Y62.139 E.05894
G1 X161.552 Y63.347 E.05856
G1 X162.929 Y64.598 E.05833
G1 X164.272 Y65.9 E.05866
G1 X165.532 Y67.21 E.05699
G1 X166.756 Y68.565 E.05724
G1 X167.988 Y70.03 E.06003
G1 X169.165 Y71.529 E.05975
G1 X170.256 Y73.02 E.05793
G1 X171.311 Y74.565 E.05866
G1 X172.29 Y76.113 E.05745
G1 X173.216 Y77.684 E.05717
G1 X174.147 Y79.399 E.06118
G1 X174.983 Y81.07 E.05857
G1 X175.748 Y82.74 E.05758
G1 X176.462 Y84.447 E.05803
G1 X177.12 Y86.176 E.05801
G1 X177.717 Y87.918 E.05773
G1 X178.27 Y89.734 E.05954
G1 X178.754 Y91.533 E.05838
G1 X179.171 Y93.317 E.05747
G1 X179.533 Y95.153 E.05868
G1 X179.835 Y97.004 E.05881
G1 X180.073 Y98.844 E.05816
G1 X180.247 Y100.705 E.05862
G1 X180.365 Y102.651 E.06111
G1 X180.411 Y104.475 E.05721
G1 X180.399 Y106.294 E.05703
G1 X180.319 Y108.244 E.06122
G1 X180.182 Y110.059 E.05706
G1 X179.987 Y111.873 E.0572
G1 X179.716 Y113.762 E.05985
G1 X179.382 Y115.644 E.05993
G1 X178.992 Y117.469 E.05849
G1 X178.544 Y119.27 E.05819
G1 X178.032 Y121.072 E.05874
G1 X177.461 Y122.85 E.05858
G1 X176.831 Y124.599 E.05826
G1 X176.141 Y126.337 E.05863
G1 X175.41 Y128.011 E.05728
G1 X174.626 Y129.657 E.05717
G1 X173.738 Y131.365 E.06035
G1 X172.81 Y133.013 E.05931
G1 X171.844 Y134.598 E.0582
G1 X170.818 Y136.165 E.05871
G1 X169.773 Y137.648 E.05689
G1 X168.668 Y139.113 E.05753
G1 X167.469 Y140.594 E.05977
G1 X166.26 Y141.987 E.05783
G1 X165.008 Y143.339 E.05777
G1 X163.668 Y144.69 E.05966
G1 X162.322 Y145.957 E.05795
G1 X160.934 Y147.18 E.058
G1 X159.477 Y148.379 E.05917
G1 X157.945 Y149.555 E.06056
G1 X156.464 Y150.612 E.05702
G1 X154.945 Y151.624 E.05725
G1 X153.317 Y152.629 E.06
G1 X151.66 Y153.576 E.05981
G1 X150.048 Y154.426 E.05716
G1 X148.413 Y155.222 E.05702
G1 X146.628 Y156.017 E.06126
G1 X144.92 Y156.707 E.05774
G1 X143.206 Y157.335 E.05723
G1 X141.384 Y157.933 E.06014
G1 X139.581 Y158.458 E.05889
G1 X137.777 Y158.917 E.05834
G1 X135.951 Y159.318 E.05863
G1 X134.116 Y159.657 E.05852
G1 X132.287 Y159.93 E.05797
G1 X130.448 Y160.142 E.05804
M73 P0 R83
G1 X128.556 Y160.297 E.05954
G1 X126.699 Y160.384 E.05827
G1 X124.824 Y160.411 E.05879
G1 X122.999 Y160.374 E.05725
G1 X121.178 Y160.279 E.05718
G1 X119.279 Y160.114 E.05977
G1 X117.408 Y159.887 E.05909
G1 X115.586 Y159.604 E.05782
G1 X113.774 Y159.262 E.05781
G1 X111.945 Y158.851 E.05877
G1 X110.146 Y158.382 E.05831
G1 X108.163 Y157.783 E.06494
G1 X107.131 Y157.213 E.03695
G1 X106.463 Y156.621 E.028
G1 X106.29 Y156.409 E.00857
G1 X105.227 Y156.486 E.03344
G1 X103.915 Y156.24 E.04184
G1 X102.046 Y155.433 E.06382
G1 X100.389 Y154.645 E.05755
G1 X98.76 Y153.804 E.05748
G1 X97.086 Y152.868 E.06013
G1 X95.511 Y151.912 E.05777
G1 X93.977 Y150.912 E.05742
G1 X92.397 Y149.803 E.06055
G1 X90.933 Y148.7 E.05745
G1 X89.499 Y147.544 E.05775
G1 X88.088 Y146.324 E.05849
G1 X86.732 Y145.074 E.05782
G1 X85.404 Y143.76 E.05858
G1 X84.077 Y142.36 E.06048
G1 X82.86 Y140.981 E.05767
G1 X81.682 Y139.555 E.05799
G1 X80.53 Y138.058 E.05923
G1 X79.418 Y136.509 E.05979
G1 X78.383 Y134.955 E.05854
G1 X77.408 Y133.379 E.05811
G1 X76.483 Y131.769 E.05822
G1 X75.624 Y130.149 E.0575
G1 X74.819 Y128.503 E.05745
G1 X74.029 Y126.737 E.06066
G1 X73.34 Y125.041 E.05739
G1 X72.701 Y123.311 E.05784
G1 X72.091 Y121.469 E.06082
G1 X71.577 Y119.714 E.05735
G1 X71.118 Y117.932 E.05768
G1 X70.705 Y116.068 E.05988
G1 X70.369 Y114.266 E.05746
G1 X70.092 Y112.455 E.05745
G1 X69.865 Y110.533 E.06068
G1 X69.711 Y108.698 E.05775
G1 X69.618 Y106.857 E.0578
G1 X69.589 Y104.925 E.06057
G1 X69.621 Y103.108 E.05698
G1 X69.712 Y101.287 E.05717
G1 X69.876 Y99.346 E.06107
G1 X70.099 Y97.485 E.05876
G1 X70.382 Y95.65 E.05822
G1 X70.727 Y93.811 E.05869
G1 X71.136 Y91.985 E.05866
G1 X71.604 Y90.187 E.05824
G1 X72.134 Y88.392 E.05869
G1 X72.709 Y86.662 E.05717
G1 X73.338 Y84.954 E.05708
G1 X74.064 Y83.179 E.06014
G1 X74.841 Y81.444 E.05959
G1 X75.645 Y79.803 E.05729
G1 X76.512 Y78.173 E.05789
G1 X77.436 Y76.569 E.05805
G1 X78.411 Y74.996 E.05803
G1 X79.482 Y73.396 E.06038
G1 X80.556 Y71.901 E.0577
G1 X81.674 Y70.449 E.05748
G1 X82.819 Y69.064 E.05632
M204 S1000
G1 X83.11 Y69.305 F10800
M204 S800
G1 F1200
G1 X84.436 Y67.802 E.06283
G1 X85.686 Y66.485 E.05697
G1 X86.969 Y65.216 E.05654
G1 X88.391 Y63.903 E.0607
G1 X89.763 Y62.72 E.05682
G1 X91.177 Y61.582 E.05689
G1 X92.664 Y60.464 E.05833
G1 X94.172 Y59.405 E.05779
G1 X95.729 Y58.391 E.05824
G1 X97.318 Y57.43 E.05824
G1 X98.928 Y56.529 E.05786
G1 X100.577 Y55.678 E.05818
G1 X102.258 Y54.881 E.05831
G1 X103.947 Y54.147 E.05775
G1 X105.675 Y53.465 E.05824
G1 X107.501 Y52.817 E.06075
G1 X109.233 Y52.269 E.05697
G1 X110.982 Y51.776 E.05699
G1 X112.85 Y51.32 E.06029
G1 X114.627 Y50.949 E.05691
G1 X116.406 Y50.636 E.05663
G1 X118.282 Y50.373 E.05939
G1 X120.167 Y50.173 E.05944
G1 X121.974 Y50.044 E.05682
G1 X123.786 Y49.973 E.05683
G1 X125.721 Y49.966 E.06068
G1 X127.53 Y50.02 E.05675
G1 X129.338 Y50.132 E.05681
G1 X131.225 Y50.313 E.05942
G1 X133.044 Y50.553 E.05754
G1 X134.85 Y50.849 E.05739
G1 X136.714 Y51.222 E.05961
G1 X138.498 Y51.642 E.05747
G1 X140.263 Y52.12 E.05733
G1 X142.06 Y52.672 E.05895
G1 X143.862 Y53.293 E.05976
G1 X145.554 Y53.942 E.0568
G1 X147.227 Y54.647 E.05693
G1 X148.947 Y55.442 E.05941
G1 X150.635 Y56.295 E.05929
G1 X152.261 Y57.186 E.05815
G1 X153.845 Y58.126 E.05776
G1 X155.416 Y59.127 E.0584
G1 X156.945 Y60.179 E.05819
G1 X158.421 Y61.271 E.05758
G1 X159.886 Y62.429 E.05854
G1 X161.3 Y63.629 E.05816
G1 X162.669 Y64.871 E.05794
G1 X164.003 Y66.164 E.05826
G1 X165.259 Y67.469 E.05679
G1 X166.474 Y68.815 E.05685
G1 X167.693 Y70.266 E.05942
G1 X168.862 Y71.754 E.05935
G1 X169.95 Y73.24 E.05774
G1 X170.994 Y74.77 E.05806
G1 X171.97 Y76.313 E.05725
G1 X172.889 Y77.873 E.05679
G1 X173.811 Y79.571 E.06058
G1 X174.641 Y81.23 E.05817
G1 X175.403 Y82.894 E.05738
G1 X176.113 Y84.59 E.05764
G1 X176.766 Y86.307 E.05762
M73 Q0 S83
G1 X177.359 Y88.037 E.05733
G1 X177.907 Y89.835 E.05894
G1 X178.388 Y91.621 E.05799
G1 X178.803 Y93.4 E.05726
G1 X179.163 Y95.223 E.05827
G1 X179.462 Y97.062 E.05842
G1 X179.698 Y98.889 E.05776
G1 X179.871 Y100.737 E.05821
G1 X179.988 Y102.664 E.06051
G1 X180.034 Y104.475 E.05682
G1 X180.022 Y106.288 E.05683
G1 X179.943 Y108.219 E.06061
G1 X179.807 Y110.028 E.05686
G1 X179.612 Y111.829 E.05681
G1 X179.343 Y113.705 E.05944
G1 X179.013 Y115.569 E.05933
G1 X178.626 Y117.381 E.05809
G1 X178.18 Y119.17 E.0578
G1 X177.672 Y120.96 E.05833
G1 X177.105 Y122.726 E.05817
G1 X176.48 Y124.463 E.05787
M73 Q1 S83
G1 X175.795 Y126.189 E.05823
M73 P1 R83
G1 X175.068 Y127.852 E.05689
G1 X174.287 Y129.492 E.05697
G1 X173.408 Y131.183 E.05974
G1 X172.486 Y132.82 E.05891
G1 X171.527 Y134.394 E.05782
G1 X170.508 Y135.95 E.05831
G1 X169.467 Y137.429 E.05669
G1 X168.369 Y138.883 E.05714
G1 X167.182 Y140.35 E.05916
G1 X165.981 Y141.733 E.05745
G1 X164.734 Y143.081 E.05757
G1 X163.407 Y144.418 E.05905
G1 X162.066 Y145.68 E.05776
G1 X160.687 Y146.895 E.0576
G1 X159.239 Y148.086 E.05877
G1 X157.723 Y149.25 E.05996
G1 X156.248 Y150.303 E.05682
G1 X154.738 Y151.309 E.05687
G1 X153.127 Y152.304 E.05939
G1 X151.482 Y153.244 E.05941
G1 X149.88 Y154.088 E.05677
G1 X148.25 Y154.882 E.05683
G1 X146.483 Y155.669 E.06065
G1 X144.782 Y156.356 E.05754
G1 X143.08 Y156.98 E.05683
G1 X141.276 Y157.572 E.05954
G1 X139.484 Y158.093 E.05849
G1 X137.694 Y158.549 E.05795
G1 X135.879 Y158.948 E.05823
G1 X134.057 Y159.285 E.05812
G1 X132.241 Y159.556 E.05757
G1 X130.414 Y159.766 E.05765
G1 X128.535 Y159.92 E.05914
G1 X126.691 Y160.007 E.05788
G1 X124.829 Y160.034 E.05839
G1 X123.016 Y159.998 E.05686
G1 X121.201 Y159.902 E.05698
G1 X119.321 Y159.74 E.05916
G1 X117.463 Y159.514 E.05869
G1 X115.646 Y159.232 E.05762
G1 X113.847 Y158.892 E.05742
G1 X112.031 Y158.483 E.05836
G1 X110.244 Y158.018 E.0579
G1 X108.291 Y157.427 E.06398
G1 X107.366 Y156.917 E.03313
G1 X106.727 Y156.351 E.02677
G1 X106.463 Y156.017 E.01334
G1 X105.27 Y156.11 E.03754
G1 X104.045 Y155.886 E.03905
G1 X102.205 Y155.091 E.06282
G1 X100.553 Y154.306 E.05734
G1 X98.936 Y153.47 E.05708
G1 X97.279 Y152.544 E.05952
G1 X95.71 Y151.591 E.05757
G1 X94.186 Y150.598 E.05703
G1 X92.621 Y149.5 E.05995
G1 X91.167 Y148.405 E.05706
G1 X89.738 Y147.253 E.05755
G1 X88.337 Y146.041 E.05809
G1 X86.99 Y144.799 E.05743
G1 X85.671 Y143.494 E.05818
G1 X84.358 Y142.108 E.05987
G1 X83.149 Y140.738 E.05727
G1 X81.975 Y139.317 E.05779
G1 X80.831 Y137.831 E.05882
G1 X79.73 Y136.297 E.05918
G1 X78.702 Y134.754 E.05814
G1 X77.734 Y133.188 E.05772
G1 X76.814 Y131.59 E.05782
G1 X75.961 Y129.981 E.0571
G1 X75.159 Y128.34 E.05725
G1 X74.377 Y126.592 E.06005
G1 X73.691 Y124.902 E.0572
G1 X73.056 Y123.183 E.05746
G1 X72.452 Y121.36 E.06021
G1 X71.939 Y119.611 E.05715
G1 X71.484 Y117.841 E.05728
G1 X71.075 Y115.996 E.05928
G1 X70.741 Y114.206 E.05708
G1 X70.465 Y112.401 E.05725
G1 X70.241 Y110.498 E.06008
G1 X70.087 Y108.675 E.05735
G1 X69.995 Y106.841 E.05759
G1 X69.966 Y104.929 E.05997
G1 X69.998 Y103.118 E.05679
G1 X70.089 Y101.309 E.05678
G1 X70.251 Y99.388 E.06046
G1 X70.472 Y97.54 E.05835
G1 X70.753 Y95.717 E.05783
G1 X71.096 Y93.89 E.05829
G1 X71.501 Y92.077 E.05825
G1 X71.966 Y90.291 E.05785
G1 X72.493 Y88.508 E.05829
G1 X73.066 Y86.784 E.05697
G1 X73.691 Y85.087 E.05668
G1 X74.412 Y83.324 E.05973
G1 X75.181 Y81.607 E.059
G1 X75.982 Y79.972 E.05709
G1 X76.844 Y78.353 E.0575
G1 X77.761 Y76.76 E.05766
G1 X78.73 Y75.198 E.05763
G1 X79.79 Y73.613 E.05978
G1 X80.86 Y72.123 E.0575
G1 X81.971 Y70.681 E.05708
G1 X83.071 Y69.351 E.05413
M204 S1000
G1 X83.362 Y69.591 F10800
M204 S800
G1 F1200
G1 X84.711 Y68.06 E.06401
G1 X85.958 Y66.746 E.05677
