; generated by PrusaSlicer 2.5.2+win64 on 2023-05-24 at 01:49:51 UTC


;
;
; 

; external perimeters extrusion width = 0.45mm
; perimeters extrusion width = 0.45mm
; infill extrusion width = 0.45mm
; solid infill extrusion width = 0.45mm
; top infill extrusion width = 0.40mm
; first layer extrusion width = 0.42mm

M73 P0 R129
M73 Q0 S129
M201 X1000 Y1000 Z200 E5000 ; sets maximum accelerations, mm/sec^2
M203 X200 Y200 Z12 E120 ; sets maximum feedrates, mm / sec
M204 P1250 R1250 T1250 ; sets acceleration (P, T) and retract acceleration (R), mm/sec^2
M205 X8.00 Y8.00 Z0.40 E4.50 ; sets the jerk limits, mm/sec
M205 S0 T0 ; sets the minimum extruding and travel feed rate, mm/sec
M107
;TYPE:Custom
M862.3 P "MK3S" ; printer model check
M862.1 P0.4 ; nozzle diameter check
M115 U3.12.2 ; tell printer latest fw version
G90 ; use absolute coordinates
M83 ; extruder relative mode
M104 S230 ; set extruder temp
M140 S60 ; set bed temp
M190 S60 ; wait for bed temp
M109 S230 ; wait for extruder temp
G28 W ; home all without mesh bed level
G80 ; mesh bed leveling

G1 Z0.2 F720
G1 Y-3 F1000 ; go outside print area
G92 E0
G1 X60 E9 F1000 ; intro line
G1 X100 E12.5 F1000 ; intro line

G92 E0
M221 S95

; Don't change E values below. Excessive value can damage the printer.

G21 ; set units to millimeters
G90 ; use absolute coordinates
M83 ; use relative distances for extrusion
M900 K0.05 ; Filament gcode LA 1.5
M900 K30 ; Filament gcode LA 1.0
M107
;LAYER_CHANGE
;Z:0.2
;HEIGHT:0.2
;BEFORE_LAYER_CHANGE
G92 E0.0
;0.2


G1 E-.8 F2100
G1 Z.4 F720
;AFTER_LAYER_CHANGE
;0.2
G1 X80.84 Y67.276 F10800
G1 Z.2 F720
G1 E.8 F2100
M204 S800
;TYPE:Skirt/Brim
;WIDTH:0.42
G1 F1200
G1 X82.221 Y65.721 E.0652
G1 X84.836 Y63.049 E.11724
G1 X86.395 Y61.611 E.06648
G1 X89.309 Y59.184 E.11893
G1 X90.972 Y57.934 E.06521
G1 X94.073 Y55.841 E.1173
G1 X97.604 Y53.788 E.12807
G1 X100.956 Y52.133 E.11723
G1 X102.902 Y51.29 E.06649
G1 X106.404 Y49.978 E.11725
G1 X108.395 Y49.344 E.0655
G1 X112.048 Y48.382 E.11846
G1 X114.093 Y47.954 E.06549
G1 X116.061 Y47.613 E.06263
G1 X119.899 Y47.145 E.12124
G1 X123.675 Y46.936 E.11858
G1 X125.679 Y46.926 E.06282
G1 X129.535 Y47.098 E.12104
G1 X131.531 Y47.29 E.06285
G1 X133.585 Y47.56 E.06498
G1 X137.275 Y48.233 E.11759
G1 X139.338 Y48.719 E.06645
G1 X142.933 Y49.758 E.11733
G1 X146.767 Y51.155 E.12795
G1 X150.19 Y52.669 E.11736
G1 X152.05 Y53.605 E.06529
G1 X155.338 Y55.475 E.11859
G1 X157.098 Y56.597 E.06545
G1 X160.179 Y58.789 E.11854
G1 X161.815 Y60.08 E.06535
G1 X164.656 Y62.566 E.11836
G1 X166.155 Y64.02 E.06546
G1 X168.738 Y66.789 E.11875
G1 X170.079 Y68.38 E.06523
G1 X171.312 Y69.953 E.06266
G1 X173.493 Y73.038 E.11848
G1 X174.609 Y74.8 E.0654
G1 X176.47 Y78.097 E.11869
G1 X177.399 Y79.955 E.06514
G1 X178.905 Y83.38 E.11728
G1 X180.29 Y87.221 E.12803
G1 X181.319 Y90.817 E.11726
G1 X181.801 Y92.889 E.06671
G1 X182.462 Y96.571 E.1173
G1 X182.728 Y98.636 E.06529
G1 X183.019 Y102.412 E.11872
G1 X183.076 Y104.535 E.06661
G1 X182.984 Y108.275 E.11728
G1 X182.829 Y110.352 E.06532
G1 X182.36 Y114.098 E.11837
G1 X181.995 Y116.156 E.06553
G1 X181.147 Y119.843 E.11864
G1 X180.581 Y121.843 E.06517
G1 X179.363 Y125.432 E.11883
G1 X178.599 Y127.363 E.0651
G1 X177.028 Y130.807 E.1187
G1 X176.107 Y132.583 E.06272
G1 X175.087 Y134.396 E.06521
G1 X173.067 Y137.594 E.11862
G1 X171.869 Y139.294 E.0652
G1 X169.534 Y142.277 E.11878
G1 X168.173 Y143.843 E.06507
G1 X165.576 Y146.55 E.11761
G1 X164.032 Y148.002 E.06645
G1 X161.182 Y150.428 E.11734
G1 X157.901 Y152.857 E.128
G1 X154.754 Y154.874 E.1172
G1 X152.943 Y155.912 E.06543
G1 X149.573 Y157.62 E.11849
G1 X147.631 Y158.485 E.06664
G1 X144.136 Y159.832 E.11743
G1 X142.157 Y160.483 E.06532
G1 X138.514 Y161.481 E.11845
G1 X136.482 Y161.929 E.06523
G1 X132.744 Y162.557 E.11886
G1 X130.676 Y162.797 E.06527
G1 X126.898 Y163.044 E.11869
G1 X124.82 Y163.074 E.06516
G1 X122.826 Y163.034 E.06254
G1 X119.087 Y162.773 E.1175
G1 X115.05 Y162.218 E.12779
G1 X113.125 Y161.849 E.06144
G1 X109.494 Y160.968 E.11717
G1 X105.795 Y159.869 E.12099
G1 X104.441 Y159.377 E.04517
G1 X100.94 Y157.858 E.11966
G1 X97.552 Y156.18 E.11854
G1 X95.695 Y155.139 E.06674
G1 X92.531 Y153.151 E.11716
G1 X90.796 Y151.934 E.06646
G1 X87.805 Y149.602 E.11893
G1 X86.235 Y148.243 E.06509
G1 X83.526 Y145.651 E.11755
G1 X82.069 Y144.112 E.06645
G1 X79.612 Y141.231 E.11874
G1 X78.345 Y139.583 E.06517
G1 X76.212 Y136.504 E.11744
G1 X74.118 Y132.999 E.12801
G1 X72.425 Y129.669 E.11714
G1 X71.555 Y127.728 E.06669
G1 X70.204 Y124.24 E.1173
G1 X69.548 Y122.265 E.06523
G1 X68.542 Y118.615 E.11873
G1 X68.088 Y116.579 E.06539
G1 X67.457 Y112.857 E.11838
G1 X67.21 Y110.784 E.06545
M73 P0 R128
G1 X66.957 Y107.01 E.11861
G1 X66.924 Y104.925 E.06538
G1 X67.051 Y101.149 E.11845
G1 X67.217 Y99.158 E.06265
G1 X67.463 Y97.093 E.0652
G1 X68.1 Y93.357 E.11883
G1 X68.556 Y91.327 E.06523
G1 X69.563 Y87.683 E.11853
G1 X70.223 Y85.701 E.06552
G1 X71.593 Y82.181 E.11845
G1 X72.448 Y80.277 E.06542
G1 X74.167 Y76.91 E.11855
G1 X75.207 Y75.106 E.06528
G1 X77.261 Y71.925 E.11873
G1 X79.563 Y68.824 E.12109
G1 X80.802 Y67.322 E.06104
M204 S1000
;WIPE_START
G1 F8640
G1 X82.221 Y65.721 E-.49398
G1 X83.027 Y64.898 E-.26602
;WIPE_END
G1 E-.04 F2100
G1 Z.6 F720
G1 X82.855 Y69.018 F10800
G1 Z.2 F720
G1 E.8 F2100
M204 S800
G1 F1200
G1 X84.107 Y67.605 E.05919
G1 X85.38 Y66.259 E.05809
G1 X86.705 Y64.947 E.05844
G1 X88.083 Y63.674 E.05884
G1 X89.486 Y62.46 E.05817
G1 X90.949 Y61.283 E.05888
G1 X92.502 Y60.114 E.06094
G1 X94 Y59.068 E.05727
G1 X95.534 Y58.069 E.05741
G1 X97.131 Y57.103 E.05851
G1 X98.744 Y56.198 E.058
G1 X100.41 Y55.34 E.05875
G1 X102.168 Y54.508 E.061
G1 X103.856 Y53.778 E.05768
G1 X105.537 Y53.116 E.05662
G1 X107.332 Y52.476 E.05977
G1 X109.158 Y51.896 E.06005
G1 X110.914 Y51.405 E.05719
G1 X112.679 Y50.97 E.05701
G1 X114.594 Y50.57 E.06135
G1 X116.434 Y50.25 E.05854
G1 X118.271 Y49.996 E.05814
G1 X120.136 Y49.798 E.05882
G1 X121.956 Y49.668 E.0572
G1 X123.773 Y49.598 E.05703
G1 X125.728 Y49.59 E.0613
G1 X127.578 Y49.646 E.05801
G1 X129.455 Y49.764 E.05897
G1 X131.275 Y49.942 E.05734
G1 X133.083 Y50.178 E.05717
G1 X135.001 Y50.494 E.06095
G1 X136.832 Y50.863 E.05856
G1 X138.644 Y51.291 E.05839
G1 X140.445 Y51.781 E.0585
G1 X142.232 Y52.331 E.05862
G1 X143.989 Y52.939 E.05831
G1 X145.735 Y53.61 E.05864
G1 X147.417 Y54.322 E.05727
G1 X149.069 Y55.085 E.05706
G1 X150.803 Y55.959 E.06089
G1 X152.407 Y56.837 E.05731
G1 X153.978 Y57.765 E.05723
G1 X155.603 Y58.801 E.06041
G1 X157.109 Y59.836 E.05731
G1 X158.594 Y60.93 E.05782
G1 X160.1 Y62.118 E.06014
G1 X161.502 Y63.307 E.05764
G1 X162.866 Y64.539 E.05762
G1 X164.254 Y65.885 E.06063
G1 X165.563 Y67.245 E.0592
G1 X166.791 Y68.609 E.05751
G1 X167.979 Y70.019 E.05784
G1 X169.165 Y71.53 E.06022
G1 X170.246 Y73.008 E.0574
G1 X171.288 Y74.533 E.05791
G1 X172.315 Y76.154 E.06017
G1 X173.237 Y77.724 E.05709
G1 X174.108 Y79.329 E.05726
G1 X174.981 Y81.071 E.06111
G1 X175.739 Y82.723 E.05697
G1 X176.447 Y84.406 E.05727
G1 X177.122 Y86.189 E.05976
G1 X177.743 Y88 E.06005
G1 X178.272 Y89.743 E.0571
G1 X178.745 Y91.503 E.05716
G1 X179.189 Y93.407 E.0613
G1 X179.54 Y95.198 E.05722
G1 X179.832 Y96.994 E.05704
G1 X180.081 Y98.931 E.06125
G1 X180.254 Y100.79 E.05852
G1 X180.364 Y102.644 E.05823
G1 X180.413 Y104.519 E.05881
G1 X180.397 Y106.338 E.05705
G1 X180.323 Y108.161 E.0572
G1 X180.18 Y110.073 E.06011
G1 X179.981 Y111.897 E.05753
G1 X179.724 Y113.719 E.05769
G1 X179.395 Y115.574 E.05909
G1 X178.991 Y117.471 E.06079
G1 X178.55 Y119.246 E.05737
G1 X178.05 Y121.011 E.05753
G1 X177.459 Y122.852 E.06062
G1 X176.844 Y124.564 E.05703
G1 X176.173 Y126.259 E.05715
G1 X175.409 Y128.012 E.05998
G1 X174.586 Y129.737 E.0599
G1 X173.746 Y131.35 E.05704
G1 X172.854 Y132.94 E.05716
G1 X171.839 Y134.608 E.06121
G1 X170.845 Y136.125 E.05687
G1 X169.792 Y137.623 E.05743
G1 X168.618 Y139.176 E.06103
G1 X167.437 Y140.632 E.05878
G1 X166.22 Y142.031 E.05814
G1 X164.945 Y143.406 E.0588
G1 X163.627 Y144.73 E.05859
G1 X162.273 Y146.002 E.05825
G1 X160.868 Y147.236 E.05862
G1 X159.425 Y148.422 E.05859
G1 X157.964 Y149.541 E.05769
G1 X156.457 Y150.617 E.05806
G1 X154.925 Y151.635 E.05768
G1 X153.358 Y152.605 E.05779
G1 X151.686 Y153.563 E.0604
G1 X150.063 Y154.419 E.05754
G1 X148.412 Y155.223 E.05758
G1 X146.627 Y156.018 E.06128
G1 X144.895 Y156.717 E.05854
G1 X143.158 Y157.352 E.05799
G1 X141.391 Y157.932 E.05833
G1 X139.628 Y158.445 E.05755
G1 X137.858 Y158.899 E.05731
G1 X135.952 Y159.319 E.06119
G1 X134.115 Y159.658 E.05858
G1 X132.286 Y159.932 E.05797
G1 X130.433 Y160.144 E.05846
G1 X128.607 Y160.294 E.05745
G1 X126.775 Y160.383 E.05751
G1 X124.826 Y160.41 E.06111
G1 X122.988 Y160.375 E.05764
G1 X121.148 Y160.278 E.05778
G1 X119.288 Y160.117 E.05855
G1 X117.434 Y159.892 E.05856
G1 X115.598 Y159.609 E.05825
G1 X113.765 Y159.261 E.05848
G1 X111.934 Y158.849 E.05885
G1 X110.135 Y158.382 E.05828
G1 X108.111 Y157.763 E.06635
G1 X107.158 Y157.233 E.0342
G1 X106.492 Y156.652 E.02772
G1 X106.294 Y156.409 E.00983
G1 X105.227 Y156.487 E.03352
G1 X103.916 Y156.242 E.04182
G1 X102.048 Y155.437 E.06378
G1 X100.393 Y154.649 E.05747
G1 X98.76 Y153.806 E.05762
G1 X97.085 Y152.866 E.06025
G1 X95.514 Y151.914 E.05758
G1 X93.978 Y150.914 E.05747
G1 X92.438 Y149.835 E.05896
G1 X90.947 Y148.715 E.05848
G1 X89.491 Y147.54 E.05866
G1 X88.082 Y146.321 E.05843
G1 X86.726 Y145.07 E.05783
G1 X85.399 Y143.758 E.05852
G1 X84.094 Y142.38 E.0595
G1 X82.836 Y140.955 E.05962
G1 X81.67 Y139.54 E.05748
G1 X80.552 Y138.089 E.05743
G1 X79.419 Y136.51 E.06095
G1 X78.383 Y134.957 E.05854
G1 X77.41 Y133.386 E.05793
G1 X76.485 Y131.775 E.05825
G1 X75.624 Y130.148 E.05772
G1 X74.82 Y128.503 E.05739
G1 X74.026 Y126.733 E.06082
G1 X73.334 Y125.03 E.05764
G1 X72.702 Y123.317 E.05726
G1 X72.09 Y121.47 E.06099
G1 X71.565 Y119.678 E.05856
G1 X71.106 Y117.889 E.05791
G1 X70.702 Y116.07 E.05843
G1 X70.369 Y114.273 E.0573
G1 X70.091 Y112.46 E.05751
G1 X69.862 Y110.53 E.06092
G1 X69.71 Y108.705 E.05744
G1 X69.617 Y106.867 E.05769
G1 X69.588 Y104.928 E.0608
G1 X69.62 Y103.109 E.05705
G1 X69.711 Y101.288 E.05717
G1 X69.874 Y99.355 E.06083
G1 X70.091 Y97.537 E.05741
G1 X70.366 Y95.732 E.05723
G1 X70.72 Y93.843 E.06026
G1 X71.122 Y92.046 E.05773
G1 X71.581 Y90.268 E.05758
G1 X72.128 Y88.406 E.06083
G1 X72.723 Y86.621 E.059
G1 X73.363 Y84.894 E.05774
G1 X74.061 Y83.184 E.05794
G1 X74.842 Y81.444 E.0598
G1 X75.651 Y79.793 E.05763
G1 X76.517 Y78.164 E.05783
G1 X77.442 Y76.558 E.05811
G1 X78.41 Y74.997 E.05761
G1 X79.463 Y73.423 E.05937
G1 X80.544 Y71.918 E.0581
G1 X81.67 Y70.453 E.05794
G1 X82.817 Y69.064 E.05648
M204 S1000
G1 X83.108 Y69.304 F10800
M204 S800
G1 F1200
G1 X84.387 Y67.857 E.06056
G1 X85.652 Y66.52 E.0577
G1 X86.967 Y65.218 E.05805
G1 X88.337 Y63.953 E.05844
G1 X89.73 Y62.748 E.05777
G1 X91.183 Y61.578 E.05847
G1 X92.721 Y60.422 E.06034
G1 X94.213 Y59.379 E.05707
G1 X95.737 Y58.387 E.05703
G1 X97.323 Y57.428 E.05811
G1 X98.925 Y56.529 E.0576
G1 X100.579 Y55.677 E.05834
G1 X102.321 Y54.853 E.0604
M73 Q0 S128
G1 X103.998 Y54.127 E.05729
G1 X105.672 Y53.468 E.05642
G1 X107.456 Y52.832 E.05937
G1 X109.262 Y52.259 E.05943
G1 X111.007 Y51.77 E.0568
G1 X112.766 Y51.337 E.05681
G1 X114.662 Y50.941 E.06073
G1 X116.489 Y50.624 E.05813
G1 X118.313 Y50.37 E.05775
G1 X120.166 Y50.174 E.05841
G1 X121.973 Y50.045 E.05681
G1 X123.785 Y49.974 E.05683
G1 X125.72 Y49.967 E.06069
G1 X127.557 Y50.022 E.05762
G1 X129.421 Y50.139 E.05856
G1 X131.229 Y50.316 E.05695
G1 X133.031 Y50.552 E.05697
G1 X134.93 Y50.865 E.06035
G1 X136.748 Y51.23 E.05816
G1 X138.548 Y51.656 E.058
G1 X140.337 Y52.142 E.05811
G1 X142.112 Y52.688 E.05822
G1 X143.857 Y53.292 E.05791
G1 X145.591 Y53.958 E.05825
G1 X147.262 Y54.665 E.05688
G1 X148.908 Y55.426 E.05686
G1 X150.625 Y56.291 E.06029
G1 X152.223 Y57.166 E.05712
G1 X153.784 Y58.088 E.05684
G1 X155.392 Y59.114 E.0598
G1 X156.893 Y60.145 E.05711
G1 X158.368 Y61.231 E.05743
G1 X159.858 Y62.408 E.05953
G1 X161.256 Y63.593 E.05744
G1 X162.61 Y64.816 E.05724
G1 X163.984 Y66.149 E.06001
G1 X165.285 Y67.5 E.0588
G1 X166.508 Y68.859 E.05732
G1 X167.689 Y70.26 E.05745
G1 X168.863 Y71.755 E.05961
G1 X169.936 Y73.223 E.05702
G1 X170.974 Y74.743 E.05772
G1 X171.992 Y76.348 E.05956
G1 X172.91 Y77.912 E.05689
G1 X173.775 Y79.506 E.05686
G1 X174.639 Y81.232 E.06051
G1 X175.395 Y82.877 E.05678
G1 X176.098 Y84.549 E.05687
G1 X176.769 Y86.319 E.05934
G1 X177.383 Y88.113 E.05945
G1 X177.91 Y89.85 E.0569
G1 X178.38 Y91.598 E.05678
G1 X178.819 Y93.483 E.06069
G1 X179.169 Y95.262 E.05682
G1 X179.46 Y97.051 E.05684
G1 X179.706 Y98.969 E.06064
G1 X179.878 Y100.815 E.05812
G1 X179.987 Y102.657 E.05784
G1 X180.036 Y104.519 E.05841
G1 X180.02 Y106.326 E.05666
G1 X179.947 Y108.142 E.05701
G1 X179.805 Y110.035 E.0595
G1 X179.607 Y111.853 E.05734
G1 X179.351 Y113.662 E.05731
G1 X179.024 Y115.505 E.05867
G1 X178.624 Y117.383 E.06019
G1 X178.186 Y119.146 E.05698
G1 X177.688 Y120.906 E.05733
G1 X177.103 Y122.728 E.06001
G1 X176.492 Y124.428 E.05665
G1 X175.824 Y126.117 E.05695
G1 X175.067 Y127.853 E.05937
G1 X174.25 Y129.565 E.05949
G1 X173.413 Y131.173 E.05684
G1 X172.526 Y132.752 E.05678
G1 X171.522 Y134.404 E.0606
G1 X170.531 Y135.915 E.05667
G1 X169.485 Y137.403 E.05704
G1 X168.324 Y138.941 E.06042
G1 X167.15 Y140.387 E.05838
G1 X165.942 Y141.777 E.05775
G1 X164.675 Y143.142 E.05839
G1 X163.366 Y144.458 E.05819
G1 X162.021 Y145.721 E.05785
G1 X160.627 Y146.947 E.05823
G1 X159.193 Y148.125 E.05819
G1 X157.742 Y149.236 E.05728
G1 X156.246 Y150.305 E.05766
G1 X154.719 Y151.32 E.05749
G1 X153.162 Y152.283 E.0574
G1 X151.507 Y153.231 E.05978
G1 X149.89 Y154.084 E.05734
G1 X148.25 Y154.882 E.0572
G1 X146.482 Y155.67 E.06067
G1 X144.763 Y156.364 E.05814
G1 X143.038 Y156.995 E.05759
G1 X141.283 Y157.571 E.05792
G1 X139.532 Y158.08 E.05717
G1 X137.767 Y158.533 E.05712
G1 X135.88 Y158.949 E.06058
G1 X134.056 Y159.286 E.05817
G1 X132.24 Y159.557 E.05757
G1 X130.4 Y159.769 E.05807
G1 X128.58 Y159.918 E.05726
G1 X126.76 Y160.006 E.05711
G1 X124.83 Y160.033 E.06052
G1 X123.005 Y159.998 E.05724
G1 X121.171 Y159.901 E.05758
G1 X119.324 Y159.741 E.05815
G1 X117.482 Y159.518 E.05816
G1 X115.658 Y159.237 E.05786
G1 X113.838 Y158.892 E.05807
G1 X112.02 Y158.482 E.05845
G1 X110.234 Y158.018 E.05786
G1 X108.241 Y157.408 E.06535
G1 X107.391 Y156.936 E.03048
G1 X106.754 Y156.38 E.02652
G1 X106.465 Y156.017 E.01454
G1 X105.27 Y156.111 E.03758
G1 X104.045 Y155.887 E.03903
G1 X102.207 Y155.095 E.06277
G1 X100.558 Y154.31 E.05726
G1 X98.936 Y153.473 E.05723
G1 X97.277 Y152.542 E.05964
G1 X95.712 Y151.593 E.05738
G1 X94.187 Y150.6 E.05709
G1 X92.657 Y149.528 E.05856
G1 X91.176 Y148.415 E.05808
G1 X89.731 Y147.249 E.05825
G1 X88.331 Y146.038 E.05803
G1 X86.984 Y144.795 E.05745
G1 X85.667 Y143.492 E.05811
G1 X84.375 Y142.128 E.0589
G1 X83.125 Y140.712 E.05921
G1 X81.967 Y139.307 E.05709
G1 X80.853 Y137.861 E.05723
G1 X79.731 Y136.298 E.06034
G1 X78.702 Y134.755 E.05813
G1 X77.736 Y133.195 E.05755
G1 X76.816 Y131.596 E.05784
G1 X75.958 Y129.974 E.05753
G1 X75.16 Y128.341 E.05701
G1 X74.374 Y126.588 E.06021
G1 X73.687 Y124.897 E.05724
G1 X73.057 Y123.189 E.05707
G1 X72.451 Y121.361 E.06038
G1 X71.93 Y119.581 E.05816
G1 X71.474 Y117.804 E.05753
G1 X71.072 Y115.997 E.05802
G1 X70.741 Y114.213 E.05692
G1 X70.464 Y112.406 E.05731
G1 X70.237 Y110.496 E.06031
G1 X70.086 Y108.676 E.05724
G1 X69.994 Y106.851 E.0573
G1 X69.965 Y104.932 E.06019
G1 X69.997 Y103.119 E.05686
G1 X70.088 Y101.31 E.05678
G1 X70.249 Y99.396 E.06022
G1 X70.465 Y97.584 E.05721
G1 X70.738 Y95.792 E.05684
G1 X71.089 Y93.922 E.05965
G1 X71.489 Y92.131 E.05754
G1 X71.945 Y90.365 E.0572
G1 X72.487 Y88.522 E.06022
G1 X73.077 Y86.749 E.0586
G1 X73.713 Y85.034 E.05735
G1 X74.409 Y83.329 E.05774
G1 X75.182 Y81.607 E.05919
G1 X75.986 Y79.967 E.05724
G1 X76.848 Y78.344 E.05763
G1 X77.767 Y76.749 E.05771
G1 X78.729 Y75.199 E.05722
G1 X79.774 Y73.635 E.05896
G1 X80.849 Y72.141 E.05771
G1 X81.967 Y70.686 E.05755
G1 X83.07 Y69.35 E.05429
M204 S1000
G1 X83.361 Y69.59 F10800
M204 S800
G1 F1200
G1 X84.667 Y68.11 E.06193
G1 X85.924 Y66.781 E.05732
G1 X87.23 Y65.488 E.05765
