; generated by PrusaSlicer 2.5.2+win64 on 2023-05-24 at 01:52:40 UTC


;
;
; 

; external perimeters extrusion width = 0.45mm
; perimeters extrusion width = 0.45mm
; infill extrusion width = 0.45mm
; solid infill extrusion width = 0.45mm
; top infill extrusion width = 0.40mm
; first layer extrusion width = 0.42mm

M73 P0 R397
M73 Q0 S398
M201 X1000 Y1000 Z200 E5000 ; sets maximum accelerations, mm/sec^2
M203 X200 Y200 Z12 E120 ; sets maximum feedrates, mm / sec
M204 P1250 R1250 T1250 ; sets acceleration (P, T) and retract acceleration (R), mm/sec^2
M205 X8.00 Y8.00 Z0.40 E4.50 ; sets the jerk limits, mm/sec
M205 S0 T0 ; sets the minimum extruding and travel feed rate, mm/sec
M107
;TYPE:Custom
M862.3 P "MK3S" ; printer model check
M862.1 P0.4 ; nozzle diameter check
M115 U3.12.2 ; tell printer latest fw version
G90 ; use absolute coordinates
M83 ; extruder relative mode
M104 S240 ; set extruder temp
M140 S50 ; set bed temp
M190 S50 ; wait for bed temp
M109 S240 ; wait for extruder temp
G28 W ; home all without mesh bed level
G80 ; mesh bed leveling

G1 Z0.2 F720
G1 Y-3 F1000 ; go outside print area
G92 E0
G1 X60 E9 F1000 ; intro line
G1 X100 E12.5 F1000 ; intro line

G92 E0
M221 S95

; Don't change E values below. Excessive value can damage the printer.

G21 ; set units to millimeters
G90 ; use absolute coordinates
M83 ; use relative distances for extrusion
M900 K0 ; Filament gcode
M107
;LAYER_CHANGE
;Z:0.2
;HEIGHT:0.2
;BEFORE_LAYER_CHANGE
G92 E0.0
;0.2


G1 Z.2 F720
;AFTER_LAYER_CHANGE
;0.2
G1 X80.84 Y67.276 F10800
M204 S800
;TYPE:Skirt/Brim
;WIDTH:0.42
G1 F954.706
G1 X82.221 Y65.721 E.07498
G1 X84.836 Y63.049 E.13483
G1 X86.395 Y61.611 E.07645
G1 X89.309 Y59.184 E.13677
G1 X90.972 Y57.934 E.07499
G1 X94.073 Y55.841 E.13489
G1 X97.604 Y53.788 E.14728
G1 X100.956 Y52.133 E.13482
G1 X102.902 Y51.29 E.07646
G1 X106.404 Y49.978 E.13484
G1 X108.395 Y49.344 E.07532
G1 X112.048 Y48.382 E.13623
G1 X114.093 Y47.954 E.07532
G1 X116.061 Y47.613 E.07203
G1 X119.899 Y47.145 E.13942
G1 X123.675 Y46.936 E.13637
G1 X125.679 Y46.926 E.07225
G1 X129.535 Y47.098 E.1392
G1 X131.531 Y47.29 E.07227
G1 X133.585 Y47.56 E.07473
G1 X137.275 Y48.233 E.13522
G1 X139.338 Y48.719 E.07642
G1 X142.933 Y49.758 E.13493
G1 X146.767 Y51.155 E.14715
G1 X150.19 Y52.669 E.13496
G1 X152.05 Y53.605 E.07508
G1 X155.338 Y55.475 E.13638
G1 X157.098 Y56.597 E.07527
G1 X160.179 Y58.789 E.13633
G1 X161.815 Y60.08 E.07516
G1 X164.656 Y62.566 E.13612
G1 X166.155 Y64.02 E.07528
G1 X168.738 Y66.789 E.13656
G1 X170.079 Y68.38 E.07502
G1 X171.312 Y69.953 E.07206
G1 X173.493 Y73.038 E.13625
G1 X174.609 Y74.8 E.07521
G1 X176.47 Y78.097 E.1365
G1 X177.399 Y79.955 E.07492
G1 X178.905 Y83.38 E.13488
G1 X180.29 Y87.221 E.14724
G1 X181.319 Y90.817 E.13485
G1 X181.801 Y92.889 E.07672
G1 X182.462 Y96.571 E.1349
G1 X182.728 Y98.636 E.07508
M73 Q0 S397
G1 X183.019 Y102.412 E.13653
G1 X183.076 Y104.535 E.0766
G1 X182.984 Y108.275 E.13487
G1 X182.829 Y110.352 E.07511
G1 X182.36 Y114.098 E.13612
G1 X181.995 Y116.156 E.07536
G1 X181.147 Y119.843 E.13644
G1 X180.581 Y121.843 E.07494
G1 X179.363 Y125.432 E.13666
G1 X178.599 Y127.363 E.07487
G1 X177.028 Y130.807 E.13651
G1 X176.107 Y132.583 E.07213
G1 X175.087 Y134.396 E.07499
G1 X173.067 Y137.594 E.13641
G1 X171.869 Y139.294 E.07498
G1 X169.534 Y142.277 E.13659
G1 X168.173 Y143.843 E.07483
G1 X165.576 Y146.55 E.13526
G1 X164.032 Y148.002 E.07641
G1 X161.182 Y150.428 E.13495
G1 X157.901 Y152.857 E.1472
G1 X154.754 Y154.874 E.13478
G1 X152.943 Y155.912 E.07525
G1 X149.573 Y157.62 E.13627
G1 X147.631 Y158.485 E.07664
G1 X144.136 Y159.832 E.13505
G1 X142.157 Y160.483 E.07512
G1 X138.514 Y161.481 E.13622
G1 X136.482 Y161.929 E.07502
G1 X132.744 Y162.557 E.13669
G1 X130.676 Y162.797 E.07506
G1 X126.898 Y163.044 E.1365
G1 X124.82 Y163.074 E.07493
G1 X122.826 Y163.034 E.07192
G1 X119.087 Y162.773 E.13513
G1 X115.05 Y162.218 E.14696
G1 X113.125 Y161.849 E.07065
G1 X109.494 Y160.968 E.13474
G1 X105.795 Y159.869 E.13914
G1 X104.441 Y159.377 E.05195
G1 X100.94 Y157.858 E.13761
G1 X97.552 Y156.18 E.13633
G1 X95.695 Y155.139 E.07675
G1 X92.531 Y153.151 E.13473
G1 X90.796 Y151.934 E.07643
G1 X87.805 Y149.602 E.13677
G1 X86.235 Y148.243 E.07485
G1 X83.526 Y145.651 E.13518
G1 X82.069 Y144.112 E.07642
G1 X79.612 Y141.231 E.13655
G1 X78.345 Y139.583 E.07495
G1 X76.212 Y136.504 E.13505
G1 X74.118 Y132.999 E.14721
G1 X72.425 Y129.669 E.13471
G1 X71.555 Y127.728 E.0767
G1 X70.204 Y124.24 E.13489
G1 X69.548 Y122.265 E.07501
G1 X68.542 Y118.615 E.13654
G1 X68.088 Y116.579 E.0752
G1 X67.457 Y112.857 E.13614
G1 X67.21 Y110.784 E.07526
G1 X66.957 Y107.01 E.1364
G1 X66.924 Y104.925 E.07519
G1 X67.051 Y101.149 E.13622
G1 X67.217 Y99.158 E.07205
G1 X67.463 Y97.093 E.07498
G1 X68.1 Y93.357 E.13666
G1 X68.556 Y91.327 E.07501
G1 X69.563 Y87.683 E.13631
G1 X70.223 Y85.701 E.07534
G1 X71.593 Y82.181 E.13621
G1 X72.448 Y80.277 E.07523
G1 X74.167 Y76.91 E.13633
G1 X75.207 Y75.106 E.07507
G1 X77.261 Y71.925 E.13654
G1 X79.563 Y68.824 E.13925
G1 X80.802 Y67.322 E.0702
M204 S1000
G1 X82.855 Y69.018 F10800
M204 S800
G1 F954.706
G1 X84.107 Y67.605 E.06806
G1 X85.38 Y66.259 E.0668
G1 X86.705 Y64.947 E.06721
G1 X88.083 Y63.674 E.06767
G1 X89.486 Y62.46 E.06689
G1 X90.949 Y61.283 E.06772
G1 X92.502 Y60.114 E.07008
G1 X94 Y59.068 E.06586
G1 X95.534 Y58.069 E.06602
G1 X97.131 Y57.103 E.06728
G1 X98.744 Y56.198 E.0667
G1 X100.41 Y55.34 E.06756
G1 X102.168 Y54.508 E.07015
G1 X103.856 Y53.778 E.06633
G1 X105.537 Y53.116 E.06511
G1 X107.332 Y52.476 E.06873
G1 X109.158 Y51.896 E.06906
G1 X110.914 Y51.405 E.06576
G1 X112.679 Y50.97 E.06556
G1 X114.594 Y50.57 E.07055
G1 X116.434 Y50.25 E.06732
G1 X118.271 Y49.996 E.06686
G1 X120.136 Y49.798 E.06764
G1 X121.956 Y49.668 E.06578
G1 X123.773 Y49.598 E.06559
G1 X125.728 Y49.59 E.07049
G1 X127.578 Y49.646 E.06671
G1 X129.455 Y49.764 E.06781
G1 X131.275 Y49.942 E.06594
G1 X133.083 Y50.178 E.06574
G1 X135.001 Y50.494 E.07009
G1 X136.832 Y50.863 E.06735
G1 X138.644 Y51.291 E.06715
G1 X140.445 Y51.781 E.06728
G1 X142.232 Y52.331 E.06742
G1 X143.989 Y52.939 E.06705
G1 X145.735 Y53.61 E.06744
G1 X147.417 Y54.322 E.06586
G1 X149.069 Y55.085 E.06562
G1 X150.803 Y55.959 E.07002
G1 X152.407 Y56.837 E.06591
G1 X153.978 Y57.765 E.06582
G1 X155.603 Y58.801 E.06947
G1 X157.109 Y59.836 E.0659
G1 X158.594 Y60.93 E.06649
G1 X160.1 Y62.118 E.06916
G1 X161.502 Y63.307 E.06628
G1 X162.866 Y64.539 E.06627
G1 X164.254 Y65.885 E.06973
G1 X165.563 Y67.245 E.06808
G1 X166.791 Y68.609 E.06614
G1 X167.979 Y70.019 E.06652
G1 X169.165 Y71.53 E.06925
G1 X170.246 Y73.008 E.06601
G1 X171.288 Y74.533 E.0666
G1 X172.315 Y76.154 E.0692
G1 X173.237 Y77.724 E.06565
G1 X174.108 Y79.329 E.06584
G1 X174.981 Y81.071 E.07027
G1 X175.739 Y82.723 E.06552
G1 X176.447 Y84.406 E.06586
G1 X177.122 Y86.189 E.06872
G1 X177.743 Y88 E.06905
G1 X178.272 Y89.743 E.06566
G1 X178.745 Y91.503 E.06573
G1 X179.189 Y93.407 E.07049
G1 X179.54 Y95.198 E.0658
G1 X179.832 Y96.994 E.06559
G1 X180.081 Y98.931 E.07044
G1 X180.254 Y100.79 E.0673
G1 X180.364 Y102.644 E.06697
G1 X180.413 Y104.519 E.06763
G1 X180.397 Y106.338 E.0656
G1 X180.323 Y108.161 E.06578
G1 X180.18 Y110.073 E.06912
G1 X179.981 Y111.897 E.06616
G1 X179.724 Y113.719 E.06635
G1 X179.395 Y115.574 E.06795
G1 X178.991 Y117.471 E.06991
G1 X178.55 Y119.246 E.06597
G1 X178.05 Y121.011 E.06616
G1 X177.459 Y122.852 E.06971
G1 X176.844 Y124.564 E.06558
G1 X176.173 Y126.259 E.06572
G1 X175.409 Y128.012 E.06897
G1 X174.586 Y129.737 E.06889
G1 X173.746 Y131.35 E.06559
G1 X172.854 Y132.94 E.06574
G1 X171.839 Y134.608 E.07039
G1 X170.845 Y136.125 E.0654
G1 X169.792 Y137.623 E.06605
G1 X168.618 Y139.176 E.07018
G1 X167.437 Y140.632 E.0676
G1 X166.22 Y142.031 E.06686
G1 X164.945 Y143.406 E.06762
G1 X163.627 Y144.73 E.06738
G1 X162.273 Y146.002 E.06699
G1 X160.868 Y147.236 E.06741
G1 X159.425 Y148.422 E.06738
G1 X157.964 Y149.541 E.06634
G1 X156.457 Y150.617 E.06677
G1 X154.925 Y151.635 E.06633
G1 X153.358 Y152.605 E.06646
G1 X151.686 Y153.563 E.06946
G1 X150.063 Y154.419 E.06617
G1 X148.412 Y155.223 E.06622
G1 X146.627 Y156.018 E.07047
G1 X144.895 Y156.717 E.06732
G1 X143.158 Y157.352 E.06668
G1 X141.391 Y157.932 E.06707
G1 X139.628 Y158.445 E.06619
G1 X137.858 Y158.899 E.06591
G1 X135.952 Y159.319 E.07037
G1 X134.115 Y159.658 E.06737
G1 X132.286 Y159.932 E.06667
G1 X130.433 Y160.144 E.06723
G1 X128.607 Y160.294 E.06607
G1 X126.775 Y160.383 E.06613
G1 X124.826 Y160.41 E.07028
G1 X122.988 Y160.375 E.06628
G1 X121.148 Y160.278 E.06645
G1 X119.288 Y160.117 E.06733
G1 X117.434 Y159.892 E.06734
G1 X115.598 Y159.609 E.06699
G1 X113.765 Y159.261 E.06726
G1 X111.934 Y158.849 E.06767
G1 X110.135 Y158.382 E.06702
G1 X108.111 Y157.763 E.0763
G1 X107.158 Y157.233 E.03932
G1 X106.492 Y156.652 E.03187
G1 X106.294 Y156.409 E.0113
G1 X105.227 Y156.487 E.03855
G1 X103.916 Y156.242 E.0481
G1 X102.048 Y155.437 E.07334
G1 X100.393 Y154.649 E.06609
G1 X98.76 Y153.806 E.06626
G1 X97.085 Y152.866 E.06928
G1 X95.514 Y151.914 E.06621
G1 X93.978 Y150.914 E.06609
G1 X92.438 Y149.835 E.0678
G1 X90.947 Y148.715 E.06725
G1 X89.491 Y147.54 E.06746
G1 X88.082 Y146.321 E.06719
G1 X86.726 Y145.07 E.06651
G1 X85.399 Y143.758 E.06729
G1 X84.094 Y142.38 E.06843
G1 X82.836 Y140.955 E.06856
G1 X81.67 Y139.54 E.0661
G1 X80.552 Y138.089 E.06604
G1 X79.419 Y136.51 E.07009
G1 X78.383 Y134.957 E.06732
G1 X77.41 Y133.386 E.06662
G1 X76.485 Y131.775 E.06698
G1 X75.624 Y130.148 E.06638
G1 X74.82 Y128.503 E.066
G1 X74.026 Y126.733 E.06995
G1 X73.334 Y125.03 E.06628
G1 X72.702 Y123.317 E.06585
G1 X72.09 Y121.47 E.07014
G1 X71.565 Y119.678 E.06735
G1 X71.106 Y117.889 E.0666
G1 X70.702 Y116.07 E.06719
G1 X70.369 Y114.273 E.0659
G1 X70.091 Y112.46 E.06613
G1 X69.862 Y110.53 E.07006
G1 X69.71 Y108.705 E.06606
G1 X69.617 Y106.867 E.06635
G1 X69.588 Y104.928 E.06992
G1 X69.62 Y103.109 E.06561
G1 X69.711 Y101.288 E.06574
G1 X69.874 Y99.355 E.06996
G1 X70.091 Y97.537 E.06602
G1 X70.366 Y95.732 E.06582
G1 X70.72 Y93.843 E.0693
G1 X71.122 Y92.046 E.06639
G1 X71.581 Y90.268 E.06622
G1 X72.128 Y88.406 E.06996
G1 X72.723 Y86.621 E.06785
G1 X73.363 Y84.894 E.0664
G1 X74.061 Y83.184 E.06663
G1 X74.842 Y81.444 E.06877
G1 X75.651 Y79.793 E.06628
G1 X76.517 Y78.164 E.0665
G1 X77.442 Y76.558 E.06683
G1 X78.41 Y74.997 E.06626
G1 X79.463 Y73.423 E.06827
G1 X80.544 Y71.918 E.06682
G1 X81.67 Y70.453 E.06663
G1 X82.817 Y69.064 E.06495
M204 S1000
G1 X83.108 Y69.304 F10800
M204 S800
G1 F954.706
G1 X84.387 Y67.857 E.06964
G1 X85.652 Y66.52 E.06636
G1 X86.967 Y65.218 E.06675
G1 X88.337 Y63.953 E.0672
G1 X89.73 Y62.748 E.06644
G1 X91.183 Y61.578 E.06724
G1 X92.721 Y60.422 E.06939
G1 X94.213 Y59.379 E.06563
G1 X95.737 Y58.387 E.06558
G1 X97.323 Y57.428 E.06683
G1 X98.925 Y56.529 E.06624
G1 X100.579 Y55.677 E.06709
G1 X102.321 Y54.853 E.06946
G1 X103.998 Y54.127 E.06588
G1 X105.672 Y53.468 E.06489
G1 X107.456 Y52.832 E.06828
G1 X109.262 Y52.259 E.06835
G1 X111.007 Y51.77 E.06532
G1 X112.766 Y51.337 E.06533
G1 X114.662 Y50.941 E.06984
G1 X116.489 Y50.624 E.06685
G1 X118.313 Y50.37 E.06642
G1 X120.166 Y50.174 E.06717
G1 X121.973 Y50.045 E.06534
G1 X123.785 Y49.974 E.06536
G1 X125.72 Y49.967 E.06979
G1 X127.557 Y50.022 E.06627
G1 X129.421 Y50.139 E.06734
G1 X131.229 Y50.316 E.06549
G1 X133.031 Y50.552 E.06552
G1 X134.93 Y50.865 E.0694
G1 X136.748 Y51.23 E.06688
G1 X138.548 Y51.656 E.0667
G1 X140.337 Y52.142 E.06683
G1 X142.112 Y52.688 E.06695
G1 X143.857 Y53.292 E.06659
G1 X145.591 Y53.958 E.06698
G1 X147.262 Y54.665 E.06541
G1 X148.908 Y55.426 E.06539
G1 X150.625 Y56.291 E.06933
G1 X152.223 Y57.166 E.06568
G1 X153.784 Y58.088 E.06537
G1 X155.392 Y59.114 E.06877
G1 X156.893 Y60.145 E.06567
G1 X158.368 Y61.231 E.06604
G1 X159.858 Y62.408 E.06846
G1 X161.256 Y63.593 E.06606
G1 X162.61 Y64.816 E.06583
G1 X163.984 Y66.149 E.06902
G1 X165.285 Y67.5 E.06762
G1 X166.508 Y68.859 E.06592
G1 X167.689 Y70.26 E.06606
G1 X168.863 Y71.755 E.06855
G1 X169.936 Y73.223 E.06557
G1 X170.974 Y74.743 E.06637
G1 X171.992 Y76.348 E.0685
G1 X172.91 Y77.912 E.06542
G1 X173.775 Y79.506 E.06539
G1 X174.639 Y81.232 E.06959
G1 X175.395 Y82.877 E.06529
G1 X176.098 Y84.549 E.06541
G1 X176.769 Y86.319 E.06825
M73 P0 R396
G1 X177.383 Y88.113 E.06837
G1 X177.91 Y89.85 E.06544
G1 X178.38 Y91.598 E.06529
G1 X178.819 Y93.483 E.06979
G1 X179.169 Y95.262 E.06535
G1 X179.46 Y97.051 E.06537
G1 X179.706 Y98.969 E.06974
G1 X179.878 Y100.815 E.06684
G1 X179.987 Y102.657 E.06652
G1 X180.036 Y104.519 E.06717
G1 X180.02 Y106.326 E.06516
G1 X179.947 Y108.142 E.06556
G1 X179.805 Y110.035 E.06843
G1 X179.607 Y111.853 E.06594
G1 X179.351 Y113.662 E.0659
G1 X179.024 Y115.505 E.06747
G1 X178.624 Y117.383 E.06922
G1 X178.186 Y119.146 E.06553
G1 X177.688 Y120.906 E.06593
G1 X177.103 Y122.728 E.06901
G1 X176.492 Y124.428 E.06514
G1 X175.824 Y126.117 E.0655
G1 X175.067 Y127.853 E.06827
G1 X174.25 Y129.565 E.06841
G1 X173.413 Y131.173 E.06537
G1 X172.526 Y132.752 E.0653
G1 X171.522 Y134.404 E.06969
G1 X170.531 Y135.915 E.06517
G1 X169.485 Y137.403 E.0656
G1 X168.324 Y138.941 E.06948
G1 X167.15 Y140.387 E.06714
G1 X165.942 Y141.777 E.06641
G1 X164.675 Y143.142 E.06715
G1 X163.366 Y144.458 E.06692
G1 X162.021 Y145.721 E.06653
G1 X160.627 Y146.947 E.06696
G1 X159.193 Y148.125 E.06692
G1 X157.742 Y149.236 E.06588
G1 X156.246 Y150.305 E.06631
G1 X154.719 Y151.32 E.06611
G1 X153.162 Y152.283 E.06601
G1 X151.507 Y153.231 E.06875
G1 X149.89 Y154.084 E.06594
G1 X148.25 Y154.882 E.06577
G1 X146.482 Y155.67 E.06977
G1 X144.763 Y156.364 E.06686
G1 X143.038 Y156.995 E.06623
G1 X141.283 Y157.571 E.06661
G1 X139.532 Y158.08 E.06575
G1 X137.767 Y158.533 E.06569
G1 X135.88 Y158.949 E.06967
G1 X134.056 Y159.286 E.0669
G1 X132.24 Y159.557 E.06621
G1 X130.4 Y159.769 E.06679
G1 X128.58 Y159.918 E.06584
G1 X126.76 Y160.006 E.06568
G1 X124.83 Y160.033 E.06959
G1 X123.005 Y159.998 E.06583
G1 X121.171 Y159.901 E.06622
G1 X119.324 Y159.741 E.06687
G1 X117.482 Y159.518 E.06689
G1 X115.658 Y159.237 E.06654
G1 X113.838 Y158.892 E.06679
G1 X112.02 Y158.482 E.06722
G1 X110.234 Y158.018 E.06654
G1 X108.241 Y157.408 E.07515
G1 X107.391 Y156.936 E.03505
G1 X106.754 Y156.38 E.03049
G1 X106.465 Y156.017 E.01673
G1 X105.27 Y156.111 E.04322
G1 X104.045 Y155.887 E.04489
G1 X102.207 Y155.095 E.07218
G1 X100.558 Y154.31 E.06585
G1 X98.936 Y153.473 E.06581
G1 X97.277 Y152.542 E.06858
G1 X95.712 Y151.593 E.06599
G1 X94.187 Y150.6 E.06565
G1 X92.657 Y149.528 E.06734
G1 X91.176 Y148.415 E.06679
G1 X89.731 Y147.249 E.06698
G1 X88.331 Y146.038 E.06673
G1 X86.984 Y144.795 E.06606
G1 X85.667 Y143.492 E.06683
G1 X84.375 Y142.128 E.06774
G1 X83.125 Y140.712 E.06809
G1 X81.967 Y139.307 E.06565
G1 X80.853 Y137.861 E.06582
G1 X79.731 Y136.298 E.06939
G1 X78.702 Y134.755 E.06685
G1 X77.736 Y133.195 E.06618
G1 X76.816 Y131.596 E.06651
G1 X75.958 Y129.974 E.06615
G1 X75.16 Y128.341 E.06556
G1 X74.374 Y126.588 E.06925
G1 X73.687 Y124.897 E.06583
G1 X73.057 Y123.189 E.06563
G1 X72.451 Y121.361 E.06944
G1 X71.93 Y119.581 E.06689
G1 X71.474 Y117.804 E.06616
G1 X71.072 Y115.997 E.06672
G1 X70.741 Y114.213 E.06546
G1 X70.464 Y112.406 E.06591
G1 X70.237 Y110.496 E.06936
G1 X70.086 Y108.676 E.06582
G1 X69.994 Y106.851 E.0659
G1 X69.965 Y104.932 E.06922
G1 X69.997 Y103.119 E.06538
G1 X70.088 Y101.31 E.0653
G1 X70.249 Y99.396 E.06926
G1 X70.465 Y97.584 E.06579
G1 X70.738 Y95.792 E.06537
G1 X71.089 Y93.922 E.0686
G1 X71.489 Y92.131 E.06617
G1 X71.945 Y90.365 E.06578
G1 X72.487 Y88.522 E.06925
G1 X73.077 Y86.749 E.06739
G1 X73.713 Y85.034 E.06596
G1 X74.409 Y83.329 E.0664
G1 X75.182 Y81.607 E.06807
G1 X75.986 Y79.967 E.06583
G1 X76.848 Y78.344 E.06627
G1 X77.767 Y76.749 E.06637
G1 X78.729 Y75.199 E.06581
G1 X79.774 Y73.635 E.06781
G1 X80.849 Y72.141 E.06637
G1 X81.967 Y70.686 E.06619
G1 X83.07 Y69.35 E.06243
M204 S1000
G1 X83.361 Y69.59 F10800
M204 S800
G1 F954.706
G1 X84.667 Y68.11 E.07122
G1 X85.924 Y66.781 E.06592
G1 X87.23 Y65.488 E.0663
G1 X88.59 Y64.232 E.06674
G1 X89.974 Y63.035 E.06599
G1 X91.417 Y61.874 E.06677
G1 X92.94 Y60.729 E.06869
G1 X94.422 Y59.694 E.06519
G1 X95.94 Y58.704 E.06536
G1 X97.516 Y57.752 E.06637
