; generated by PrusaSlicer 2.5.2+win64 on 2023-05-24 at 01:50:56 UTC


;
;
; 

; external perimeters extrusion width = 0.45mm
; perimeters extrusion width = 0.45mm
; infill extrusion width = 0.45mm
; solid infill extrusion width = 0.45mm
; top infill extrusion width = 0.40mm
; first layer extrusion width = 0.42mm

M73 P0 R122
M73 Q0 S122
M201 X1000 Y1000 Z200 E5000 ; sets maximum accelerations, mm/sec^2
M203 X200 Y200 Z12 E120 ; sets maximum feedrates, mm / sec
M204 P1250 R1250 T1250 ; sets acceleration (P, T) and retract acceleration (R), mm/sec^2
M205 X8.00 Y8.00 Z0.40 E4.50 ; sets the jerk limits, mm/sec
M205 S0 T0 ; sets the minimum extruding and travel feed rate, mm/sec
M107
;TYPE:Custom
M862.3 P "MK3S" ; printer model check
M862.1 P0.4 ; nozzle diameter check
M115 U3.12.2 ; tell printer latest fw version
G90 ; use absolute coordinates
M83 ; extruder relative mode
M104 S240 ; set extruder temp
M140 S50 ; set bed temp
M190 S50 ; wait for bed temp
M109 S240 ; wait for extruder temp
G28 W ; home all without mesh bed level
G80 ; mesh bed leveling

G1 Z0.2 F720
G1 Y-3 F1000 ; go outside print area
G92 E0
G1 X60 E9 F1000 ; intro line
G1 X100 E12.5 F1000 ; intro line

G92 E0
M221 S95

; Don't change E values below. Excessive value can damage the printer.

G21 ; set units to millimeters
G90 ; use absolute coordinates
M83 ; use relative distances for extrusion
M900 K0 ; Filament gcode
M107
;LAYER_CHANGE
;Z:0.2
;HEIGHT:0.2
;BEFORE_LAYER_CHANGE
G92 E0.0
;0.2


G1 Z.2 F720
;AFTER_LAYER_CHANGE
;0.2
G1 X82.346 Y70.447 F10800
M204 S800
;TYPE:Skirt/Brim
;WIDTH:0.42
G1 F954.706
G1 X84.446 Y67.991 E.11652
G1 X85.837 Y66.523 E.07293
G1 X88.383 Y64.09 E.12697
G1 X89.885 Y62.795 E.07151
G1 X92.7 Y60.603 E.12865
G1 X94.318 Y59.471 E.07119
G1 X97.345 Y57.571 E.12886
G1 X99.062 Y56.611 E.07094
G1 X100.752 Y55.741 E.06854
G1 X104.075 Y54.241 E.13146
G1 X107.426 Y52.986 E.12901
G1 X109.303 Y52.388 E.07103
G1 X111.129 Y51.878 E.06837
G1 X114.689 Y51.074 E.1316
G1 X118.217 Y50.518 E.12876
G1 X120.183 Y50.308 E.07132
G1 X123.745 Y50.111 E.1286
G1 X125.636 Y50.101 E.06821
G1 X127.605 Y50.159 E.07103
G1 X131.168 Y50.443 E.12887
G1 X134.782 Y50.974 E.13172
G1 X136.641 Y51.345 E.06835
G1 X138.559 Y51.796 E.07105
G1 X141.993 Y52.791 E.12891
G1 X145.421 Y54.034 E.13147
G1 X147.133 Y54.754 E.06696
G1 X148.961 Y55.601 E.07264
G1 X152.12 Y57.262 E.12871
G1 X153.823 Y58.27 E.07137
G1 X156.761 Y60.215 E.12702
G1 X158.384 Y61.412 E.07274
G1 X161.117 Y63.648 E.12732
G1 X163.937 Y66.291 E.13938
G1 X166.343 Y68.873 E.12725
G1 X167.619 Y70.385 E.07131
G1 X169.774 Y73.224 E.12853
G1 X170.888 Y74.856 E.07125
G1 X171.901 Y76.454 E.06823
G1 X173.657 Y79.569 E.12892
G1 X174.536 Y81.325 E.0708
G1 X175.974 Y84.601 E.12902
G1 X176.672 Y86.444 E.07105
G1 X177.77 Y89.845 E.12887
G1 X178.279 Y91.748 E.07104
G1 X179.03 Y95.244 E.12892
G1 X179.344 Y97.192 E.07114
G1 X179.737 Y100.741 E.12875
G1 X179.855 Y102.714 E.07128
G1 X179.89 Y106.236 E.12702
G1 X179.665 Y110.102 E.13962
G1 X179.226 Y113.599 E.12709
G1 X178.873 Y115.587 E.0728
G1 X178.08 Y119.028 E.12734
G1 X177.542 Y120.926 E.07114
G1 X176.392 Y124.313 E.12898
G1 X175.653 Y126.177 E.07231
G1 X174.185 Y129.394 E.12747
G1 X173.276 Y131.146 E.07119
G1 X171.471 Y134.233 E.12895
G1 X170.395 Y135.877 E.07083
G1 X169.304 Y137.425 E.06828
G1 X167.104 Y140.236 E.12872
G1 X165.81 Y141.723 E.07109
G1 X163.336 Y144.302 E.12883
G1 X161.896 Y145.655 E.07124
G1 X159.172 Y147.97 E.12892
G1 X157.61 Y149.166 E.07094
G1 X154.665 Y151.196 E.12897
G1 X152.986 Y152.232 E.07114
G1 X149.859 Y153.951 E.12866
G1 X148.08 Y154.813 E.07128
G1 X144.831 Y156.193 E.1273
G1 X142.938 Y156.887 E.07268
G1 X139.569 Y157.932 E.1272
G1 X135.805 Y158.827 E.1395
G1 X132.327 Y159.408 E.12715
G1 X130.37 Y159.637 E.07106
G1 X126.796 Y159.871 E.12912
G1 X124.83 Y159.899 E.07092
G1 X122.943 Y159.861 E.06802
G1 X119.418 Y159.617 E.12743
G1 X115.633 Y159.094 E.13775
G1 X113.775 Y158.74 E.06822
G1 X110.344 Y157.908 E.12729
G1 X106.749 Y156.839 E.13521
G1 X105.657 Y156.444 E.04188
G1 X102.258 Y154.969 E.1336
G1 X99.055 Y153.383 E.12889
G1 X97.295 Y152.397 E.07274
G1 X94.311 Y150.521 E.12708
G1 X92.658 Y149.363 E.07277
G1 X89.843 Y147.166 E.12876
G1 X88.345 Y145.871 E.0714
G1 X85.802 Y143.439 E.12686
G1 X84.412 Y141.968 E.07298
G1 X82.125 Y139.29 E.127
G1 X79.816 Y136.184 E.13955
G1 X77.906 Y133.216 E.12726
G1 X76.923 Y131.506 E.07111
G1 X75.3 Y128.323 E.12883
G1 X74.478 Y126.482 E.0727
G1 X73.203 Y123.199 E.12698
G1 X72.578 Y121.311 E.07173
G1 X71.633 Y117.88 E.12831
G1 X71.203 Y115.953 E.07119
G1 X70.604 Y112.424 E.12907
G1 X70.372 Y110.466 E.0711
G1 X70.131 Y106.908 E.12859
G1 X70.1 Y104.926 E.07147
G1 X70.219 Y101.366 E.12843
G1 X70.385 Y99.398 E.07122
G1 X70.61 Y97.513 E.06843
G1 X71.229 Y93.918 E.13155
G1 X71.642 Y92.069 E.06831
G1 X72.597 Y88.627 E.12879
G1 X73.22 Y86.755 E.07113
G1 X74.499 Y83.467 E.12722
G1 X75.322 Y81.628 E.07266
G1 X76.949 Y78.442 E.129
G1 X77.933 Y76.737 E.07096
G1 X79.846 Y73.77 E.1273
G1 X82.159 Y70.666 E.13959
G1 X82.307 Y70.492 E.00821
M204 S1000
G1 X84.355 Y72.19 F10800
M204 S800
G1 F954.706
G1 X85.308 Y71.04 E.05386
G1 X86.439 Y69.758 E.06164
G1 X87.711 Y68.416 E.06667
G1 X88.932 Y67.212 E.06184
G1 X90.189 Y66.049 E.06175
G1 X91.578 Y64.851 E.06612
G1 X92.919 Y63.772 E.06207
G1 X94.297 Y62.735 E.0622
G1 X95.803 Y61.682 E.06627
G1 X97.285 Y60.718 E.06375
G1 X98.785 Y59.815 E.06312
G1 X100.324 Y58.956 E.06356
G1 X101.893 Y58.147 E.06367
G1 X103.475 Y57.402 E.06305
G1 X105.094 Y56.702 E.06359
G1 X106.734 Y56.057 E.06355
G1 X108.385 Y55.474 E.06314
G1 X110.068 Y54.94 E.06365
G1 X111.766 Y54.464 E.06357
G1 X113.465 Y54.051 E.06304
G1 X115.193 Y53.689 E.06368
G1 X116.928 Y53.388 E.06348
G1 X118.664 Y53.146 E.06321
G1 X120.419 Y52.961 E.06365
G1 X122.132 Y52.839 E.06191
G1 X123.843 Y52.773 E.06173
G1 X125.686 Y52.765 E.06646
G1 X127.405 Y52.816 E.06202
G1 X129.113 Y52.922 E.06172
G1 X130.918 Y53.095 E.06537
G1 X132.64 Y53.322 E.06261
G1 X134.345 Y53.601 E.0623
G1 X136.094 Y53.952 E.06432
G1 X137.867 Y54.368 E.06566
G1 X139.521 Y54.818 E.06183
G1 X141.166 Y55.323 E.06203
G1 X142.835 Y55.899 E.06368
G1 X144.466 Y56.521 E.06292
G1 X146.091 Y57.205 E.06361
G1 X147.695 Y57.947 E.0637
G1 X149.258 Y58.734 E.06311
G1 X150.816 Y59.584 E.06398
G1 X152.393 Y60.517 E.06609
G1 X153.834 Y61.439 E.06168
G1 X155.251 Y62.409 E.0619
G1 X156.674 Y63.457 E.06375
G1 X158.048 Y64.541 E.0631
G1 X159.392 Y65.677 E.06345
G1 X160.727 Y66.887 E.06495
G1 X162.023 Y68.144 E.06511
G1 X163.242 Y69.411 E.06339
G1 X164.408 Y70.707 E.06288
G1 X165.551 Y72.064 E.06398
G1 X166.605 Y73.409 E.0616
G1 X167.624 Y74.796 E.06205
G1 X168.663 Y76.319 E.0665
G1 X169.561 Y77.733 E.06038
G1 X170.249 Y78.901 E.04888
G1 X171.329 Y80.864 E.0808
G1 X172.096 Y82.397 E.06181
G1 X172.817 Y83.962 E.06211
G1 X173.512 Y85.618 E.06476
G1 X174.132 Y87.251 E.06298
G1 X174.695 Y88.896 E.0627
G1 X175.214 Y90.595 E.06407
G1 X175.669 Y92.287 E.06316
G1 X176.066 Y93.987 E.06294
G1 X176.408 Y95.713 E.06347
G1 X176.692 Y97.46 E.06381
G1 X176.915 Y99.193 E.063
G1 X177.081 Y100.944 E.06344
G1 X177.192 Y102.788 E.06661
G1 X177.236 Y104.504 E.06189
G1 X177.226 Y106.215 E.06167
G1 X177.155 Y107.982 E.06378
G1 X177.025 Y109.731 E.06324
G1 X176.834 Y111.492 E.06387
G1 X176.576 Y113.305 E.06604
G1 X176.274 Y114.999 E.06203
G1 X175.918 Y116.676 E.06181
G1 X175.474 Y118.465 E.06647
G1 X175.002 Y120.125 E.06221
G1 X174.481 Y121.753 E.06164
G1 X173.865 Y123.466 E.06565
G1 X173.229 Y125.07 E.06221
G1 X172.541 Y126.652 E.06222
G1 X171.745 Y128.32 E.06664
G1 X170.951 Y129.846 E.06202
G1 X170.112 Y131.34 E.06178
G1 X169.153 Y132.916 E.06651
G1 X168.212 Y134.35 E.06185
G1 X167.229 Y135.75 E.06169
G1 X166.143 Y137.187 E.06495
G1 X165.005 Y138.593 E.06523
G1 X163.877 Y139.889 E.06192
G1 X162.717 Y141.142 E.06158
G1 X161.428 Y142.442 E.06601
G1 X160.171 Y143.624 E.06221
G1 X158.877 Y144.764 E.0622
G1 X157.477 Y145.915 E.06535
G1 X156.105 Y146.967 E.06234
G1 X154.694 Y147.977 E.06255
G1 X153.223 Y148.957 E.06374
M73 P0 R121
G1 X151.659 Y149.922 E.06625
G1 X150.174 Y150.77 E.06168
G1 X148.647 Y151.579 E.06232
G1 X146.995 Y152.381 E.0662
G1 X145.423 Y153.079 E.06203
G1 X143.835 Y153.723 E.06178
G1 X142.102 Y154.358 E.06654
G1 X140.47 Y154.893 E.06193
G1 X138.827 Y155.374 E.06176
G1 X137.077 Y155.821 E.06513
G1 X135.318 Y156.209 E.06494
G1 X133.633 Y156.518 E.06177
G1 X131.934 Y156.774 E.06194
G1 X130.105 Y156.987 E.06641
G1 X128.347 Y157.131 E.06359
G1 X126.597 Y157.212 E.06318
G1 X124.836 Y157.235 E.06349
G1 X123.112 Y157.202 E.06216
G1 X121.4 Y157.113 E.06182
G1 X119.626 Y156.961 E.06422
G1 X117.844 Y156.744 E.06472
G1 X116.13 Y156.477 E.06254
G1 X114.421 Y156.154 E.06271
G1 X112.702 Y155.768 E.06351
G1 X111.004 Y155.327 E.06327
G1 X109.111 Y154.751 E.07133
G1 X108.12 Y154.209 E.04075
G1 X107.454 Y153.629 E.03184
G1 X107.333 Y153.489 E.00667
G1 X106.499 Y153.555 E.03018
G1 X105.193 Y153.329 E.04777
G1 X103.362 Y152.545 E.07184
G1 X101.799 Y151.802 E.06241
G1 X100.265 Y151.009 E.06225
G1 X98.684 Y150.124 E.06534
G1 X97.199 Y149.223 E.06262
G1 X95.758 Y148.285 E.06199
G1 X94.268 Y147.242 E.06558
G1 X92.878 Y146.194 E.06276
G1 X91.534 Y145.108 E.06232
G1 X90.157 Y143.919 E.0656
G1 X88.897 Y142.751 E.06193
G1 X87.678 Y141.547 E.06178
G1 X86.42 Y140.218 E.06599
G1 X85.272 Y138.915 E.06264
G1 X84.168 Y137.58 E.06243
G1 X83.069 Y136.154 E.06493
G1 X82.029 Y134.703 E.06436
G1 X81.072 Y133.267 E.06223
G1 X80.161 Y131.797 E.06236
G1 X79.258 Y130.225 E.06535
G1 X78.449 Y128.7 E.06223
G1 X77.695 Y127.157 E.06195
G1 X76.948 Y125.485 E.06602
G1 X76.295 Y123.878 E.06256
G1 X75.699 Y122.267 E.06193
G1 X75.135 Y120.565 E.06466
G1 X74.645 Y118.89 E.06293
G1 X74.208 Y117.198 E.063
G1 X73.813 Y115.417 E.06577
M73 Q0 S121
G1 X73.489 Y113.682 E.06365
G1 X73.229 Y111.96 E.0628
G1 X73.025 Y110.22 E.06319
G1 X72.88 Y108.489 E.06263
G1 X72.791 Y106.768 E.06215
G1 X72.764 Y104.929 E.0663
G1 X72.794 Y103.214 E.06183
G1 X72.879 Y101.504 E.06176
G1 X73.035 Y99.668 E.06643
G1 X73.244 Y97.913 E.06371
G1 X73.508 Y96.202 E.06245
G1 X73.831 Y94.489 E.06285
G1 X74.222 Y92.732 E.0649
G1 X74.652 Y91.074 E.06175
G1 X75.138 Y89.425 E.06201
G1 X75.694 Y87.749 E.06366
G1 X76.299 Y86.107 E.06312
G1 X76.962 Y84.479 E.06336
G1 X77.683 Y82.867 E.06368
G1 X78.452 Y81.29 E.06323
G1 X79.279 Y79.734 E.06356
G1 X80.159 Y78.205 E.06362
G1 X81.08 Y76.719 E.06303
G1 X82.057 Y75.255 E.06346
G1 X83.112 Y73.787 E.0652
G1 X84.316 Y72.236 E.07079
M204 S1000
G1 X84.607 Y72.477 F10800
M204 S800
G1 F954.706
G1 X85.596 Y71.283 E.05592
G1 X86.72 Y70.011 E.0612
G1 X87.978 Y68.682 E.06596
G1 X89.195 Y67.483 E.06161
G1 X90.442 Y66.328 E.06131
G1 X91.817 Y65.143 E.06541
G1 X93.148 Y64.072 E.06162
G1 X94.521 Y63.038 E.06197
G1 X96.012 Y61.997 E.06557
G1 X97.483 Y61.039 E.06328
G1 X98.971 Y60.143 E.06266
G1 X100.5 Y59.29 E.06311
G1 X102.057 Y58.487 E.06319
G1 X103.628 Y57.747 E.0626
G1 X105.235 Y57.052 E.06314
G1 X106.863 Y56.412 E.06308
G1 X108.502 Y55.832 E.06269
G1 X110.173 Y55.302 E.06319
G1 X111.858 Y54.83 E.0631
G1 X113.545 Y54.42 E.0626
G1 X115.261 Y54.06 E.06323
G1 X116.983 Y53.761 E.06302
G1 X118.707 Y53.521 E.06275
G1 X120.449 Y53.337 E.06318
G1 X122.15 Y53.216 E.06147
G1 X123.854 Y53.149 E.06151
G1 X125.678 Y53.142 E.06576
G1 X127.385 Y53.192 E.06157
G1 X129.087 Y53.298 E.06149
G1 X130.872 Y53.47 E.06467
G1 X132.588 Y53.696 E.06239
G1 X134.281 Y53.973 E.06186
G1 X136.017 Y54.321 E.06384
G1 X137.771 Y54.733 E.06497
G1 X139.419 Y55.181 E.0616
G1 X141.052 Y55.682 E.06158
G1 X142.709 Y56.255 E.06322
G1 X144.328 Y56.872 E.06248
G1 X145.942 Y57.551 E.06314
G1 X147.534 Y58.288 E.06324
G1 X149.086 Y59.069 E.06266
G1 X150.632 Y59.913 E.06352
G1 X152.193 Y60.837 E.06538
G1 X153.629 Y61.755 E.06146
G1 X155.035 Y62.718 E.06146
G1 X156.448 Y63.759 E.06329
G1 X157.812 Y64.835 E.06265
G1 X159.146 Y65.963 E.06299
G1 X160.471 Y67.164 E.06449
G1 X161.754 Y68.408 E.06441
G1 X162.964 Y69.665 E.06293
G1 X164.126 Y70.957 E.06266
G1 X165.256 Y72.3 E.06328
G1 X166.307 Y73.639 E.06137
G1 X167.318 Y75.016 E.06161
G1 X168.346 Y76.524 E.06582
G1 X169.241 Y77.932 E.06015
G1 X169.922 Y79.09 E.04844
G1 X170.993 Y81.036 E.0801
G1 X171.757 Y82.563 E.06156
G1 X172.473 Y84.116 E.06167
G1 X173.16 Y85.755 E.06406
G1 X173.778 Y87.382 E.06275
G1 X174.338 Y89.015 E.06225
G1 X174.85 Y90.696 E.06338
G1 X175.302 Y92.376 E.06271
G1 X175.698 Y94.069 E.06271
G1 X176.037 Y95.783 E.06301
G1 X176.319 Y97.517 E.06334
G1 X176.541 Y99.238 E.06255
G1 X176.706 Y100.977 E.06298
G1 X176.815 Y102.801 E.06591
G1 X176.859 Y104.505 E.06145
G1 X176.849 Y106.209 E.06145
G1 X176.778 Y107.964 E.06331
G1 X176.649 Y109.7 E.06278
G1 X176.46 Y111.448 E.06341
G1 X176.204 Y113.243 E.06534
G1 X175.904 Y114.93 E.0618
G1 X175.55 Y116.595 E.06136
G1 X175.111 Y118.365 E.06578
G1 X174.642 Y120.013 E.06176
G1 X174.123 Y121.634 E.06141
G1 X173.514 Y123.33 E.06495
G1 X172.88 Y124.928 E.06198
G1 X172.196 Y126.499 E.06178
G1 X171.409 Y128.149 E.06593
G1 X170.618 Y129.669 E.0618
G1 X169.785 Y131.152 E.06133
G1 X168.836 Y132.712 E.06581
G1 X167.902 Y134.136 E.06141
G1 X166.922 Y135.531 E.06146
G1 X165.844 Y136.958 E.06448
G1 X164.718 Y138.348 E.06453
G1 X163.595 Y139.639 E.06169
G1 X162.442 Y140.883 E.06114
G1 X161.168 Y142.169 E.0653
G1 X159.915 Y143.347 E.06198
G1 X158.63 Y144.479 E.06176
G1 X157.245 Y145.617 E.06466
G1 X155.883 Y146.662 E.06189
G1 X154.477 Y147.668 E.06232
G1 X153.017 Y148.641 E.06328
G1 X151.47 Y149.596 E.06556
G1 X149.99 Y150.441 E.06145
G1 X148.473 Y151.244 E.06187
G1 X146.839 Y152.037 E.0655
G1 X145.278 Y152.731 E.06158
G1 X143.696 Y153.372 E.06155
G1 X141.982 Y154.001 E.06585
G1 X140.362 Y154.532 E.06148
G1 X138.724 Y155.012 E.06153
G1 X136.992 Y155.454 E.06444
G1 X135.246 Y155.838 E.06447
G1 X133.568 Y156.147 E.06154
G1 X131.881 Y156.4 E.06149
G1 X130.071 Y156.611 E.06572
G1 X128.326 Y156.754 E.06312
G1 X126.588 Y156.835 E.06272
G1 X124.84 Y156.858 E.06304
G1 X123.129 Y156.825 E.06171
G1 X121.423 Y156.737 E.06159
G1 X119.661 Y156.585 E.06376
G1 X117.899 Y156.37 E.06403
G1 X116.191 Y156.105 E.06232
G1 X114.494 Y155.785 E.06226
G1 X112.788 Y155.401 E.06305
G1 X111.103 Y154.963 E.06279
G1 X109.24 Y154.397 E.07019
G1 X108.321 Y153.889 E.03787
G1 X107.717 Y153.358 E.02901
G1 X107.501 Y153.095 E.01226
G1 X106.537 Y153.179 E.0349
G1 X105.321 Y152.973 E.04447
G1 X103.52 Y152.202 E.07062
G1 X101.969 Y151.465 E.06194
G1 X100.441 Y150.676 E.06202
G1 X98.876 Y149.8 E.06465
G1 X97.402 Y148.906 E.06217
G1 X95.967 Y147.971 E.06176
G1 X94.493 Y146.939 E.06488
G1 X93.113 Y145.899 E.0623
G1 X91.773 Y144.817 E.0621
G1 X90.411 Y143.64 E.0649
G1 X89.16 Y142.481 E.0615
G1 X87.945 Y141.281 E.06156
G1 X86.701 Y139.966 E.06529
G1 X85.56 Y138.672 E.0622
G1 X84.461 Y137.342 E.06221
G1 X83.374 Y135.931 E.06423
G1 X82.341 Y134.491 E.0639
G1 X81.388 Y133.06 E.062
G1 X80.483 Y131.601 E.06191
G1 X79.59 Y130.046 E.06466
G1 X78.787 Y128.532 E.06178
G1 X78.035 Y126.994 E.06172
G1 X77.296 Y125.34 E.06532
G1 X76.645 Y123.739 E.06234
G1 X76.054 Y122.139 E.06148
G1 X75.496 Y120.456 E.06395
G1 X75.008 Y118.787 E.0627
G1 X74.574 Y117.107 E.06256
G1 X74.183 Y115.345 E.06507
G1 X73.861 Y113.623 E.06318
G1 X73.603 Y111.913 E.06234
G1 X73.4 Y110.185 E.06273
G1 X73.256 Y108.46 E.0624
G1 X73.168 Y106.752 E.0617
G1 X73.141 Y104.933 E.06559
G1 X73.171 Y103.23 E.0614
G1 X73.256 Y101.526 E.06154
G1 X73.41 Y99.709 E.06573
G1 X73.617 Y97.968 E.06324
G1 X73.881 Y96.262 E.06222
G1 X74.201 Y94.561 E.06241
G1 X74.588 Y92.823 E.0642
G1 X75.015 Y91.178 E.06129
G1 X75.499 Y89.534 E.06179
G1 X76.051 Y87.871 E.0632
G1 X76.652 Y86.24 E.06267
G1 X77.31 Y84.624 E.06291
G1 X78.026 Y83.023 E.06323
G1 X78.789 Y81.459 E.06277
G1 X79.61 Y79.914 E.06309
G1 X80.484 Y78.395 E.06316
G1 X81.399 Y76.92 E.06258
G1 X82.369 Y75.467 E.063
G1 X83.412 Y74.014 E.0645
G1 X84.568 Y72.523 E.06804
M204 S1000
G1 X84.859 Y72.764 F10800
M204 S800
G1 F954.706
G1 X85.885 Y71.526 E.05797
G1 X87 Y70.263 E.06077
G1 X88.245 Y68.948 E.06525
G1 X89.453 Y67.758 E.06118
G1 X90.696 Y66.607 E.06108
G1 X92.055 Y65.435 E.06471
G1 X93.382 Y64.368 E.0614
G1 X94.745 Y63.342 E.06151
G1 X96.22 Y62.311 E.06488
