; generated by PrusaSlicer 2.5.2+win64 on 2023-05-24 at 01:48:25 UTC


;
;
; 

; external perimeters extrusion width = 0.45mm
; perimeters extrusion width = 0.45mm
; infill extrusion width = 0.45mm
; solid infill extrusion width = 0.45mm
; top infill extrusion width = 0.40mm
; first layer extrusion width = 0.42mm

M73 P0 R32
M73 Q0 S32
M201 X1000 Y1000 Z200 E5000 ; sets maximum accelerations, mm/sec^2
M203 X200 Y200 Z12 E120 ; sets maximum feedrates, mm / sec
M204 P1250 R1250 T1250 ; sets acceleration (P, T) and retract acceleration (R), mm/sec^2
M205 X8.00 Y8.00 Z0.40 E4.50 ; sets the jerk limits, mm/sec
M205 S0 T0 ; sets the minimum extruding and travel feed rate, mm/sec
M107
;TYPE:Custom
M862.3 P "MK3S" ; printer model check
M862.1 P0.4 ; nozzle diameter check
M115 U3.12.2 ; tell printer latest fw version
G90 ; use absolute coordinates
M83 ; extruder relative mode
M104 S230 ; set extruder temp
M140 S60 ; set bed temp
M190 S60 ; wait for bed temp
M109 S230 ; wait for extruder temp
G28 W ; home all without mesh bed level
G80 ; mesh bed leveling

G1 Z0.2 F720
G1 Y-3 F1000 ; go outside print area
G92 E0
G1 X60 E9 F1000 ; intro line
G1 X100 E12.5 F1000 ; intro line

G92 E0
M221 S95

; Don't change E values below. Excessive value can damage the printer.

G21 ; set units to millimeters
G90 ; use absolute coordinates
M83 ; use relative distances for extrusion
M900 K0.05 ; Filament gcode LA 1.5
M900 K30 ; Filament gcode LA 1.0
M107
;LAYER_CHANGE
;Z:0.2
;HEIGHT:0.2
;BEFORE_LAYER_CHANGE
G92 E0.0
;0.2


G1 E-.8 F2100
G1 Z.4 F720
;AFTER_LAYER_CHANGE
;0.2
G1 X82.366 Y70.424 F10800
G1 Z.2 F720
G1 E.8 F2100
M204 S800
;TYPE:Skirt/Brim
;WIDTH:0.42
G1 F1200
G1 X84.45 Y67.986 E.10055
G1 X85.837 Y66.522 E.06324
G1 X88.387 Y64.088 E.1105
G1 X89.883 Y62.795 E.06202
G1 X92.704 Y60.601 E.11205
G1 X94.316 Y59.472 E.06171
G1 X97.345 Y57.57 E.11213
G1 X99.064 Y56.608 E.06178
G1 X102.266 Y55.023 E.11202
G1 X104.078 Y54.239 E.06189
G1 X107.42 Y52.985 E.11194
G1 X109.305 Y52.387 E.06201
G1 X111.129 Y51.877 E.05937
G1 X114.687 Y51.073 E.11436
G1 X118.218 Y50.517 E.11208
G1 X120.183 Y50.307 E.06197
G1 X123.745 Y50.11 E.11185
G1 X125.636 Y50.1 E.05931
G1 X127.605 Y50.158 E.06175
G1 X131.128 Y50.438 E.1108
G1 X134.951 Y51.004 E.12119
G1 X138.395 Y51.754 E.1105
G1 X140.307 Y52.271 E.06212
G1 X143.702 Y53.379 E.11197
G1 X145.587 Y54.1 E.06328
G1 X148.807 Y55.525 E.11042
G1 X150.578 Y56.416 E.06215
G1 X153.677 Y58.179 E.1118
G1 X155.344 Y59.241 E.06198
G1 X158.256 Y61.313 E.11207
G1 X159.803 Y62.537 E.06184
G1 X162.487 Y64.886 E.11184
G1 X163.937 Y66.29 E.06329
G1 X166.343 Y68.872 E.11065
G1 X167.619 Y70.384 E.06201
M73 P0 R31
G1 X169.776 Y73.228 E.11193
G1 X170.89 Y74.858 E.0619
G1 X172.75 Y77.899 E.11177
G1 X173.699 Y79.643 E.06226
G1 X175.239 Y82.852 E.11159
G1 X176.004 Y84.676 E.06203
G1 X176.676 Y86.449 E.05943
G1 X177.771 Y89.841 E.11178
G1 X178.28 Y91.749 E.0619
G1 X179.03 Y95.243 E.11206
G1 X179.344 Y97.191 E.06186
G1 X179.739 Y100.737 E.11186
G1 X179.855 Y102.714 E.06211
G1 X179.89 Y106.235 E.11041
G1 X179.807 Y108.256 E.0634
G1 X179.478 Y111.811 E.11196
G1 X179.198 Y113.772 E.06211
G1 X178.524 Y117.226 E.11033
G1 X177.53 Y120.966 E.12134
G1 X176.394 Y124.309 E.11071
G1 X175.652 Y126.182 E.06315
G1 X174.185 Y129.393 E.1107
G1 X173.275 Y131.148 E.062
G1 X171.479 Y134.223 E.11165
G1 X170.393 Y135.884 E.06222
G1 X169.303 Y137.425 E.0592
G1 X167.104 Y140.235 E.11187
G1 X165.81 Y141.722 E.06182
M73 Q0 S31
G1 X163.336 Y144.301 E.11202
G1 X161.896 Y145.654 E.06194
G1 X159.176 Y147.967 E.11198
G1 X157.606 Y149.169 E.06198
G1 X154.671 Y151.193 E.1118
G1 X152.986 Y152.232 E.06206
G1 X149.858 Y153.951 E.11193
G1 X148.08 Y154.812 E.06194
G1 X144.835 Y156.191 E.11052
G1 X142.938 Y156.887 E.06337
G1 X139.569 Y157.931 E.11059
G1 X135.804 Y158.827 E.12135
G1 X132.328 Y159.407 E.11048
G1 X130.371 Y159.636 E.06177
G1 X128.479 Y159.79 E.05953
G1 X124.826 Y159.9 E.11457
G1 X121.261 Y159.772 E.11187
G1 X119.413 Y159.613 E.05815
G1 X115.63 Y159.093 E.11974
G1 X113.778 Y158.74 E.0591
G1 X110.345 Y157.907 E.11075
G1 X106.756 Y156.845 E.11737
G1 X105.657 Y156.443 E.03668
G1 X102.258 Y154.968 E.11618
G1 X99.054 Y153.381 E.1121
M73 Q1 S31
G1 X97.303 Y152.399 E.06295
M73 P1 R31
G1 X94.307 Y150.518 E.11092
G1 X92.653 Y149.359 E.06334
G1 X89.846 Y147.168 E.11163
G1 X88.345 Y145.87 E.06224
G1 X85.772 Y143.409 E.11164
G1 X83.304 Y140.713 E.1146
G1 X82.095 Y139.25 E.05949
G1 X80.894 Y137.689 E.06177
G1 X78.884 Y134.787 E.11069
G1 X77.818 Y133.07 E.06336
G1 X76.115 Y129.985 E.11048
G1 X74.478 Y126.481 E.12127
G1 X73.203 Y123.198 E.11041
G1 X72.578 Y121.311 E.06232
G1 X71.632 Y117.873 E.11181
G1 X71.204 Y115.951 E.06175
G1 X70.856 Y114.086 E.05947
G1 X70.372 Y110.466 E.11451
G1 X70.131 Y106.907 E.11187
G1 X70.1 Y104.925 E.06215
G1 X70.219 Y101.367 E.11162
G1 X70.385 Y99.397 E.06198
G1 X70.61 Y97.512 E.05951
G1 X71.212 Y93.996 E.11185
G1 X71.645 Y92.067 E.062
G1 X72.594 Y88.634 E.11166
G1 X73.22 Y86.749 E.06229
G1 X74.498 Y83.465 E.11047
G1 X75.322 Y81.628 E.06316
G1 X76.925 Y78.483 E.11066
G1 X78.912 Y75.165 E.12126
G1 X80.921 Y72.269 E.11053
G1 X82.13 Y70.7 E.06209
G1 X82.327 Y70.469 E.00952
M204 S1000
;WIPE_START
G1 F8640
G1 X84.45 Y67.986 E-.75434
G1 X84.467 Y67.968 E-.00566
;WIPE_END
G1 E-.04 F2100
G1 Z.6 F720
G1 X84.375 Y72.164 F10800
G1 Z.2 F720
G1 E.8 F2100
M204 S800
G1 F1200
G1 X85.311 Y71.033 E.04601
G1 X86.456 Y69.739 E.05419
G1 X87.711 Y68.415 E.05719
G1 X88.929 Y67.214 E.05363
G1 X90.19 Y66.048 E.05385
G1 X91.589 Y64.841 E.05794
G1 X92.962 Y63.738 E.05523
G1 X94.357 Y62.692 E.05466
G1 X95.808 Y61.678 E.05549
G1 X97.285 Y60.717 E.05526
G1 X98.785 Y59.814 E.05488
G1 X100.324 Y58.956 E.05525
G1 X101.849 Y58.169 E.05382
G1 X103.402 Y57.432 E.05389
G1 X105.087 Y56.704 E.05754
G1 X106.68 Y56.077 E.05369
G1 X108.308 Y55.496 E.05421
G1 X110.036 Y54.948 E.05684
G1 X111.765 Y54.463 E.05631
G1 X113.47 Y54.049 E.05499
G1 X115.191 Y53.688 E.05514
G1 X116.926 Y53.387 E.05522
G1 X118.653 Y53.146 E.05467
G1 X120.417 Y52.96 E.05562
G1 X122.13 Y52.838 E.05384
G1 X123.843 Y52.772 E.05375
G1 X125.686 Y52.764 E.05778
G1 X127.403 Y52.814 E.05388
G1 X129.117 Y52.921 E.05383
G1 X130.867 Y53.088 E.05514
G1 X132.647 Y53.322 E.05627
G1 X134.432 Y53.617 E.05671
G1 X136.11 Y53.954 E.05369
G1 X137.781 Y54.346 E.05382
G1 X139.552 Y54.826 E.05752
G1 X141.246 Y55.349 E.0556
G1 X142.901 Y55.921 E.05488
G1 X144.553 Y56.555 E.05548
G1 X146.129 Y57.223 E.0537
G1 X147.687 Y57.941 E.05377
G1 X149.325 Y58.767 E.05751
G1 X150.834 Y59.593 E.05396
G1 X152.317 Y60.469 E.05402
G1 X153.873 Y61.461 E.05785
G1 X155.304 Y62.446 E.05446
G1 X156.702 Y63.478 E.0545
G1 X158.106 Y64.59 E.05613
G1 X159.425 Y65.707 E.05422
G1 X160.696 Y66.857 E.05372
G1 X162.023 Y68.143 E.05794
G1 X163.242 Y69.41 E.05513
G1 X164.412 Y70.711 E.05487
G1 X165.548 Y72.059 E.05528
G1 X166.609 Y73.412 E.0539
G1 X167.625 Y74.798 E.05389
G1 X168.664 Y76.32 E.05778
G1 X169.58 Y77.767 E.05371
G1 X170.452 Y79.246 E.05383
G1 X171.323 Y80.848 E.05716
G1 X172.096 Y82.396 E.05426
G1 X172.817 Y83.961 E.054
G1 X173.523 Y85.646 E.05728
G1 X174.156 Y87.313 E.05592
G1 X174.714 Y88.952 E.0543
G1 X175.216 Y90.594 E.05382
G1 X175.67 Y92.291 E.0551
G1 X176.066 Y93.986 E.05456
G1 X176.408 Y95.713 E.05519
G1 X176.703 Y97.534 E.05786
G1 X176.921 Y99.241 E.05395
G1 X177.083 Y100.941 E.05355
G1 X177.192 Y102.789 E.05803
G1 X177.236 Y104.501 E.05372
G1 X177.226 Y106.214 E.05369
G1 X177.155 Y107.981 E.05546
G1 X177.025 Y109.73 E.05499
G1 X176.834 Y111.491 E.05554
G1 X176.575 Y113.308 E.05754
G1 X176.276 Y114.979 E.05322
G1 X175.919 Y116.669 E.05415
G1 X175.485 Y118.426 E.05676
G1 X174.992 Y120.157 E.05642
G1 X174.453 Y121.831 E.05515
G1 X173.862 Y123.474 E.05475
G1 X173.209 Y125.12 E.05551
G1 X172.525 Y126.686 E.05358
G1 X171.784 Y128.241 E.05402
G1 X170.946 Y129.855 E.05702
G1 X170.097 Y131.362 E.05421
G1 X169.204 Y132.837 E.05409
G1 X168.202 Y134.369 E.05737
G1 X167.175 Y135.823 E.05581
G1 X166.128 Y137.206 E.05441
G1 X165.027 Y138.566 E.05484
G1 X163.894 Y139.869 E.05415
G1 X162.717 Y141.14 E.05431
G1 X161.424 Y142.446 E.05762
G1 X160.17 Y143.623 E.05393
G1 X158.878 Y144.763 E.05402
G1 X157.456 Y145.931 E.05769
G1 X156.091 Y146.977 E.05392
G1 X154.694 Y147.976 E.05386
G1 X153.177 Y148.986 E.05713
G1 X151.66 Y149.923 E.05591
G1 X150.163 Y150.778 E.05405
G1 X148.653 Y151.576 E.05355
G1 X146.993 Y152.381 E.05783
G1 X145.429 Y153.075 E.05365
G1 X143.839 Y153.721 E.05383
G1 X142.103 Y154.358 E.05796
G1 X140.47 Y154.893 E.05389
G1 X138.827 Y155.373 E.05368
G1 X137.072 Y155.821 E.05678
G1 X135.317 Y156.208 E.05635
G1 X133.631 Y156.517 E.05375
G1 X131.937 Y156.772 E.05371
G1 X130.107 Y156.986 E.05777
G1 X128.347 Y157.13 E.05536
G1 X126.605 Y157.211 E.05468
G1 X124.833 Y157.236 E.05558
G1 X123.103 Y157.201 E.05424
G1 X121.383 Y157.111 E.05401
G1 X119.59 Y156.954 E.05644
G1 X117.849 Y156.745 E.05497
G1 X116.127 Y156.476 E.05464
G1 X114.415 Y156.152 E.05465
G1 X112.697 Y155.766 E.05521
G1 X111.006 Y155.327 E.05478
G1 X109.116 Y154.754 E.0619
G1 X108.124 Y154.212 E.03546
G1 X107.457 Y153.633 E.0277
G1 X107.333 Y153.488 E.00599
G1 X106.499 Y153.554 E.02622
G1 X105.193 Y153.328 E.04154
G1 X103.362 Y152.544 E.06247
G1 X101.805 Y151.804 E.05406
G1 X100.276 Y151.014 E.05395
G1 X98.73 Y150.149 E.05555
G1 X97.22 Y149.237 E.05532
G1 X95.75 Y148.278 E.05502
G1 X94.271 Y147.243 E.05659
G1 X92.883 Y146.195 E.05454
G1 X91.521 Y145.097 E.05487
G1 X90.167 Y143.927 E.0561
G1 X88.895 Y142.748 E.05437
G1 X87.661 Y141.532 E.05433
G1 X86.447 Y140.243 E.05552
G1 X85.289 Y138.936 E.05477
G1 X84.174 Y137.584 E.05492
G1 X83.067 Y136.147 E.05687
G1 X82.056 Y134.738 E.05437
G1 X81.093 Y133.299 E.0543
G1 X80.138 Y131.76 E.05679
G1 X79.275 Y130.255 E.05441
G1 X78.461 Y128.722 E.05441
G1 X77.673 Y127.108 E.05632
G1 X76.943 Y125.472 E.05616
G1 X76.297 Y123.883 E.05378
G1 X75.703 Y122.279 E.05362
G1 X75.129 Y120.545 E.05727
G1 X74.642 Y118.878 E.05447
M73 Q2 S31
G1 X74.208 Y117.195 E.0545
M73 P2 R31
G1 X73.813 Y115.417 E.0571
G1 X73.489 Y113.682 E.05535
G1 X73.23 Y111.966 E.05441
G1 X73.025 Y110.221 E.05509
G1 X72.88 Y108.494 E.05433
G1 X72.791 Y106.767 E.05423
G1 X72.764 Y104.928 E.05765
G1 X72.794 Y103.219 E.05359
G1 X72.879 Y101.505 E.05383
G1 X73.034 Y99.678 E.05748
G1 X73.244 Y97.913 E.05574
G1 X73.505 Y96.22 E.0537
G1 X73.821 Y94.533 E.05383
G1 X74.224 Y92.729 E.05793
G1 X74.662 Y91.043 E.05462
G1 X75.151 Y89.382 E.0543
G1 X75.719 Y87.671 E.05654
G1 X76.317 Y86.061 E.05382
G1 X76.962 Y84.476 E.05368
G1 X77.685 Y82.863 E.05542
G1 X78.451 Y81.292 E.0548
G1 X79.275 Y79.738 E.05516
G1 X80.176 Y78.175 E.05656
G1 X81.128 Y76.643 E.05655
G1 X82.08 Y75.223 E.0536
G1 X83.082 Y73.826 E.05392
G1 X84.337 Y72.21 E.06414
M204 S1000
G1 X84.627 Y72.451 F10800
M204 S800
G1 F1200
G1 X85.599 Y71.276 E.04779
G1 X86.736 Y69.991 E.0538
G1 X87.978 Y68.681 E.05659
G1 X89.192 Y67.485 E.05344
G1 X90.444 Y66.327 E.05347
G1 X91.828 Y65.133 E.05733
G1 X93.191 Y64.037 E.05483
G1 X94.576 Y62.999 E.05427
G1 X96.016 Y61.992 E.0551
G1 X97.483 Y61.038 E.05486
G1 X98.971 Y60.142 E.05448
G1 X100.499 Y59.289 E.05486
G1 X102.019 Y58.506 E.05362
G1 X103.561 Y57.775 E.05349
G1 X105.228 Y57.054 E.05694
G1 X106.809 Y56.431 E.0533
G1 X108.432 Y55.853 E.05401
G1 X110.141 Y55.31 E.05623
G1 X111.858 Y54.829 E.0559
G1 X113.55 Y54.417 E.05461
G1 X115.259 Y54.059 E.05474
G1 X116.981 Y53.76 E.05482
G1 X118.696 Y53.521 E.05428
G1 X120.447 Y53.336 E.05521
G1 X122.154 Y53.215 E.05364
G1 X123.854 Y53.148 E.05336
G1 X125.678 Y53.141 E.05718
G1 X127.389 Y53.191 E.05368
G1 X129.09 Y53.297 E.05344
G1 X130.828 Y53.464 E.05474
G1 X132.595 Y53.696 E.05587
G1 X134.36 Y53.987 E.05611
G1 X136.033 Y54.323 E.05349
G1 X137.692 Y54.712 E.05344
G1 X139.444 Y55.187 E.0569
G1 X141.126 Y55.706 E.0552
G1 X142.768 Y56.275 E.05449
G1 X144.409 Y56.903 E.05507
G1 X145.979 Y57.569 E.0535
G1 X147.526 Y58.282 E.05339
G1 X149.146 Y59.099 E.05689
G1 X150.65 Y59.923 E.05376
G1 X152.123 Y60.793 E.05363
G1 X153.662 Y61.774 E.05724
G1 X155.088 Y62.755 E.05426
G1 X156.476 Y63.779 E.05411
G1 X157.865 Y64.879 E.05554
G1 X159.175 Y65.989 E.05383
G1 X160.44 Y67.134 E.05352
G1 X161.753 Y68.406 E.05733
G1 X162.964 Y69.664 E.05473
G1 X164.126 Y70.956 E.05448
G1 X165.253 Y72.295 E.05487
G1 X166.31 Y73.642 E.0537
G1 X167.319 Y75.018 E.0535
G1 X168.347 Y76.525 E.05718
G1 X169.26 Y77.967 E.05351
G1 X170.126 Y79.435 E.05345
G1 X170.987 Y81.019 E.05655
G1 X171.757 Y82.562 E.05406
G1 X172.473 Y84.115 E.05362
G1 X173.174 Y85.788 E.05687
G1 X173.8 Y87.437 E.05531
G1 X174.354 Y89.065 E.05391
G1 X174.854 Y90.701 E.05363
G1 X175.305 Y92.386 E.05469
G1 X175.698 Y94.068 E.05417
G1 X176.038 Y95.783 E.05479
G1 X176.329 Y97.585 E.05725
G1 X176.546 Y99.286 E.05375
G1 X176.708 Y100.974 E.05316
G1 X176.815 Y102.801 E.05741
G1 X176.859 Y104.508 E.05353
G1 X176.849 Y106.208 E.05331
G1 X176.778 Y107.963 E.05505
G1 X176.649 Y109.699 E.05459
G1 X176.46 Y111.448 E.05514
G1 X176.203 Y113.245 E.05693
G1 X175.905 Y114.91 E.05302
G1 X175.551 Y116.588 E.05377
G1 X175.121 Y118.326 E.05615
G1 X174.632 Y120.044 E.05601
G1 X174.097 Y121.707 E.05475
G1 X173.51 Y123.338 E.05437
G1 X172.863 Y124.972 E.05511
G1 X172.181 Y126.532 E.05338
G1 X171.445 Y128.076 E.05363
G1 X170.615 Y129.673 E.05642
G1 X169.77 Y131.174 E.05401
G1 X168.883 Y132.639 E.0537
G1 X167.892 Y134.154 E.05675
G1 X166.873 Y135.598 E.05542
G1 X165.833 Y136.971 E.05403
G1 X164.74 Y138.321 E.05443
G1 X163.611 Y139.62 E.05395
G1 X162.443 Y140.882 E.05394
G1 X161.163 Y142.173 E.057
G1 X159.919 Y143.343 E.05354
G1 X158.631 Y144.478 E.05383
G1 X157.225 Y145.634 E.05708
G1 X155.869 Y146.672 E.05353
G1 X154.477 Y147.668 E.05367
G1 X152.976 Y148.667 E.05652
G1 X151.47 Y149.597 E.05551
G1 X149.984 Y150.446 E.05366
G1 X148.479 Y151.241 E.05335
G1 X146.837 Y152.037 E.05723
G1 X145.279 Y152.729 E.05346
G1 X143.7 Y153.371 E.05345
G1 X141.982 Y154 E.05734
G1 X140.361 Y154.532 E.05351
G1 X138.724 Y155.011 E.05348
G1 X136.988 Y155.454 E.05618
G1 X135.246 Y155.838 E.05593
G1 X133.566 Y156.146 E.05355
G1 X131.884 Y156.399 E.05333
G1 X130.073 Y156.61 E.05717
G1 X128.326 Y156.753 E.05495
G1 X126.59 Y156.834 E.05448
G1 X124.837 Y156.859 E.05498
G1 X123.12 Y156.824 E.05385
G1 X121.406 Y156.734 E.05381
G1 X119.632 Y156.579 E.05584
G1 X117.904 Y156.372 E.05456
G1 X116.189 Y156.104 E.05444
G1 X114.488 Y155.782 E.05427
G1 X112.782 Y155.399 E.05481
G1 X111.104 Y154.963 E.05437
G1 X109.245 Y154.399 E.06091
G1 X108.324 Y153.892 E.03295
G1 X107.719 Y153.361 E.02524
G1 X107.5 Y153.094 E.01084
G1 X106.537 Y153.178 E.03031
G1 X105.321 Y152.972 E.03867
G1 X103.521 Y152.201 E.06141
G1 X101.975 Y151.467 E.05365
G1 X100.452 Y150.681 E.05375
G1 X98.917 Y149.821 E.05515
G1 X97.417 Y148.916 E.05492
G1 X95.959 Y147.964 E.05461
G1 X94.496 Y146.94 E.05598
G1 X93.113 Y145.896 E.05434
G1 X91.76 Y144.805 E.05449
G1 X90.421 Y143.648 E.05548
G1 X89.154 Y142.474 E.05418
G1 X87.929 Y141.266 E.05395
G1 X86.723 Y139.987 E.0551
G1 X85.573 Y138.688 E.05439
G1 X84.467 Y137.347 E.05451
G1 X83.372 Y135.925 E.05628
G1 X82.364 Y134.521 E.05417
G1 X81.408 Y133.092 E.05391
G1 X80.463 Y131.57 E.05618
G1 X79.607 Y130.075 E.05402
G1 X78.795 Y128.548 E.05422
G1 X78.016 Y126.951 E.05571
G1 X77.291 Y125.327 E.05576
G1 X76.647 Y123.744 E.05359
G1 X76.058 Y122.151 E.05324
G1 X75.49 Y120.436 E.05665
G1 X75.004 Y118.775 E.05427
G1 X74.574 Y117.104 E.05411
G1 X74.183 Y115.344 E.0565
G1 X73.861 Y113.622 E.05494
G1 X73.604 Y111.919 E.05401
G1 X73.4 Y110.186 E.0547
G1 X73.257 Y108.472 E.05395
G1 X73.168 Y106.751 E.05403
G1 X73.141 Y104.932 E.05704
G1 X73.171 Y103.229 E.0534
G1 X73.256 Y101.526 E.05344
G1 X73.409 Y99.719 E.05687
G1 X73.617 Y97.967 E.05533
G1 X73.877 Y96.281 E.0535
G1 X74.191 Y94.605 E.05345
G1 X74.59 Y92.821 E.05732
G1 X75.025 Y91.147 E.05423
G1 X75.512 Y89.492 E.05411
G1 X76.074 Y87.799 E.05592
G1 X76.667 Y86.201 E.05344
G1 X77.31 Y84.621 E.05348
G1 X78.028 Y83.02 E.05502
G1 X78.789 Y81.461 E.0544
G1 X79.607 Y79.917 E.05476
G1 X80.501 Y78.366 E.05615
G1 X81.443 Y76.851 E.05595
G1 X82.391 Y75.436 E.05341
G1 X83.387 Y74.048 E.05354
G1 X84.589 Y72.497 E.06154
M204 S1000
G1 X84.88 Y72.737 F10800
