; generated by PrusaSlicer 2.5.2+win64 on 2023-05-24 at 01:52:28 UTC


;
;
; 

; external perimeters extrusion width = 0.45mm
; perimeters extrusion width = 0.45mm
; infill extrusion width = 0.45mm
; solid infill extrusion width = 0.45mm
; top infill extrusion width = 0.40mm
; first layer extrusion width = 0.42mm

M73 P0 R320
M73 Q0 S320
M201 X1000 Y1000 Z200 E5000 ; sets maximum accelerations, mm/sec^2
M203 X200 Y200 Z12 E120 ; sets maximum feedrates, mm / sec
M204 P1250 R1250 T1250 ; sets acceleration (P, T) and retract acceleration (R), mm/sec^2
M205 X8.00 Y8.00 Z0.40 E4.50 ; sets the jerk limits, mm/sec
M205 S0 T0 ; sets the minimum extruding and travel feed rate, mm/sec
M107
;TYPE:Custom
M862.3 P "MK3S" ; printer model check
M862.1 P0.4 ; nozzle diameter check
M115 U3.12.2 ; tell printer latest fw version
G90 ; use absolute coordinates
M83 ; extruder relative mode
M104 S240 ; set extruder temp
M140 S50 ; set bed temp
M190 S50 ; wait for bed temp
M109 S240 ; wait for extruder temp
G28 W ; home all without mesh bed level
G80 ; mesh bed leveling

G1 Z0.2 F720
G1 Y-3 F1000 ; go outside print area
G92 E0
G1 X60 E9 F1000 ; intro line
G1 X100 E12.5 F1000 ; intro line

G92 E0
M221 S95

; Don't change E values below. Excessive value can damage the printer.

G21 ; set units to millimeters
G90 ; use absolute coordinates
M83 ; use relative distances for extrusion
M900 K0 ; Filament gcode
M107
;LAYER_CHANGE
;Z:0.2
;HEIGHT:0.2
;BEFORE_LAYER_CHANGE
G92 E0.0
;0.2


G1 Z.2 F720
;AFTER_LAYER_CHANGE
;0.2
G1 X80.81 Y67.312 F10800
M204 S800
;TYPE:Skirt/Brim
;WIDTH:0.42
G1 F954.706
G1 X83.569 Y64.297 E.14733
G1 X86.277 Y61.716 E.13489
G1 X87.849 Y60.357 E.07493
G1 X90.833 Y58.033 E.1364
G1 X92.546 Y56.834 E.07537
G1 X95.747 Y54.827 E.13625
G1 X97.567 Y53.807 E.07521
G1 X100.957 Y52.132 E.13636
G1 X102.866 Y51.304 E.07502
G1 X106.41 Y49.977 E.13646
G1 X108.394 Y49.344 E.07508
G1 X112.049 Y48.381 E.13628
G1 X114.011 Y47.969 E.07228
G1 X116.062 Y47.612 E.07506
G1 X119.811 Y47.152 E.13619
G1 X121.889 Y47.004 E.07512
G1 X125.68 Y46.925 E.13672
M73 P0 R319
G1 X127.751 Y46.987 E.07471
G1 X131.527 Y47.287 E.13659
G1 X135.352 Y47.85 E.13943
G1 X137.314 Y48.24 E.07212
G1 X139.342 Y48.719 E.07513
G1 X142.978 Y49.773 E.13651
G1 X144.944 Y50.453 E.07501
G1 X148.411 Y51.848 E.13472
G1 X152.087 Y53.623 E.14719
G1 X155.339 Y55.474 E.13493
G1 X157.135 Y56.619 E.0768
G1 X160.179 Y58.787 E.13475
G1 X161.813 Y60.077 E.07507
G1 X164.661 Y62.569 E.13646
G1 X166.18 Y64.046 E.07639
G1 X168.736 Y66.783 E.13504
G1 X170.081 Y68.38 E.07528
G1 X172.369 Y71.395 E.13646
G1 X173.544 Y73.114 E.0751
G1 X175.513 Y76.336 E.13615
G1 X176.472 Y78.094 E.0722
G1 X177.401 Y79.955 E.07502
G1 X178.922 Y83.421 E.13645
G1 X179.659 Y85.367 E.07503
G1 X180.822 Y88.97 E.13652
G1 X181.36 Y90.977 E.07493
G1 X182.155 Y94.683 E.13667
G1 X182.715 Y98.507 E.13938
G1 X182.903 Y100.501 E.07219
G1 X183.028 Y102.577 E.07501
G1 X183.063 Y106.317 E.13484
G1 X182.976 Y108.434 E.07639
G1 X182.629 Y112.214 E.13689
G1 X182.021 Y116.027 E.13923
G1 X181.607 Y117.982 E.07205
G1 X181.106 Y120.005 E.07514
G1 X180.011 Y123.623 E.13632
G1 X179.305 Y125.587 E.07524
G1 X177.87 Y129.035 E.13467
G1 X176.953 Y130.956 E.07676
G1 X175.173 Y134.249 E.13496
G1 X172.998 Y137.695 E.14694
G1 X170.788 Y140.723 E.13516
G1 X169.48 Y142.341 E.07502
G1 X166.953 Y145.157 E.13642
G1 X165.49 Y146.633 E.07494
G1 X162.686 Y149.187 E.13675
G1 X161.085 Y150.503 E.07474
G1 X159.497 Y151.72 E.07215
G1 X156.382 Y153.867 E.13639
G1 X154.612 Y154.958 E.07497
G1 X151.292 Y156.784 E.13664
G1 X149.417 Y157.692 E.07512
G1 X145.978 Y159.154 E.13473
G1 X142.119 Y160.494 E.1473
G1 X138.514 Y161.48 E.13473
G1 X136.437 Y161.937 E.07671
G1 X132.752 Y162.555 E.13474
G1 X130.677 Y162.796 E.0753
G1 X126.902 Y163.043 E.13639
G1 X124.818 Y163.075 E.07516
G1 X121.039 Y162.939 E.13635
G1 X119.088 Y162.772 E.0706
G1 X115.056 Y162.216 E.14677
G1 X113.128 Y161.848 E.07079
G1 X109.495 Y160.967 E.13477
G1 X105.797 Y159.869 E.13908
G1 X104.444 Y159.376 E.05195
G1 X100.908 Y157.841 E.139
G1 X97.549 Y156.175 E.13517
M73 Q0 S319
G1 X95.696 Y155.14 E.07653
G1 X92.529 Y153.148 E.13491
G1 X90.797 Y151.933 E.07629
G1 X87.807 Y149.602 E.13669
G1 X86.233 Y148.241 E.07503
G1 X83.527 Y145.65 E.13508
G1 X82.07 Y144.111 E.07642
G1 X79.613 Y141.23 E.13655
G1 X78.348 Y139.585 E.0748
G1 X76.191 Y136.472 E.13657
G1 X75.093 Y134.7 E.07517
G1 X73.264 Y131.381 E.13663
G1 X72.354 Y129.515 E.07486
G1 X70.885 Y126.075 E.13488
G1 X70.148 Y124.08 E.07671
G1 X69.034 Y120.512 E.13476
G1 X68.084 Y116.542 E.1472
G1 X67.458 Y112.856 E.13482
G1 X67.211 Y110.783 E.07526
G1 X66.958 Y107.009 E.1364
G1 X66.925 Y104.922 E.07526
G1 X67.052 Y101.148 E.13614
G1 X67.227 Y99.071 E.07516
G1 X67.465 Y97.083 E.07219
G1 X68.1 Y93.359 E.13623
G1 X68.557 Y91.326 E.07513
G1 X69.567 Y87.678 E.13647
G1 X70.221 Y85.707 E.0749
G1 X71.582 Y82.21 E.13529
G1 X72.447 Y80.28 E.07627
G1 X74.168 Y76.909 E.13648
G1 X75.209 Y75.103 E.07516
G1 X77.237 Y71.959 E.1349
G1 X78.478 Y70.232 E.07669
G1 X80.773 Y67.358 E.13259
M204 S1000
G1 X82.826 Y69.056 F10800
M204 S800
G1 F954.706
G1 X84.153 Y67.553 E.0723
G1 X85.443 Y66.191 E.06763
G1 X86.772 Y64.883 E.06724
G1 X88.137 Y63.626 E.06689
G1 X89.555 Y62.403 E.06754
G1 X90.973 Y61.262 E.06562
G1 X92.431 Y60.164 E.0658
G1 X94.006 Y59.062 E.06933
G1 X95.598 Y58.028 E.06845
G1 X97.187 Y57.071 E.06687
G1 X98.812 Y56.161 E.06717
G1 X100.439 Y55.325 E.06594
G1 X102.093 Y54.541 E.066
G1 X103.884 Y53.766 E.07038
G1 X105.621 Y53.084 E.06727
G1 X107.369 Y52.465 E.06687
G1 X109.157 Y51.896 E.06766
G1 X110.914 Y51.404 E.06579
G1 X112.68 Y50.969 E.06558
G1 X114.575 Y50.573 E.0698
G1 X116.435 Y50.249 E.06807
G1 X118.272 Y49.995 E.06687
G1 X120.137 Y49.797 E.06764
G1 X121.957 Y49.667 E.06579
G1 X123.776 Y49.597 E.06566
G1 X125.729 Y49.589 E.0704
G1 X127.545 Y49.643 E.0655
G1 X129.365 Y49.756 E.06577
G1 X131.284 Y49.94 E.06952
G1 X133.108 Y50.181 E.06634
G1 X134.915 Y50.478 E.06601
G1 X136.823 Y50.86 E.07019
G1 X138.649 Y51.291 E.06764
G1 X140.418 Y51.772 E.0661
G1 X142.184 Y52.316 E.06664
G1 X143.996 Y52.942 E.06911
G1 X145.726 Y53.607 E.06682
G1 X147.429 Y54.325 E.06666
G1 X149.099 Y55.098 E.06635
G1 X150.735 Y55.922 E.06606
G1 X152.441 Y56.855 E.07009
G1 X154.013 Y57.785 E.06587
G1 X155.555 Y58.768 E.06594
G1 X157.106 Y59.833 E.06783
G1 X158.604 Y60.936 E.0671
G1 X160.059 Y62.083 E.0668
G1 X161.496 Y63.299 E.06787
G1 X162.936 Y64.603 E.07003
G1 X164.237 Y65.868 E.06545
G1 X165.503 Y67.178 E.06568
G1 X166.787 Y68.601 E.06911
G1 X168.015 Y70.061 E.0688
G1 X169.167 Y71.529 E.06729
G1 X170.265 Y73.033 E.06712
G1 X171.319 Y74.578 E.06746
G1 X172.294 Y76.119 E.06573
G1 X173.215 Y77.684 E.06548
G1 X174.145 Y79.392 E.07013
G1 X174.962 Y81.03 E.06602
G1 X175.725 Y82.687 E.06577
G1 X176.481 Y84.49 E.07049
G1 X177.127 Y86.197 E.06581
G1 X177.717 Y87.919 E.06561
G1 X178.284 Y89.784 E.07029
G1 X178.756 Y91.54 E.06558
G1 X179.171 Y93.32 E.06591
G1 X179.541 Y95.196 E.06894
G1 X179.836 Y97.011 E.06628
G1 X180.072 Y98.841 E.06656
G1 X180.247 Y100.704 E.06745
G1 X180.365 Y102.651 E.07032
G1 X180.411 Y104.475 E.06579
G1 X180.399 Y106.293 E.06556
G1 X180.324 Y108.164 E.06751
G1 X180.188 Y110.017 E.06701
G1 X179.986 Y111.878 E.06749
G1 X179.721 Y113.732 E.06752
G1 X179.399 Y115.558 E.06687
G1 X179.008 Y117.399 E.06785
G1 X178.543 Y119.28 E.06988
G1 X178.043 Y121.033 E.06573
G1 X177.489 Y122.767 E.06564
G1 X176.828 Y124.607 E.07049
G1 X176.154 Y126.302 E.06575
G1 X175.43 Y127.968 E.06551
G1 X174.621 Y129.663 E.06772
G1 X173.767 Y131.312 E.06695
G1 X172.854 Y132.938 E.06725
G1 X171.884 Y134.534 E.06735
G1 X170.867 Y136.093 E.06711
G1 X169.793 Y137.622 E.06737
G1 X168.644 Y139.142 E.06871
G1 X167.439 Y140.63 E.06903
G1 X166.241 Y142.008 E.06583
G1 X165.004 Y143.342 E.0656
G1 X163.631 Y144.726 E.07032
G1 X162.267 Y146.009 E.06748
G1 X160.876 Y147.229 E.06675
G1 X159.437 Y148.411 E.06714
G1 X157.944 Y149.556 E.06782
G1 X156.449 Y150.622 E.06624
G1 X154.917 Y151.642 E.06636
G1 X153.34 Y152.616 E.06683
G1 X151.741 Y153.533 E.06645
G1 X150.088 Y154.407 E.06742
G1 X148.331 Y155.26 E.07044
G1 X146.659 Y156.002 E.06594
G1 X144.98 Y156.684 E.06535
G1 X143.19 Y157.341 E.06877
G1 X141.37 Y157.938 E.06904
G1 X139.622 Y158.446 E.06563
G1 X137.858 Y158.898 E.06567
G1 X135.95 Y159.319 E.07047
G1 X134.167 Y159.647 E.06534
G1 X132.358 Y159.921 E.06599
G1 X130.436 Y160.143 E.06977
G1 X128.556 Y160.297 E.06802
G1 X126.701 Y160.384 E.06695
G1 X124.824 Y160.411 E.06768
G1 X122.999 Y160.374 E.06583
G1 X121.178 Y160.279 E.06576
G1 X119.279 Y160.114 E.06874
G1 X117.408 Y159.887 E.06795
G1 X115.586 Y159.604 E.06649
G1 X113.767 Y159.261 E.06672
G1 X111.941 Y158.849 E.06752
G1 X110.14 Y158.382 E.06709
G1 X108.113 Y157.762 E.07642
G1 X107.122 Y157.205 E.04101
G1 X106.462 Y156.619 E.03182
G1 X106.293 Y156.411 E.00964
G1 X105.392 Y156.487 E.03262
G1 X103.931 Y156.251 E.05337
G1 X102.057 Y155.438 E.07363
G1 X100.394 Y154.648 E.06642
G1 X98.762 Y153.803 E.06625
G1 X97.085 Y152.867 E.06923
G1 X95.511 Y151.912 E.0664
G1 X93.97 Y150.907 E.06632
G1 X92.439 Y149.834 E.06744
G1 X90.948 Y148.714 E.06724
G1 X89.498 Y147.544 E.06716
G1 X88.04 Y146.283 E.06951
G1 X86.698 Y145.041 E.06593
G1 X85.399 Y143.755 E.06592
G1 X84.077 Y142.36 E.06929
G1 X82.862 Y140.983 E.0662
G1 X81.695 Y139.569 E.06613
G1 X80.554 Y138.089 E.06737
G1 X79.458 Y136.566 E.06766
G1 X78.42 Y135.013 E.06736
G1 X77.401 Y133.371 E.06968
G1 X76.494 Y131.789 E.06576
G1 X75.636 Y130.168 E.06612
G1 X74.793 Y128.442 E.06926
G1 X74.045 Y126.77 E.06606
G1 X73.346 Y125.055 E.06676
G1 X72.677 Y123.242 E.06971
G1 X72.103 Y121.501 E.06607
G1 X71.585 Y119.744 E.06607
G1 X71.111 Y117.901 E.06861
G1 X70.701 Y116.048 E.06841
G1 X70.367 Y114.253 E.06583
G1 X70.092 Y112.456 E.06555
G1 X69.863 Y110.529 E.06998
G1 X69.711 Y108.704 E.06605
G1 X69.618 Y106.866 E.06635
G1 X69.589 Y104.925 E.07
G1 X69.621 Y103.108 E.06553
G1 X69.712 Y101.287 E.06574
G1 X69.873 Y99.379 E.06902
G1 X70.099 Y97.484 E.06884
G1 X70.375 Y95.69 E.06545
G1 X70.71 Y93.895 E.06582
G1 X71.118 Y92.067 E.06752
G1 X71.582 Y90.267 E.06706
G1 X72.108 Y88.475 E.06733
G1 X72.709 Y86.661 E.0689
G1 X73.371 Y84.872 E.06878
G1 X74.079 Y83.144 E.06732
G1 X74.84 Y81.451 E.06694
G1 X75.664 Y79.77 E.06751
G1 X76.541 Y78.121 E.06734
G1 X77.467 Y76.517 E.06677
G1 X78.46 Y74.921 E.06778
G1 X79.468 Y73.417 E.06529
G1 X80.535 Y71.928 E.06606
G1 X81.721 Y70.392 E.06996
G1 X82.788 Y69.102 E.06035
M204 S1000
G1 X83.078 Y69.342 F10800
M204 S800
G1 F954.706
G1 X84.429 Y67.81 E.07366
G1 X85.709 Y66.457 E.06716
G1 X87.03 Y65.158 E.06678
G1 X88.385 Y63.91 E.06645
G1 X89.794 Y62.695 E.06708
G1 X91.202 Y61.561 E.06518
G1 X92.655 Y60.467 E.06558
G1 X94.214 Y59.376 E.06862
G1 X95.796 Y58.349 E.06799
G1 X97.373 Y57.398 E.06643
G1 X98.988 Y56.495 E.06669
G1 X100.603 Y55.665 E.0655
G1 X102.252 Y54.884 E.06577
G1 X104.025 Y54.116 E.06968
G1 X105.749 Y53.438 E.06681
G1 X107.486 Y52.823 E.06642
G1 X109.262 Y52.259 E.0672
G1 X111.013 Y51.768 E.06557
G1 X112.767 Y51.336 E.06514
G1 X114.642 Y50.944 E.06909
G1 X116.49 Y50.623 E.06761
G1 X118.314 Y50.369 E.06642
G1 X120.167 Y50.173 E.06717
G1 X121.981 Y50.044 E.06556
G1 X123.788 Y49.973 E.06521
G1 X125.721 Y49.966 E.0697
G1 X127.53 Y50.02 E.06528
G1 X129.339 Y50.132 E.06532
G1 X131.238 Y50.314 E.06881
G1 X133.05 Y50.553 E.0659
G1 X134.85 Y50.849 E.06578
G1 X136.74 Y51.227 E.06949
G1 X138.553 Y51.655 E.06718
G1 X140.316 Y52.135 E.06587
G1 X142.07 Y52.675 E.06618
G1 X143.864 Y53.295 E.06842
G1 X145.582 Y53.955 E.06638
G1 X147.28 Y54.672 E.06644
G1 X148.938 Y55.439 E.06589
G1 X150.563 Y56.257 E.06561
G1 X152.251 Y57.181 E.0694
G1 X153.818 Y58.108 E.06564
G1 X155.35 Y59.084 E.06548
G1 X156.89 Y60.142 E.06736
G1 X158.378 Y61.238 E.06665
G1 X159.823 Y62.377 E.06634
G1 X161.25 Y63.585 E.06741
G1 X162.675 Y64.875 E.06932
G1 X163.972 Y66.137 E.06523
G1 X165.229 Y67.438 E.06525
G1 X166.501 Y68.846 E.06841
G1 X167.72 Y70.296 E.06833
G1 X168.864 Y71.755 E.06682
G1 X169.955 Y73.248 E.06668
G1 X171.002 Y74.783 E.067
G1 X171.973 Y76.318 E.06551
G1 X172.889 Y77.872 E.06504
G1 X173.809 Y79.563 E.06942
G1 X174.624 Y81.196 E.06579
G1 X175.381 Y82.842 E.06533
G1 X176.129 Y84.627 E.06979
G1 X176.774 Y86.328 E.06558
G1 X177.359 Y88.038 E.06517
G1 X177.921 Y89.884 E.0696
G1 X178.391 Y91.635 E.06535
G1 X178.803 Y93.403 E.06545
G1 X179.169 Y95.26 E.06825
G1 X179.463 Y97.068 E.06605
G1 X179.698 Y98.886 E.06611
G1 X179.871 Y100.736 E.06699
G1 X179.988 Y102.664 E.06963
G1 X180.034 Y104.475 E.06534
G1 X180.022 Y106.287 E.06534
G1 X179.947 Y108.146 E.06706
G1 X179.813 Y109.987 E.06656
G1 X179.612 Y111.834 E.06701
G1 X179.348 Y113.675 E.06706
G1 X179.028 Y115.489 E.06643
G1 X178.64 Y117.317 E.06738
G1 X178.18 Y119.18 E.06919
G1 X177.681 Y120.927 E.0655
G1 X177.131 Y122.649 E.0652
G1 X176.477 Y124.471 E.06979
G1 X175.807 Y126.154 E.06531
G1 X175.085 Y127.815 E.06528
G1 X174.282 Y129.498 E.06725
G1 X173.434 Y131.135 E.0665
G1 X172.527 Y132.751 E.0668
G1 X171.563 Y134.336 E.06689
G1 X170.553 Y135.884 E.06667
G1 X169.486 Y137.402 E.0669
G1 X168.345 Y138.912 E.06824
G1 X167.152 Y140.385 E.06834
G1 X165.963 Y141.754 E.06538
G1 X164.73 Y143.083 E.06537
G1 X163.37 Y144.454 E.06963
G1 X162.016 Y145.727 E.06701
G1 X160.634 Y146.94 E.06629
G1 X159.2 Y148.117 E.06692
G1 X157.723 Y149.251 E.06713
G1 X156.237 Y150.31 E.06579
G1 X154.711 Y151.326 E.06613
G1 X153.144 Y152.293 E.06637
G1 X151.556 Y153.204 E.06601
G1 X149.915 Y154.073 E.06696
G1 X148.175 Y154.917 E.06973
G1 X146.509 Y155.656 E.06572
G1 X144.841 Y156.334 E.06491
G1 X143.063 Y156.986 E.0683
G1 X141.262 Y157.577 E.06834
G1 X139.52 Y158.083 E.06541
G1 X137.768 Y158.532 E.06523
G1 X135.878 Y158.948 E.06977
G1 X134.102 Y159.275 E.06512
G1 X132.305 Y159.548 E.06554
G1 X130.402 Y159.768 E.06907
G1 X128.535 Y159.92 E.06755
G1 X126.693 Y160.007 E.06649
G1 X124.829 Y160.034 E.06722
G1 X123.016 Y159.998 E.06539
G1 X121.201 Y159.902 E.06553
G1 X119.321 Y159.74 E.06804
G1 X117.463 Y159.514 E.0675
G1 X115.653 Y159.233 E.06605
G1 X113.841 Y158.891 E.06649
G1 X112.032 Y158.484 E.06683
G1 X110.238 Y158.018 E.06683
G1 X108.243 Y157.407 E.07525
G1 X107.357 Y156.909 E.03664
G1 X106.726 Y156.349 E.03043
G1 X106.464 Y156.016 E.01527
G1 X105.426 Y156.111 E.03757
G1 X104.058 Y155.896 E.04994
G1 X102.216 Y155.096 E.0724
G1 X100.564 Y154.311 E.06596
G1 X98.938 Y153.47 E.06603
G1 X97.278 Y152.543 E.06854
G1 X95.709 Y151.591 E.06617
G1 X94.179 Y150.593 E.06587
G1 X92.658 Y149.527 E.06698
G1 X91.177 Y148.414 E.06678
G1 X89.738 Y147.253 E.0667
G1 X88.294 Y146.004 E.06882
G1 X86.961 Y144.771 E.06548
G1 X85.666 Y143.489 E.06569
G1 X84.358 Y142.108 E.0686
G1 X83.147 Y140.736 E.06596
G1 X81.988 Y139.331 E.06568
G1 X80.855 Y137.861 E.06693
G1 X79.766 Y136.349 E.0672
G1 X78.735 Y134.806 E.0669
G1 X77.727 Y133.181 E.06898
G1 X76.826 Y131.61 E.0653
G1 X75.97 Y129.995 E.0659
G1 X75.136 Y128.286 E.06857
G1 X74.391 Y126.619 E.06583
G1 X73.696 Y124.916 E.06631
G1 X73.034 Y123.12 E.06901
M73 P0 R318
G1 X72.464 Y121.392 E.06563
G1 X71.948 Y119.64 E.06584
G1 X71.477 Y117.81 E.06814
G1 X71.071 Y115.976 E.06772
G1 X70.738 Y114.187 E.06561
G1 X70.465 Y112.403 E.06511
G1 X70.238 Y110.495 E.06928
G1 X70.087 Y108.675 E.06582
G1 X69.995 Y106.85 E.0659
G1 X69.966 Y104.928 E.0693
G1 X69.998 Y103.117 E.06531
G1 X70.089 Y101.309 E.06529
G1 X70.248 Y99.414 E.06856
G1 X70.472 Y97.538 E.06813
G1 X70.748 Y95.75 E.06523
G1 X71.08 Y93.967 E.06538
G1 X71.485 Y92.153 E.06705
G1 X71.946 Y90.364 E.06661
G1 X72.469 Y88.584 E.06688
G1 X73.066 Y86.783 E.06844
G1 X73.721 Y85.012 E.06808
G1 X74.424 Y83.296 E.06686
G1 X75.18 Y81.614 E.06648
G1 X75.998 Y79.944 E.06706
G1 X76.869 Y78.306 E.06688
G1 X77.792 Y76.708 E.06653
G1 X78.775 Y75.128 E.06711
G1 X79.776 Y73.634 E.06484
G1 X80.84 Y72.15 E.06583
G1 X82.014 Y70.63 E.06927
G1 X83.04 Y69.389 E.05807
M204 S1000
G1 X83.331 Y69.629 F10800
M204 S800
G1 F954.706
G1 X84.705 Y68.067 E.07502
G1 X85.976 Y66.724 E.06669
G1 X87.287 Y65.434 E.06632
G1 X88.634 Y64.193 E.06601
G1 X90.033 Y62.986 E.06662
G1 X91.436 Y61.857 E.06495
G1 X92.879 Y60.77 E.06513
G1 X94.422 Y59.691 E.06791
G1 X95.993 Y58.671 E.06753
