; generated by PrusaSlicer 2.5.2+win64 on 2023-05-24 at 01:51:11 UTC


;
;
; 

; external perimeters extrusion width = 0.45mm
; perimeters extrusion width = 0.45mm
; infill extrusion width = 0.45mm
; solid infill extrusion width = 0.45mm
; top infill extrusion width = 0.40mm
; first layer extrusion width = 0.42mm

M73 P0 R179
M73 Q0 S180
M201 X1000 Y1000 Z200 E5000 ; sets maximum accelerations, mm/sec^2
M203 X200 Y200 Z12 E120 ; sets maximum feedrates, mm / sec
M204 P1250 R1250 T1250 ; sets acceleration (P, T) and retract acceleration (R), mm/sec^2
M205 X8.00 Y8.00 Z0.40 E4.50 ; sets the jerk limits, mm/sec
M205 S0 T0 ; sets the minimum extruding and travel feed rate, mm/sec
M107
;TYPE:Custom
M862.3 P "MK3S" ; printer model check
M862.1 P0.4 ; nozzle diameter check
M115 U3.12.2 ; tell printer latest fw version
G90 ; use absolute coordinates
M83 ; extruder relative mode
M104 S240 ; set extruder temp
M140 S50 ; set bed temp
M190 S50 ; wait for bed temp
M109 S240 ; wait for extruder temp
G28 W ; home all without mesh bed level
G80 ; mesh bed leveling

G1 Z0.2 F720
G1 Y-3 F1000 ; go outside print area
G92 E0
G1 X60 E9 F1000 ; intro line
G1 X100 E12.5 F1000 ; intro line

G92 E0
M221 S95

; Don't change E values below. Excessive value can damage the printer.

G21 ; set units to millimeters
G90 ; use absolute coordinates
M83 ; use relative distances for extrusion
M900 K0 ; Filament gcode
M107
;LAYER_CHANGE
;Z:0.2
;HEIGHT:0.2
;BEFORE_LAYER_CHANGE
G92 E0.0
;0.2


M73 Q0 S179
G1 Z.2 F720
;AFTER_LAYER_CHANGE
;0.2
G1 X83.253 Y69.341 F10800
M204 S800
;TYPE:Skirt/Brim
;WIDTH:0.42
G1 F954.706
G1 X84.56 Y67.865 E.07111
G1 X87.031 Y65.341 E.12734
G1 X88.513 Y63.974 E.07271
G1 X91.222 Y61.717 E.12714
G1 X94.355 Y59.444 E.13956
G1 X97.338 Y57.574 E.12696
G1 X99.063 Y56.608 E.07128
G1 X102.265 Y55.023 E.12882
G1 X104.112 Y54.225 E.07256
G1 X107.425 Y52.985 E.12753
G1 X109.302 Y52.387 E.07103
G1 X111.128 Y51.877 E.06837
G1 X114.688 Y51.073 E.13161
G1 X118.216 Y50.517 E.12876
G1 X120.182 Y50.307 E.07132
G1 X123.744 Y50.11 E.1286
G1 X125.637 Y50.1 E.06829
G1 X127.604 Y50.158 E.07095
G1 X131.169 Y50.442 E.12895
G1 X133.127 Y50.701 E.07121
G1 X136.63 Y51.34 E.12839
G1 X138.567 Y51.797 E.07175
G1 X141.986 Y52.789 E.12835
G1 X143.855 Y53.436 E.07135
G1 X147.131 Y54.754 E.12731
G1 X148.958 Y55.599 E.0726
G1 X152.084 Y57.241 E.12732
G1 X155.378 Y59.266 E.13941
G1 X158.249 Y61.309 E.12706
G1 X159.8 Y62.533 E.07125
G1 X162.491 Y64.89 E.12895
G1 X163.907 Y66.261 E.0711
G1 X166.343 Y68.874 E.12879
G1 X167.614 Y70.382 E.07111
G1 X169.773 Y73.223 E.12867
G1 X170.842 Y74.785 E.06826
G1 X171.9 Y76.453 E.07122
G1 X173.656 Y79.563 E.12876
G1 X174.541 Y81.333 E.07136
G1 X175.956 Y84.559 E.12702
G1 X176.673 Y86.446 E.07281
G1 X177.77 Y89.842 E.12867
G1 X178.281 Y91.755 E.07139
G1 X179.02 Y95.194 E.12682
G1 X179.576 Y99.027 E.13964
G1 X179.846 Y102.545 E.12725
G1 X179.901 Y104.56 E.07269
G1 X179.815 Y108.09 E.1273
G1 X179.668 Y110.061 E.07127
G1 X179.222 Y113.604 E.12878
G1 X178.879 Y115.54 E.07088
G1 X178.485 Y117.393 E.06833
G1 X177.565 Y120.847 E.12887
G1 X176.396 Y124.302 E.13152
G1 X175.667 Y126.144 E.07142
G1 X174.906 Y127.882 E.06841
G1 X173.276 Y131.143 E.13146
G1 X171.47 Y134.232 E.12901
G1 X170.393 Y135.88 E.07099
G1 X169.302 Y137.424 E.06818
G1 X167.099 Y140.237 E.12883
G1 X164.668 Y142.954 E.13147
G1 X163.358 Y144.276 E.06711
G1 X161.892 Y145.657 E.07262
G1 X159.173 Y147.967 E.12865
G1 X157.61 Y149.163 E.07097
G1 X154.702 Y151.171 E.12742
G1 X152.984 Y152.231 E.07279
G1 X149.894 Y153.931 E.12715
G1 X146.389 Y155.561 E.1394
G1 X143.099 Y156.831 E.12716
G1 X141.221 Y157.448 E.07127
G1 X137.777 Y158.393 E.12878
G1 X135.85 Y158.815 E.07112
G1 X133.99 Y159.159 E.06822
G1 X130.445 Y159.629 E.12893
G1 X126.804 Y159.869 E.13156
G1 X124.825 Y159.9 E.07137
G1 X121.261 Y159.772 E.1286
G1 X119.418 Y159.616 E.06669
G1 X115.629 Y159.095 E.13791
G1 X113.772 Y158.739 E.06817
G1 X110.345 Y157.907 E.12718
G1 X106.754 Y156.846 E.13499
G1 X105.656 Y156.443 E.04218
G1 X102.255 Y154.967 E.1337
G1 X99.056 Y153.383 E.1287
G1 X97.298 Y152.397 E.07266
G1 X94.31 Y150.52 E.12726
G1 X92.652 Y149.359 E.07299
G1 X89.845 Y147.168 E.12837
G1 X88.347 Y145.874 E.07138
G1 X85.795 Y143.431 E.12738
G1 X84.414 Y141.968 E.07255
G1 X82.098 Y139.257 E.12858
G1 X80.888 Y137.684 E.07157
G1 X78.86 Y134.75 E.1286
G1 X77.819 Y133.071 E.0712
G1 X76.096 Y129.949 E.1286
G1 X75.228 Y128.17 E.07138
G1 X73.843 Y124.93 E.12704
G1 X73.146 Y123.035 E.0728
G1 X72.081 Y119.624 E.12885
G1 X71.592 Y117.715 E.07106
G1 X70.884 Y114.259 E.12718
G1 X70.368 Y110.425 E.13952
G1 X70.13 Y106.907 E.12714
G1 X70.099 Y104.925 E.07147
G1 X70.218 Y101.367 E.12837
G1 X70.384 Y99.396 E.0713
G1 X70.609 Y97.515 E.06831
G1 X71.228 Y93.914 E.13176
G1 X71.641 Y92.068 E.06822
G1 X72.596 Y88.626 E.12878
G1 X73.797 Y85.184 E.13146
G1 X74.512 Y83.425 E.06845
G1 X75.322 Y81.626 E.07113
G1 X76.944 Y78.447 E.12872
G1 X78.817 Y75.309 E.13178
G1 X79.869 Y73.733 E.06832
G1 X81.022 Y72.131 E.07117
G1 X83.215 Y69.388 E.12662
M204 S1000
G1 X85.268 Y71.083 F10800
M204 S800
G1 F954.706
G1 X86.498 Y69.692 E.06696
G1 X87.68 Y68.445 E.06198
G1 X88.899 Y67.24 E.06181
G1 X90.256 Y65.989 E.06654
G1 X91.569 Y64.858 E.06248
G1 X92.922 Y63.768 E.06265
G1 X94.317 Y62.719 E.06292
G1 X95.736 Y61.725 E.06248
G1 X97.214 Y60.763 E.06358
G1 X98.789 Y59.811 E.06637
G1 X100.295 Y58.971 E.06217
G1 X101.825 Y58.18 E.0621
G1 X103.481 Y57.396 E.06608
G1 X105.057 Y56.716 E.06189
G1 X106.65 Y56.088 E.06173
G1 X108.317 Y55.495 E.0638
G1 X109.982 Y54.964 E.06303
G1 X111.677 Y54.486 E.0635
G1 X113.396 Y54.066 E.06379
G1 X115.105 Y53.705 E.06299
G1 X116.84 Y53.4 E.06351
G1 X118.624 Y53.15 E.06498
G1 X120.418 Y52.96 E.06505
G1 X122.131 Y52.838 E.06192
G1 X123.842 Y52.772 E.06173
G1 X125.688 Y52.764 E.06655
G1 X127.444 Y52.816 E.06335
G1 X129.172 Y52.925 E.06245
G1 X130.894 Y53.091 E.06238
G1 X132.697 Y53.33 E.06558
G1 X134.418 Y53.616 E.06292
G1 X136.143 Y53.96 E.0634
G1 X137.872 Y54.369 E.06406
G1 X139.55 Y54.827 E.06273
G1 X141.22 Y55.341 E.063
G1 X142.858 Y55.907 E.06248
G1 X144.469 Y56.523 E.0622
G1 X146.09 Y57.206 E.06341
G1 X147.764 Y57.98 E.06649
G1 X149.294 Y58.752 E.0618
G1 X150.802 Y59.576 E.06198
G1 X152.358 Y60.495 E.06517
G1 X153.874 Y61.465 E.06487
G1 X155.283 Y62.433 E.06166
G1 X156.666 Y63.451 E.06191
G1 X158.113 Y64.594 E.0665
G1 X159.458 Y65.735 E.06359
G1 X160.754 Y66.912 E.06312
G1 X162.02 Y68.141 E.06362
G1 X163.208 Y69.374 E.06171
G1 X164.362 Y70.654 E.06217
G1 X165.546 Y72.061 E.06631
G1 X166.609 Y73.414 E.06203
G1 X167.623 Y74.795 E.06176
G1 X168.663 Y76.32 E.06656
G1 X169.606 Y77.808 E.06353
G1 X170.486 Y79.308 E.06271
G1 X171.316 Y80.836 E.06268
G1 X172.121 Y82.447 E.06497
G1 X172.844 Y84.027 E.06263
G1 X173.513 Y85.622 E.06237
G1 X174.154 Y87.312 E.06519
G1 X174.713 Y88.95 E.06238
G1 X175.218 Y90.608 E.06249
G1 X175.687 Y92.361 E.06543
G1 X176.078 Y94.056 E.06274
G1 X176.418 Y95.774 E.06313
G1 X176.703 Y97.531 E.0642
G1 X176.92 Y99.243 E.06221
G1 X177.082 Y100.967 E.06247
G1 X177.188 Y102.72 E.06331
G1 X177.237 Y104.465 E.06293
G1 X177.225 Y106.218 E.06321
G1 X177.15 Y108.039 E.06574
G1 X177.02 Y109.769 E.06255
G1 X176.833 Y111.489 E.06236
G1 X176.579 Y113.265 E.06471
G1 X176.275 Y114.982 E.06286
G1 X175.916 Y116.679 E.06254
G1 X175.484 Y118.425 E.06488
G1 X174.993 Y120.152 E.06473
G1 X174.466 Y121.785 E.06189
G1 X173.889 Y123.402 E.06189
G1 X173.211 Y125.113 E.06637
G1 X172.501 Y126.737 E.06391
G1 X171.743 Y128.318 E.0632
G1 X170.932 Y129.878 E.06341
G1 X170.067 Y131.414 E.06355
G1 X169.164 Y132.896 E.06259
G1 X168.204 Y134.361 E.06316
G1 X167.175 Y135.822 E.06442
G1 X166.136 Y137.195 E.06208
G1 X165.049 Y138.536 E.06225
G1 X163.904 Y139.857 E.06303
G1 X162.711 Y141.148 E.06338
G1 X161.464 Y142.403 E.06379
G1 X160.137 Y143.653 E.06576
G1 X158.844 Y144.788 E.06202
G1 X157.51 Y145.886 E.06229
G1 X156.115 Y146.956 E.06341
G1 X154.689 Y147.979 E.06326
G1 X153.224 Y148.956 E.06351
G1 X151.718 Y149.885 E.0638
G1 X150.2 Y150.755 E.06309
G1 X148.622 Y151.59 E.06436
G1 X147.046 Y152.355 E.06317
G1 X145.457 Y153.063 E.06272
G1 X143.829 Y153.724 E.06337
G1 X142.11 Y154.355 E.066
G1 X140.468 Y154.893 E.06232
G1 X138.801 Y155.38 E.06262
G1 X137.041 Y155.83 E.06551
G1 X135.359 Y156.197 E.06209
G1 X133.669 Y156.513 E.06199
G1 X131.889 Y156.781 E.0649
G1 X130.107 Y156.986 E.06467
G1 X128.395 Y157.124 E.06193
G1 X126.68 Y157.209 E.06194
G1 X124.832 Y157.236 E.06663
G1 X123.109 Y157.201 E.06215
G1 X121.399 Y157.112 E.06174
G1 X119.593 Y156.956 E.06534
G1 X117.866 Y156.746 E.06275
G1 X116.149 Y156.482 E.06263
G1 X114.417 Y156.153 E.06359
G1 X112.695 Y155.766 E.06362
G1 X111.005 Y155.327 E.06296
G1 X109.115 Y154.755 E.07122
G1 X108.122 Y154.213 E.04079
G1 X107.455 Y153.633 E.03186
G1 X107.33 Y153.488 E.0069
G1 X106.498 Y153.554 E.03009
G1 X105.192 Y153.328 E.04777
G1 X103.359 Y152.543 E.07191
G1 X101.8 Y151.801 E.06226
G1 X100.271 Y151.012 E.06206
G1 X98.735 Y150.152 E.06344
G1 X97.237 Y149.247 E.06311
G1 X95.758 Y148.284 E.06365
G1 X94.265 Y147.239 E.06571
G1 X92.877 Y146.191 E.06269
G1 X91.52 Y145.096 E.06289
G1 X90.158 Y143.92 E.0649
G1 X88.885 Y142.741 E.06256
G1 X87.656 Y141.526 E.0623
G1 X86.45 Y140.249 E.06334
G1 X85.3 Y138.948 E.06259
G1 X84.138 Y137.543 E.06575
G1 X83.055 Y136.135 E.06405
G1 X82.05 Y134.73 E.06229
G1 X81.089 Y133.291 E.0624
G1 X80.127 Y131.741 E.06579
G1 X79.269 Y130.246 E.06214
G1 X78.46 Y128.722 E.06221
G1 X77.667 Y127.097 E.06521
G1 X76.964 Y125.523 E.06215
G1 X76.306 Y123.913 E.06273
G1 X75.694 Y122.254 E.06374
G1 X75.142 Y120.587 E.06333
G1 X74.648 Y118.911 E.063
G1 X74.208 Y117.201 E.06366
G1 X73.826 Y115.487 E.06334
G1 X73.499 Y113.751 E.06369
G1 X73.236 Y112.016 E.06328
G1 X73.03 Y110.282 E.06296
G1 X72.882 Y108.53 E.06338
G1 X72.789 Y106.732 E.06492
G1 X72.763 Y104.928 E.06506
G1 X72.793 Y103.219 E.06162
G1 X72.878 Y101.504 E.06191
G1 X73.034 Y99.665 E.06658
G1 X73.243 Y97.915 E.06355
G1 X73.508 Y96.197 E.06266
G1 X73.831 Y94.479 E.06303
G1 X74.221 Y92.731 E.06461
G1 X74.651 Y91.073 E.06174
G1 X75.139 Y89.418 E.06224
G1 X75.693 Y87.748 E.06343
G1 X76.295 Y86.11 E.06293
G1 X76.97 Y84.451 E.06459
G1 X77.688 Y82.854 E.06312
G1 X78.45 Y81.292 E.06267
G1 X79.284 Y79.72 E.06416
G1 X80.16 Y78.199 E.0633
G1 X81.078 Y76.717 E.06285
G1 X82.058 Y75.251 E.06361
G1 X83.134 Y73.754 E.06645
G1 X84.182 Y72.397 E.06183
G1 X85.229 Y71.13 E.05929
M204 S1000
G1 X85.52 Y71.37 F10800
M204 S800
G1 F954.706
G1 X86.774 Y69.949 E.06831
G1 X87.952 Y68.706 E.06175
G1 X89.162 Y67.51 E.06136
G1 X90.505 Y66.272 E.06584
G1 X91.808 Y65.15 E.06204
G1 X93.156 Y64.064 E.06242
G1 X94.536 Y63.026 E.06224
G1 X95.95 Y62.035 E.06225
G1 X97.417 Y61.081 E.06311
G1 X98.976 Y60.138 E.06568
G1 X100.476 Y59.301 E.06194
G1 X101.995 Y58.517 E.06166
G1 X103.634 Y57.741 E.06537
G1 X105.198 Y57.066 E.06144
G1 X106.785 Y56.44 E.0615
G1 X108.44 Y55.851 E.06334
G1 X110.094 Y55.324 E.06258
G1 X111.776 Y54.85 E.06303
M73 P0 R178
G1 X113.482 Y54.433 E.06332
G1 X115.18 Y54.075 E.06255
G1 X116.902 Y53.772 E.06305
G1 X118.673 Y53.524 E.06451
G1 X120.448 Y53.336 E.06435
G1 X122.149 Y53.215 E.06147
G1 X123.853 Y53.148 E.0615
G1 X125.68 Y53.141 E.06586
G1 X127.423 Y53.193 E.0629
G1 X129.139 Y53.301 E.062
G1 X130.848 Y53.466 E.0619
G1 X132.638 Y53.703 E.06512
G1 X134.348 Y53.987 E.06249
G1 X136.059 Y54.327 E.06293
G1 X137.776 Y54.733 E.06359
G1 X139.448 Y55.19 E.06251
G1 X141.106 Y55.7 E.06256
G1 X142.732 Y56.262 E.06202
G1 X144.331 Y56.874 E.06175
G1 X145.94 Y57.552 E.06296
G1 X147.597 Y58.318 E.06579
G1 X149.116 Y59.084 E.06135
G1 X150.618 Y59.905 E.06175
G1 X152.158 Y60.815 E.06447
G1 X153.663 Y61.777 E.06441
G1 X155.067 Y62.742 E.06144
G1 X156.44 Y63.753 E.06146
G1 X157.872 Y64.884 E.0658
G1 X159.207 Y66.016 E.06312
G1 X160.494 Y67.185 E.06267
G1 X161.751 Y68.405 E.06317
G1 X162.934 Y69.633 E.06148
G1 X164.08 Y70.904 E.06172
G1 X165.252 Y72.297 E.06562
G1 X166.307 Y73.64 E.06158
G1 X167.317 Y75.015 E.06153
G1 X168.346 Y76.524 E.06587
G1 X169.282 Y78.001 E.06306
G1 X170.159 Y79.496 E.06248
G1 X170.98 Y81.007 E.062
G1 X171.78 Y82.607 E.0645
G1 X172.497 Y84.175 E.06218
G1 X173.164 Y85.765 E.06215
G1 X173.799 Y87.437 E.0645
G1 X174.353 Y89.063 E.06193
G1 X174.857 Y90.714 E.06226
G1 X175.32 Y92.449 E.06473
G1 X175.709 Y94.132 E.0623
G1 X176.048 Y95.844 E.0629
G1 X176.33 Y97.582 E.06349
G1 X176.546 Y99.287 E.06198
G1 X176.706 Y101 E.06202
G1 X176.812 Y102.74 E.06286
G1 X176.86 Y104.472 E.06248
G1 X176.848 Y106.212 E.06274
G1 X176.774 Y108.014 E.06504
G1 X176.645 Y109.732 E.06209
G1 X176.459 Y111.445 E.06213
G1 X176.207 Y113.202 E.06402
G1 X175.905 Y114.907 E.06242
G1 X175.548 Y116.598 E.06231
G1 X175.119 Y118.331 E.06441
G1 X174.633 Y120.039 E.06402
G1 X174.108 Y121.667 E.06166
G1 X173.535 Y123.272 E.06146
G1 X172.865 Y124.965 E.06566
G1 X172.159 Y126.577 E.06344
G1 X171.407 Y128.146 E.06276
G1 X170.602 Y129.696 E.06296
G1 X169.743 Y131.22 E.06309
G1 X168.843 Y132.697 E.06236
G1 X167.894 Y134.147 E.06248
G1 X166.872 Y135.597 E.06396
G1 X165.837 Y136.965 E.06186
G1 X164.758 Y138.296 E.0618
G1 X163.621 Y139.608 E.06258
G1 X162.436 Y140.889 E.06293
G1 X161.199 Y142.135 E.06331
G1 X159.885 Y143.372 E.06507
G1 X158.602 Y144.499 E.06157
G1 X157.273 Y145.593 E.06207
G1 X155.888 Y146.655 E.06295
G1 X154.472 Y147.67 E.06282
G1 X153.017 Y148.64 E.06304
G1 X151.523 Y149.563 E.06333
G1 X150.015 Y150.426 E.06263
G1 X148.449 Y151.255 E.0639
G1 X146.884 Y152.015 E.06271
G1 X145.307 Y152.717 E.06226
G1 X143.69 Y153.373 E.06292
G1 X141.99 Y153.997 E.0653
G1 X140.353 Y154.534 E.06209
G1 X138.698 Y155.017 E.06217
G1 X136.957 Y155.463 E.0648
G1 X135.281 Y155.828 E.06186
G1 X133.603 Y156.141 E.06156
G1 X131.836 Y156.407 E.06442
G1 X130.074 Y156.61 E.06397
G1 X128.374 Y156.748 E.06149
M73 Q0 S178
G1 X126.664 Y156.832 E.06172
G1 X124.836 Y156.859 E.06592
G1 X123.125 Y156.824 E.0617
G1 X121.422 Y156.735 E.06151
G1 X119.636 Y156.581 E.06464
G1 X117.92 Y156.373 E.0623
G1 X116.21 Y156.11 E.0624
G1 X114.49 Y155.783 E.06312
G1 X112.781 Y155.399 E.06317
G1 X111.104 Y154.963 E.06248
G1 X109.243 Y154.4 E.07009
G1 X108.322 Y153.893 E.03791
G1 X107.717 Y153.362 E.02904
G1 X107.498 Y153.094 E.01247
G1 X106.536 Y153.178 E.0348
G1 X105.32 Y152.972 E.04447
G1 X103.518 Y152.201 E.07068
G1 X101.97 Y151.464 E.0618
G1 X100.446 Y150.678 E.06183
G1 X98.922 Y149.825 E.06298
G1 X97.435 Y148.926 E.06265
G1 X95.966 Y147.97 E.0632
G1 X94.489 Y146.936 E.065
G1 X93.107 Y145.892 E.06246
G1 X91.759 Y144.805 E.06245
G1 X90.411 Y143.641 E.06421
G1 X89.148 Y142.471 E.0621
G1 X87.924 Y141.26 E.06207
G1 X86.727 Y139.992 E.06288
G1 X85.585 Y138.701 E.06214
G1 X84.435 Y137.311 E.06505
G1 X83.36 Y135.913 E.06358
G1 X82.358 Y134.514 E.06206
G1 X81.404 Y133.084 E.06195
G1 X80.452 Y131.55 E.0651
G1 X79.601 Y130.066 E.06169
G1 X78.794 Y128.548 E.06199
G1 X78.01 Y126.94 E.06451
G1 X77.309 Y125.372 E.06192
G1 X76.656 Y123.773 E.06228
G1 X76.049 Y122.127 E.06327
G1 X75.5 Y120.472 E.06288
G1 X75.01 Y118.808 E.06254
G1 X74.574 Y117.11 E.0632
G1 X74.195 Y115.408 E.0629
G1 X73.87 Y113.684 E.06324
G1 X73.609 Y111.962 E.06281
G1 X73.405 Y110.24 E.06251
G1 X73.258 Y108.501 E.06293
G1 X73.166 Y106.716 E.06446
G1 X73.14 Y104.932 E.06435
G1 X73.17 Y103.229 E.0614
G1 X73.255 Y101.526 E.06146
G1 X73.409 Y99.706 E.06587
G1 X73.616 Y97.969 E.06308
G1 X73.879 Y96.264 E.06221
G1 X74.201 Y94.552 E.0628
G1 X74.587 Y92.822 E.06391
G1 X75.014 Y91.177 E.06129
G1 X75.498 Y89.533 E.06178
G1 X76.048 Y87.875 E.06299
G1 X76.648 Y86.243 E.0627
G1 X77.316 Y84.602 E.06387
G1 X78.028 Y83.017 E.06267
G1 X78.788 Y81.461 E.06245
G1 X79.612 Y79.906 E.06346
G1 X80.482 Y78.395 E.06285
G1 X81.397 Y76.919 E.06263
G1 X82.37 Y75.463 E.06314
G1 X83.434 Y73.982 E.06575
G1 X84.479 Y72.63 E.0616
G1 X85.482 Y71.416 E.05679
M204 S1000
G1 X85.772 Y71.656 F10800
M204 S800
G1 F954.706
G1 X87.05 Y70.207 E.06967
G1 X88.219 Y68.972 E.0613
G1 X89.425 Y67.781 E.06113
G1 X90.753 Y66.556 E.06514
G1 X92.052 Y65.438 E.06181
G1 X93.391 Y64.359 E.06198
G1 X94.76 Y63.329 E.06178
G1 X96.163 Y62.346 E.06179
G1 X97.62 Y61.399 E.06265
G1 X99.162 Y60.466 E.06499
G1 X100.652 Y59.635 E.06149
