; generated by PrusaSlicer 2.5.2+win64 on 2023-05-24 at 01:50:34 UTC


;
;
; 

; external perimeters extrusion width = 0.45mm
; perimeters extrusion width = 0.45mm
; infill extrusion width = 0.45mm
; solid infill extrusion width = 0.45mm
; top infill extrusion width = 0.40mm
; first layer extrusion width = 0.42mm

M73 P0 R58
M73 Q0 S58
M201 X1000 Y1000 Z200 E5000 ; sets maximum accelerations, mm/sec^2
M203 X200 Y200 Z12 E120 ; sets maximum feedrates, mm / sec
M204 P1250 R1250 T1250 ; sets acceleration (P, T) and retract acceleration (R), mm/sec^2
M205 X8.00 Y8.00 Z0.40 E4.50 ; sets the jerk limits, mm/sec
M205 S0 T0 ; sets the minimum extruding and travel feed rate, mm/sec
M107
;TYPE:Custom
M862.3 P "MK3S" ; printer model check
M862.1 P0.4 ; nozzle diameter check
M115 U3.12.2 ; tell printer latest fw version
G90 ; use absolute coordinates
M83 ; extruder relative mode
M104 S240 ; set extruder temp
M140 S50 ; set bed temp
M190 S50 ; wait for bed temp
M109 S240 ; wait for extruder temp
G28 W ; home all without mesh bed level
G80 ; mesh bed leveling

G1 Z0.2 F720
G1 Y-3 F1000 ; go outside print area
G92 E0
G1 X60 E9 F1000 ; intro line
G1 X100 E12.5 F1000 ; intro line

G92 E0
M221 S95

; Don't change E values below. Excessive value can damage the printer.

G21 ; set units to millimeters
G90 ; use absolute coordinates
M83 ; use relative distances for extrusion
M900 K0 ; Filament gcode
M107
;LAYER_CHANGE
;Z:0.2
;HEIGHT:0.2
;BEFORE_LAYER_CHANGE
G92 E0.0
;0.2


G1 Z.2 F720
;AFTER_LAYER_CHANGE
;0.2
G1 X86.977 Y72.527 F10800
M204 S800
;TYPE:Skirt/Brim
;WIDTH:0.42
G1 F954.706
G1 X88.147 Y71.205 E.06365
G1 X90.448 Y68.856 E.11856
G1 X91.742 Y67.662 E.06349
G1 X94.269 Y65.555 E.11862
G1 X95.678 Y64.498 E.06352
G1 X98.401 Y62.658 E.11851
G1 X99.912 Y61.746 E.06363
G1 X102.807 Y60.191 E.11849
G1 X104.402 Y59.435 E.06365
G1 X107.437 Y58.181 E.11841
G1 X109.103 Y57.589 E.06375
G1 X112.25 Y56.649 E.11841
G1 X115.529 Y55.901 E.12129
G1 X117.19 Y55.609 E.06079
G1 X120.614 Y55.188 E.12439
G1 X123.893 Y55.008 E.11842
G1 X125.655 Y55.001 E.06353
G1 X128.941 Y55.151 E.11861
G1 X130.616 Y55.311 E.06065
G1 X133.945 Y55.801 E.12135
G1 X135.601 Y56.132 E.06089
G1 X138.941 Y56.977 E.12423
G1 X142.067 Y57.998 E.11856
G1 X143.714 Y58.628 E.0636
G1 X146.717 Y59.957 E.11841
G1 X148.295 Y60.752 E.06371
G1 X151.149 Y62.377 E.11842
G1 X152.637 Y63.326 E.06363
G1 X155.314 Y65.232 E.11853
G1 X156.697 Y66.327 E.06357
G1 X159.169 Y68.491 E.11848
G1 X160.437 Y69.72 E.06366
G1 X162.677 Y72.124 E.11849
G1 X163.815 Y73.474 E.06367
G1 X165.801 Y76.092 E.11848
G1 X166.795 Y77.549 E.06359
G1 X168.507 Y80.351 E.1184
G1 X169.352 Y81.905 E.06379
G1 X170.77 Y84.863 E.1183
G1 X171.453 Y86.492 E.06366
G1 X172.051 Y88.068 E.0608
G1 X173.06 Y91.193 E.11839
G1 X173.516 Y92.898 E.06363
G1 X174.207 Y96.111 E.11852
G1 X174.489 Y97.852 E.06361
G1 X174.853 Y101.116 E.11839
G1 X174.957 Y102.881 E.06375
G1 X174.99 Y106.164 E.11839
G1 X174.917 Y107.929 E.06369
G1 X174.616 Y111.203 E.11856
G1 X174.367 Y112.951 E.06367
G1 X173.739 Y116.171 E.1183
G1 X172.852 Y119.506 E.1244
G1 X171.794 Y122.618 E.11853
G1 X171.145 Y124.258 E.06361
G1 X169.78 Y127.247 E.11846
G1 X168.966 Y128.813 E.06366
G1 X167.31 Y131.648 E.11838
G1 X166.341 Y133.127 E.06375
G1 X164.403 Y135.781 E.1185
G1 X163.293 Y137.153 E.06363
G1 X161.1 Y139.595 E.11834
G1 X159.855 Y140.851 E.06377
G1 X157.426 Y143.061 E.11843
G1 X156.063 Y144.182 E.06363
G1 X153.421 Y146.137 E.11849
G1 X151.954 Y147.113 E.06353
G1 X150.519 Y147.999 E.06081
G1 X147.641 Y149.581 E.11841
G1 X146.053 Y150.351 E.06365
G1 X143.031 Y151.636 E.11842
G1 X141.372 Y152.244 E.06369
G1 X138.234 Y153.217 E.11847
G1 X134.877 Y154.015 E.12442
G1 X131.638 Y154.556 E.11839
G1 X129.888 Y154.76 E.06352
G1 X128.206 Y154.897 E.06088
G1 X124.842 Y155 E.12136
G1 X121.559 Y154.881 E.11846
G1 X119.803 Y154.727 E.06354
G1 X118.128 Y154.526 E.06084
G1 X114.893 Y153.967 E.11837
G1 X113.17 Y153.579 E.06366
G1 X110.004 Y152.698 E.11849
G1 X105.832 Y151.178 E.16013
G1 X102.836 Y149.819 E.11862
G1 X101.268 Y149.008 E.06363
G1 X98.43 Y147.356 E.11843
G1 X96.954 Y146.392 E.06356
G1 X95.571 Y145.422 E.06089
G1 X92.922 Y143.352 E.12123
G1 X91.645 Y142.248 E.06086
G1 X89.274 Y139.982 E.11828
G1 X87.001 Y137.496 E.12144
G1 X85.926 Y136.195 E.06086
G1 X84.852 Y134.799 E.0635
G1 X82.979 Y132.096 E.11857
G1 X82.049 Y130.597 E.06361
G1 X80.462 Y127.722 E.11842
G1 X79.001 Y124.597 E.12437
G1 X77.813 Y121.537 E.11835
G1 X77.258 Y119.857 E.06383
G1 X76.387 Y116.69 E.11843
G1 X76.005 Y114.97 E.06352
G1 X75.695 Y113.311 E.06084
G1 X75.248 Y109.977 E.12128
G1 X75.027 Y106.698 E.1185
G1 X75 Y104.933 E.06365
G1 X75.111 Y101.652 E.11838
G1 X75.26 Y99.895 E.06361
G1 X75.46 Y98.217 E.06091
G1 X76.029 Y94.9 E.12134
G1 X76.8 Y91.705 E.11853
G1 X77.296 Y90.016 E.06349
G1 X77.828 Y88.414 E.06085
G1 X79.052 Y85.278 E.12139
G1 X80.445 Y82.305 E.11838
G1 X81.274 Y80.745 E.06369
G1 X82.962 Y77.927 E.11845
G1 X83.942 Y76.463 E.06352
G1 X84.927 Y75.093 E.06085
G1 X86.939 Y72.573 E.11626
M204 S1000
; printing object Spacer 0.75in - Split - 1mm id:0 copy 0
G1 X116.926 Y133.221 F10800
M204 S800
;TYPE:Perimeter
;WIDTH:0.419999
G1 F954.707
G1 X117.405 Y133.36 E.018
G1 X118.64 Y133.662 E.04585
G1 X119.864 Y133.906 E.04498
G1 X121.146 Y134.105 E.04677
G1 X122.409 Y134.244 E.04582
G1 X123.324 Y134.306 E.03307
G1 X124.949 Y134.36 E.05865
G1 X125.995 Y134.34 E.03772
G1 X127.491 Y134.252 E.05403
G1 X128.757 Y134.118 E.0459
G1 X130.016 Y133.928 E.04589
G1 X131.262 Y133.684 E.04579
G1 X132.888 Y133.275 E.06047
G1 X133.722 Y133.033 E.03131
G1 X134.928 Y132.63 E.04584
G1 X136.116 Y132.175 E.04589
G1 X137.283 Y131.667 E.04587
G1 X138.808 Y130.905 E.06148
G1 X139.545 Y130.505 E.03022
G1 X140.353 Y130.021 E.03398
G1 X141.698 Y129.15 E.05778
G1 X142.708 Y128.42 E.04492
G1 X143.111 Y128.101 E.01855
G1 X143.726 Y127.613 E.0283
G1 X144.687 Y126.782 E.04581
G1 X145.368 Y126.141 E.03372
G1 X146.499 Y124.996 E.05803
G1 X147.346 Y124.046 E.0459
G1 X148.347 Y122.795 E.05777
G1 X148.911 Y122.04 E.03397
G1 X149.625 Y120.99 E.04578
G1 X150.37 Y119.778 E.0513
G1 X150.918 Y118.798 E.0405
G1 X151.49 Y117.663 E.04582
G1 X152.016 Y116.504 E.04589
G1 X152.488 Y115.322 E.04589
G1 X152.909 Y114.122 E.04584
G1 X153.19 Y113.196 E.0349
G1 X153.594 Y111.673 E.05684
G1 X153.857 Y110.429 E.04582
M73 P0 R57
G1 X154.065 Y109.176 E.0458
G1 X154.217 Y107.91 E.046
G1 X154.317 Y106.643 E.04583
G1 X154.36 Y105.373 E.04583
G1 X154.35 Y104.124 E.04503
G1 X154.276 Y102.751 E.04959
G1 X154.161 Y101.56 E.04311
G1 X154.019 Y100.548 E.03685
G1 X153.714 Y98.871 E.06147
G1 X153.472 Y97.815 E.03907
G1 X153.132 Y96.584 E.04606
G1 X152.631 Y95.077 E.05724
G1 X152.298 Y94.182 E.03443
G1 X151.804 Y93.008 E.04593
G1 X151.259 Y91.86 E.04583
G1 X150.666 Y90.735 E.04585
G1 X150.158 Y89.861 E.03645
G1 X149.785 Y89.263 E.02542
G1 X149.334 Y88.566 E.02992
G1 X148.601 Y87.53 E.04578
G1 X147.823 Y86.523 E.04589
G1 X147.001 Y85.551 E.04591
G1 X145.955 Y84.435 E.05515
G1 X145.235 Y83.721 E.03655
G1 X144.295 Y82.864 E.04587
G1 X143.057 Y81.851 E.05766
G1 X142.306 Y81.279 E.03405
G1 X140.912 Y80.326 E.0609
G1 X140.188 Y79.867 E.0309
G1 X139.38 Y79.403 E.03357
G1 X137.955 Y78.647 E.05816
G1 X136.802 Y78.111 E.04587
G1 X135.927 Y77.75 E.03413
G1 X134.429 Y77.19 E.05765
G1 X133.218 Y76.81 E.04577
G1 X131.988 Y76.48 E.04591
G1 X130.44 Y76.15 E.05706
G1 X129.496 Y75.982 E.03459
G1 X127.78 Y75.773 E.06234
G1 X126.907 Y75.698 E.03157
G1 X125.698 Y75.644 E.04364
G1 X124.438 Y75.64 E.04544
M73 Q0 S57
G1 X122.843 Y75.72 E.05759
G1 X121.889 Y75.801 E.03451
G1 X120.624 Y75.962 E.04598
G1 X119.37 Y76.179 E.0459
G1 X118.127 Y76.451 E.04589
G1 X116.612 Y76.864 E.05659
G1 X115.684 Y77.152 E.03505
G1 X114.486 Y77.583 E.0459
G1 X113.308 Y78.064 E.04587
G1 X112.69 Y78.348 E.02453
G1 X112.152 Y78.596 E.02137
G1 X111.28 Y79.044 E.03533
G1 X109.918 Y79.806 E.05628
G1 X108.837 Y80.485 E.04602
G1 X107.598 Y81.355 E.05461
G1 X106.776 Y81.978 E.03717
G1 X105.797 Y82.786 E.04578
G1 X104.527 Y83.961 E.06241
M73 Q1 S57
G1 X103.949 Y84.53 E.02924
G1 X103.432 Y85.084 E.02729
G1 X102.881 Y85.695 E.02969
G1 X102.256 Y86.431 E.03483
G1 X101.474 Y87.433 E.04583
G1 X100.871 Y88.276 E.03735
M73 P1 R57
G1 X100.48 Y88.858 E.0253
G1 X100.042 Y89.534 E.02902
G1 X99.393 Y90.63 E.04596
G1 X98.973 Y91.418 E.03216
G1 X98.247 Y92.9 E.05952
G1 X97.748 Y94.071 E.0459
G1 X97.301 Y95.261 E.04583
G1 X96.904 Y96.47 E.04587
G1 X96.463 Y98.118 E.06151
G1 X96.244 Y99.084 E.03572
G1 X96.061 Y100.055 E.03562
G1 X95.854 Y101.443 E.05061
G1 X95.727 Y102.71 E.04589
G1 X95.65 Y104.448 E.06276
G1 X95.64 Y105.251 E.02895
G1 X95.666 Y106.132 E.03177
G1 X95.773 Y107.792 E.05997
G1 X95.921 Y109.055 E.04586
G1 X96.122 Y110.307 E.04571
G1 X96.375 Y111.533 E.04514
G1 X96.691 Y112.783 E.04648
G1 X97.159 Y114.309 E.05756
G1 X97.473 Y115.212 E.03446
G1 X97.784 Y116 E.03055
G1 X98.459 Y117.555 E.06111
G1 X99.184 Y118.972 E.05739
G1 X99.647 Y119.804 E.03435
G1 X100.312 Y120.889 E.04588
G1 X100.776 Y121.577 E.02993
G1 X101.78 Y122.966 E.06178
G1 X102.58 Y123.956 E.04593
G1 X103.423 Y124.909 E.04586
G1 X104.116 Y125.63 E.03606
G1 X105.226 Y126.703 E.05568
G1 X105.975 Y127.356 E.03583
G1 X107.179 Y128.332 E.05588
G1 X108.206 Y129.081 E.04583
G1 X109.009 Y129.617 E.03481
G1 X110.355 Y130.445 E.05699
G1 X111.47 Y131.055 E.04583
G1 X112.589 Y131.607 E.04498
G1 X113.043 Y131.807 E.0179
G1 X106.356 Y147.957 E.63025
G1 X105.63 Y147.642 E.02852
G1 X104.205 Y146.966 E.0569
G1 X102.804 Y146.242 E.05683
G1 X101.429 Y145.471 E.05685
G1 X100.078 Y144.654 E.05693
G1 X98.758 Y143.793 E.05683
G1 X97.466 Y142.888 E.05687
G1 X96.207 Y141.938 E.05686
G1 X94.979 Y140.949 E.05687
G1 X93.786 Y139.918 E.05685
G1 X92.629 Y138.846 E.05688
G1 X91.506 Y137.739 E.05686
G1 X90.424 Y136.59 E.05688
G1 X89.38 Y135.41 E.05684
G1 X88.377 Y134.193 E.05687
G1 X87.415 Y132.943 E.05685
G1 X86.494 Y131.661 E.05693
G1 X85.617 Y130.349 E.05691
G1 X84.787 Y129.012 E.05674
G1 X84.002 Y127.643 E.0569
G1 X83.262 Y126.25 E.05687
G1 X82.57 Y124.832 E.0569
G1 X81.927 Y123.392 E.05686
G1 X81.333 Y121.932 E.05683
G1 X80.786 Y120.453 E.05687
G1 X80.291 Y118.955 E.05689
G1 X79.848 Y117.442 E.05682
G1 X79.454 Y115.913 E.05692
G1 X79.112 Y114.373 E.0569
G1 X78.821 Y112.823 E.05685
G1 X78.585 Y111.266 E.0568
G1 X78.4 Y109.7 E.05686
G1 X78.268 Y108.126 E.05695
G1 X78.188 Y106.551 E.05687
G1 X78.164 Y104.976 E.0568
G1 X78.192 Y103.397 E.05692
G1 X78.27 Y101.824 E.0568
G1 X78.404 Y100.252 E.05687
G1 X78.589 Y98.685 E.05691
G1 X78.829 Y97.128 E.05682
G1 X79.12 Y95.578 E.05687
G1 X79.464 Y94.038 E.05689
G1 X79.86 Y92.511 E.05687
G1 X80.304 Y90.998 E.05686
G1 X80.8 Y89.502 E.05682
G1 X81.349 Y88.023 E.05689
G1 X81.945 Y86.561 E.05692
G1 X82.59 Y85.123 E.05682
G1 X83.282 Y83.707 E.05685
G1 X84.022 Y82.314 E.05684
G1 X84.81 Y80.947 E.0569
G1 X85.643 Y79.608 E.05687
G1 X86.52 Y78.298 E.05685
G1 X87.44 Y77.015 E.05693
G1 X88.404 Y75.766 E.05687
G1 X89.407 Y74.553 E.05677
G1 X90.454 Y73.371 E.05693
G1 X91.537 Y72.226 E.05684
G1 X92.66 Y71.118 E.05687
G1 X93.819 Y70.048 E.05688
G1 X95.013 Y69.018 E.05686
G1 X96.242 Y68.029 E.05689
G1 X97.503 Y67.082 E.05684
G1 X98.796 Y66.177 E.0569
G1 X100.117 Y65.316 E.05688
G1 X101.466 Y64.502 E.05681
G1 X102.843 Y63.732 E.05688
G1 X104.246 Y63.009 E.05691
G1 X105.67 Y62.334 E.0568
G1 X107.117 Y61.709 E.05687
G1 X108.585 Y61.13 E.05689
G1 X110.072 Y60.601 E.05689
G1 X111.574 Y60.125 E.05683
G1 X113.093 Y59.698 E.05687
G1 X114.625 Y59.325 E.05688
G1 X116.168 Y59 E.05683
G1 X117.721 Y58.729 E.05686
G1 X119.283 Y58.51 E.05687
G1 X120.853 Y58.343 E.05691
G1 X122.424 Y58.231 E.05681
G1 X124.002 Y58.17 E.05692
G1 X125.577 Y58.164 E.05681
G1 X127.155 Y58.209 E.05692
G1 X128.731 Y58.308 E.05692
G1 X130.298 Y58.459 E.05677
G1 X131.864 Y58.666 E.05695
G1 X133.418 Y58.921 E.05679
G1 X134.966 Y59.232 E.05693
G1 X136.5 Y59.592 E.05683
G1 X138.022 Y60.005 E.05686
G1 X139.529 Y60.469 E.05685
G1 X141.022 Y60.985 E.05696
G1 X142.493 Y61.547 E.05679
G1 X143.947 Y62.163 E.05692
G1 X145.379 Y62.824 E.05688
G1 X146.787 Y63.534 E.05685
G1 X148.17 Y64.291 E.05685
G1 X149.527 Y65.094 E.05686
G1 X150.856 Y65.941 E.05685
G1 X152.156 Y66.834 E.05686
G1 X153.425 Y67.77 E.05685
G1 X154.662 Y68.75 E.05691
G1 X155.866 Y69.769 E.05688
G1 X157.035 Y70.828 E.05684
G1 X158.168 Y71.925 E.05687
G1 X159.261 Y73.06 E.05682
G1 X160.318 Y74.232 E.05692
G1 X161.334 Y75.438 E.05686
G1 X162.308 Y76.679 E.05686
G1 X163.24 Y77.952 E.0569
G1 X164.129 Y79.254 E.05685
G1 X164.973 Y80.585 E.05685
G1 X165.774 Y81.945 E.05688
G1 X166.527 Y83.331 E.05688
G1 X167.231 Y84.741 E.05685
G1 X167.89 Y86.174 E.05685
G1 X168.5 Y87.629 E.0569
G1 X169.06 Y89.102 E.05682
G1 X169.57 Y90.597 E.05695
G1 X170.03 Y92.104 E.0568
G1 X170.437 Y93.628 E.05689
G1 X170.795 Y95.165 E.05689
G1 X171.1 Y96.71 E.0568
G1 X171.352 Y98.268 E.0569
G1 X171.533 Y99.677 E.05123
G1 X171.702 Y101.402 E.0625
G1 X171.795 Y102.976 E.05686
G1 X171.835 Y104.618 E.05922
G1 X171.826 Y106.13 E.05453
G1 X171.761 Y107.705 E.05683
G1 X171.643 Y109.279 E.0569
G1 X171.472 Y110.847 E.05687
G1 X171.25 Y112.408 E.05687
G1 X170.972 Y113.96 E.05685
G1 X170.646 Y115.503 E.05686
G1 X170.266 Y117.035 E.05691
G1 X169.836 Y118.551 E.05683
G1 X169.354 Y120.052 E.05683
G1 X168.82 Y121.537 E.05691
G1 X168.24 Y123.005 E.0569
G1 X167.609 Y124.45 E.05686
G1 X166.93 Y125.872 E.05681
G1 X166.203 Y127.272 E.05691
G1 X165.429 Y128.646 E.05683
G1 X164.611 Y129.995 E.05691
G1 X163.748 Y131.315 E.05684
G1 X162.839 Y132.603 E.05684
G1 X161.887 Y133.862 E.05693
G1 X160.896 Y135.087 E.05682
G1 X159.861 Y136.277 E.05686
G1 X158.789 Y137.434 E.05689
G1 X157.678 Y138.555 E.0569
G1 X156.529 Y139.635 E.05684
G1 X155.345 Y140.677 E.0569
G1 X154.128 Y141.678 E.05683
G1 X152.875 Y142.638 E.05691
G1 X151.592 Y143.555 E.05685
G1 X150.28 Y144.428 E.05683
G1 X148.937 Y145.258 E.05693
G1 X147.568 Y146.041 E.05686
G1 X146.175 Y146.777 E.05678
G1 X144.755 Y147.465 E.0569
G1 X143.313 Y148.107 E.05692
G1 X141.854 Y148.699 E.05679
G1 X140.373 Y149.241 E.05687
G1 X138.874 Y149.733 E.05688
G1 X137.359 Y150.176 E.05689
G1 X135.831 Y150.565 E.05687
G1 X134.291 Y150.905 E.05687
G1 X132.739 Y151.191 E.05688
G1 X131.181 Y151.425 E.05683
G1 X129.615 Y151.608 E.05685
G1 X128.042 Y151.737 E.05691
G1 X126.466 Y151.812 E.05687
G1 X124.891 Y151.836 E.05682
G1 X123.313 Y151.804 E.05689
G1 X121.738 Y151.722 E.05689
G1 X120.166 Y151.584 E.05689
G1 X118.603 Y151.397 E.05678
G1 X117.043 Y151.153 E.05691
G1 X115.495 Y150.86 E.05682
G1 X113.955 Y150.514 E.05692
G1 X112.428 Y150.117 E.05687
G1 X111.672 Y149.892 E.02843
G1 X116.908 Y133.278 E.62811
M204 S1000
G1 X116.677 Y132.755 F10800
M204 S800
;TYPE:External perimeter
G1 F954.707
G1 X117.495 Y132.994 E.03071
G1 X118.714 Y133.292 E.04526
G1 X119.937 Y133.536 E.04498
G1 X121.187 Y133.73 E.0456
G1 X122.434 Y133.868 E.04525
G1 X123.349 Y133.93 E.03307
G1 X124.942 Y133.983 E.05746
G1 X125.988 Y133.963 E.03772
G1 X127.452 Y133.877 E.05286
G1 X128.701 Y133.745 E.04531
G1 X129.943 Y133.558 E.04529
G1 X131.174 Y133.317 E.04523
G1 X132.783 Y132.912 E.05983
G1 X133.603 Y132.675 E.03075
G1 X134.793 Y132.278 E.04525
G1 X135.966 Y131.829 E.04528
G1 X137.118 Y131.328 E.0453
G1 X138.628 Y130.573 E.06089
G1 X139.351 Y130.181 E.02965
G1 X140.159 Y129.697 E.03396
G1 X141.477 Y128.844 E.05661
G1 X142.343 Y128.219 E.03849
G1 X142.877 Y127.806 E.02437
G1 X143.477 Y127.33 E.0276
G1 X144.429 Y126.507 E.04536
G1 X145.344 Y125.646 E.0453
G1 X146.461 Y124.473 E.05844
G1 X147.054 Y123.808 E.03211
G1 X148.045 Y122.569 E.05721
G1 X148.598 Y121.829 E.03329
G1 X149.305 Y120.791 E.04528
G1 X150.041 Y119.594 E.05067
G1 X150.581 Y118.628 E.03992
G1 X151.146 Y117.507 E.04527
G1 X151.666 Y116.364 E.04526
G1 X152.132 Y115.197 E.04531
G1 X152.548 Y114.013 E.04526
G1 X152.829 Y113.087 E.0349
G1 X153.225 Y111.594 E.05567
G1 X153.485 Y110.367 E.04523
G1 X153.725 Y108.847 E.05549
G1 X153.841 Y107.88 E.03513
G1 X153.941 Y106.63 E.04521
G1 X153.983 Y105.375 E.04529
G1 X153.973 Y104.127 E.045
G1 X153.9 Y102.787 E.0484
G1 X153.788 Y101.613 E.04252
G1 X153.646 Y100.601 E.03685
G1 X153.347 Y98.955 E.06031
